apps/lut-action/luts/AlexaV3__neutral_709_Rec709_EE_davinci3d.cube
# Alexa conversion LUT, logc2video, itu709. Full in/full out.
# created by alexalutconv (2.09)
LUT_3D_SIZE 33
0.006691 0.006694 0.007670
0.020010 0.006422 0.007765
0.036962 0.006122 0.007871
0.059279 0.005708 0.008019
0.084257 0.005159 0.008219
0.113700 0.004399 0.008504
0.147229 0.003396 0.008895
0.184072 0.002159 0.009411
0.225259 0.000709 0.010100
0.271935 0.000000 0.011034
0.326372 0.000000 0.012338
0.386153 0.000000 0.014057
0.451062 0.000000 0.016289
0.518368 0.000000 0.019035
0.587703 0.000000 0.022358
0.659284 0.000000 0.026351
0.730625 0.000000 0.030937
0.795305 0.000000 0.035650
0.869169 0.000000 0.041690
0.942124 0.000000 0.048021
1.000000 0.000000 0.054400
1.000000 0.000000 0.060458
1.000000 0.000000 0.066041
1.000000 0.000000 0.071247
1.000000 0.000000 0.076076
1.000000 0.000000 0.080604
1.000000 0.000000 0.084748
1.000000 0.000000 0.088606
1.000000 0.000000 0.092152
1.000000 0.000000 0.095337
1.000000 0.000000 0.098193
1.000000 0.000000 0.100833
1.000000 0.000000 0.103064
0.003610 0.018114 0.006607
0.016189 0.017792 0.006700
0.032695 0.017435 0.006803
0.055675 0.016939 0.006948
0.081263 0.016276 0.007143
0.111216 0.015345 0.007421
0.145157 0.014089 0.007804
0.182325 0.012475 0.008309
0.223779 0.010397 0.008984
0.270680 0.007730 0.009900
0.325309 0.004315 0.011181
0.385246 0.000604 0.012874
0.450283 0.000000 0.015075
0.517691 0.000000 0.017788
0.587107 0.000000 0.021075
0.658756 0.000000 0.025031
0.730152 0.000000 0.029581
0.794873 0.000000 0.034260
0.868776 0.000000 0.040284
0.941765 0.000000 0.046686
1.000000 0.000000 0.053130
1.000000 0.000000 0.059244
1.000000 0.000000 0.064877
1.000000 0.000000 0.070125
1.000000 0.000000 0.074990
1.000000 0.000000 0.079551
1.000000 0.000000 0.083723
1.000000 0.000000 0.087606
1.000000 0.000000 0.091175
1.000000 0.000000 0.094379
1.000000 0.000000 0.097251
1.000000 0.000000 0.099905
1.000000 0.000000 0.102149
0.000694 0.032527 0.005458
0.012110 0.032171 0.005547
0.028051 0.031776 0.005647
0.051538 0.031226 0.005787
0.077857 0.030490 0.005977
0.108406 0.029453 0.006247
0.142824 0.028046 0.006619
0.180366 0.026226 0.007111
0.222122 0.023853 0.007769
0.269275 0.020745 0.008663
0.324121 0.016602 0.009918
0.384234 0.011505 0.011578
0.449414 0.005581 0.013743
0.516936 0.000026 0.016417
0.586443 0.000000 0.019663
0.658168 0.000000 0.023576
0.729625 0.000000 0.028083
0.794392 0.000000 0.032724
0.868339 0.000000 0.038707
0.941366 0.000000 0.045182
1.000000 0.000000 0.051701
1.000000 0.000000 0.057880
1.000000 0.000000 0.063569
1.000000 0.000000 0.068865
1.000000 0.000000 0.073772
1.000000 0.000000 0.078370
1.000000 0.000000 0.082574
1.000000 0.000000 0.086486
1.000000 0.000000 0.090079
1.000000 0.000000 0.093304
1.000000 0.000000 0.096196
1.000000 0.000000 0.098867
1.000000 0.000000 0.101125
0.000000 0.052740 0.003923
0.006811 0.052423 0.004008
0.021796 0.052069 0.004103
0.045527 0.051575 0.004236
0.072970 0.050905 0.004416
0.104413 0.049952 0.004673
0.139528 0.048639 0.005027
0.177606 0.046899 0.005497
0.219797 0.044561 0.006129
0.267307 0.041364 0.006990
0.322459 0.036820 0.008202
0.382819 0.030902 0.009814
0.448201 0.023667 0.011923
0.515882 0.015473 0.014538
0.585518 0.006736 0.017723
0.657348 0.000000 0.021574
0.728890 0.000000 0.026018
0.793722 0.000000 0.030603
0.867731 0.000000 0.036524
0.940809 0.000000 0.043056
1.000000 0.000000 0.049684
1.000000 0.000000 0.055957
1.000000 0.000000 0.061725
1.000000 0.000000 0.067090
1.000000 0.000000 0.072058
1.000000 0.000000 0.076708
1.000000 0.000000 0.080959
1.000000 0.000000 0.084910
1.000000 0.000000 0.088540
1.000000 0.000000 0.091796
1.000000 0.000000 0.094714
1.000000 0.000000 0.097409
1.000000 0.000000 0.099686
0.000000 0.075709 0.002017
0.000834 0.075443 0.002093
0.013851 0.075145 0.002178
0.036916 0.074731 0.002298
0.066109 0.074170 0.002461
0.098882 0.073373 0.002694
0.135001 0.072279 0.003018
0.173840 0.070833 0.003451
0.216635 0.068900 0.004037
0.264639 0.066275 0.004843
0.320210 0.062581 0.005988
0.380908 0.057648 0.007522
0.446564 0.051106 0.009547
0.514461 0.042763 0.012074
0.584270 0.032233 0.015170
0.656243 0.020373 0.018928
0.727899 0.008452 0.023283
0.792818 0.000000 0.027789
0.866911 0.000000 0.033621
0.940059 0.000000 0.040136
1.000000 0.000000 0.046916
1.000000 0.000000 0.053323
1.000000 0.000000 0.059204
1.000000 0.000000 0.064667
1.000000 0.000000 0.069718
1.000000 0.000000 0.074443
1.000000 0.000000 0.078757
1.000000 0.000000 0.082766
1.000000 0.000000 0.086445
1.000000 0.000000 0.089744
1.000000 0.000000 0.092699
1.000000 0.000000 0.095427
1.000000 0.000000 0.097731
0.000000 0.102948 0.000000
0.000000 0.102725 0.000000
0.003952 0.102477 0.000020
0.024588 0.102130 0.000082
0.055752 0.101662 0.000182
0.090713 0.100998 0.000339
0.128406 0.100088 0.000577
0.168401 0.098889 0.000914
0.212093 0.097291 0.001394
0.260823 0.095132 0.002081
0.317002 0.092116 0.003090
0.378188 0.088131 0.004481
0.444236 0.082923 0.006355
0.512443 0.076423 0.008732
0.582500 0.068365 0.011679
0.654675 0.058289 0.015291
0.726496 0.045993 0.019506
0.791538 0.032368 0.023889
0.865750 0.015983 0.029585
0.938995 0.001450 0.035972
1.000000 0.000000 0.042894
1.000000 0.000000 0.049503
1.000000 0.000000 0.055554
1.000000 0.000000 0.061163
1.000000 0.000000 0.066341
1.000000 0.000000 0.071176
1.000000 0.000000 0.075586
1.000000 0.000000 0.079679
1.000000 0.000000 0.083432
1.000000 0.000000 0.086794
1.000000 0.000000 0.089804
1.000000 0.000000 0.092581
1.000000 0.000000 0.094924
0.000000 0.134100 0.000000
0.000000 0.133912 0.000000
0.000000 0.133704 0.000000
0.009444 0.133413 0.000000
0.040049 0.133022 0.000000
0.078806 0.132467 0.000000
0.119008 0.131706 0.000000
0.160751 0.130706 0.000000
0.205762 0.129377 0.000000
0.255533 0.127588 0.000000
0.312576 0.125099 0.000000
0.374444 0.121835 0.000909
0.441040 0.117608 0.002435
0.509675 0.112402 0.004516
0.580075 0.106061 0.007196
0.652529 0.098328 0.010560
0.724576 0.089220 0.014547
0.789786 0.079515 0.018737
0.864161 0.066334 0.024225
0.937543 0.050407 0.030418
1.000000 0.031086 0.037223
1.000000 0.012710 0.044095
1.000000 0.000000 0.050402
1.000000 0.000000 0.056229
1.000000 0.000000 0.061595
1.000000 0.000000 0.066594
1.000000 0.000000 0.071144
1.000000 0.000000 0.075360
1.000000 0.000000 0.079221
1.000000 0.000000 0.082676
1.000000 0.000000 0.085765
1.000000 0.000000 0.088613
1.000000 0.000000 0.091015
0.000000 0.168428 0.000000
0.000000 0.168270 0.000000
0.000000 0.168094 0.000000
0.000000 0.167849 0.000000
0.018383 0.167518 0.000000
0.061559 0.167050 0.000000
0.105909 0.166408 0.000000
0.150311 0.165566 0.000000
0.197231 0.164448 0.000000
0.248468 0.162947 0.000000
0.306698 0.160865 0.000000
0.369493 0.158147 0.000000
0.436824 0.154649 0.000000
0.506032 0.150376 0.000110
0.576886 0.145224 0.002049
0.649712 0.139028 0.004906
0.722055 0.131863 0.008485
0.787490 0.124401 0.012354
0.862080 0.114585 0.017514
0.935639 0.103285 0.023410
1.000000 0.090398 0.029946
1.000000 0.076390 0.036704
1.000000 0.061462 0.043334
1.000000 0.045145 0.049486
1.000000 0.027618 0.055126
1.000000 0.011946 0.060365
1.000000 0.000342 0.065119
1.000000 0.000000 0.069514
1.000000 0.000000 0.073529
1.000000 0.000000 0.077117
1.000000 0.000000 0.080319
1.000000 0.000000 0.083267
1.000000 0.000000 0.085752
0.000000 0.206888 0.000000
0.000000 0.206754 0.000000
0.000000 0.206604 0.000000
0.000000 0.206396 0.000000
0.000000 0.206115 0.000000
0.034485 0.205717 0.000000
0.086832 0.205173 0.000000
0.135637 0.204460 0.000000
0.185478 0.203514 0.000000
0.238854 0.202246 0.000000
0.298768 0.200492 0.000000
0.362852 0.198208 0.000000
0.431191 0.195281 0.000000
0.501177 0.191725 0.000000
0.572646 0.187466 0.000000
0.645968 0.182387 0.000000
0.718710 0.176576 0.001626
0.784443 0.170603 0.004771
0.859319 0.162872 0.009303
0.933117 0.154171 0.014685
1.000000 0.144535 0.020782
1.000000 0.134454 0.027173
1.000000 0.124221 0.033576
1.000000 0.113728 0.039985
1.000000 0.103015 0.046056
1.000000 0.091934 0.051665
1.000000 0.080721 0.056733
1.000000 0.069138 0.061398
1.000000 0.057255 0.065649
1.000000 0.045282 0.069435
1.000000 0.033249 0.072808
1.000000 0.022153 0.075907
1.000000 0.013332 0.078513
0.000000 0.250541 0.000000
0.000000 0.250427 0.000000
0.000000 0.250300 0.000000
0.000000 0.250123 0.000000
0.000000 0.249884 0.000000
0.000817 0.249546 0.000000
0.056769 0.249084 0.000000
0.114091 0.248479 0.000000
0.168802 0.247676 0.000000
0.225479 0.246601 0.000000
0.287874 0.245118 0.000000
0.353802 0.243191 0.000000
0.423557 0.240727 0.000000
0.494620 0.237744 0.000000
0.566932 0.234189 0.000000
0.640935 0.229973 0.000000
0.714219 0.225183 0.000000
0.780357 0.220298 0.000000
0.855619 0.214037 0.000422
0.929738 0.207079 0.004411
1.000000 0.199490 0.009602
1.000000 0.191694 0.015318
1.000000 0.183943 0.021190
1.000000 0.176177 0.027158
1.000000 0.168462 0.033109
1.000000 0.160726 0.039048
1.000000 0.153174 0.044634
1.000000 0.145695 0.049746
1.000000 0.138391 0.054378
1.000000 0.131445 0.058485
1.000000 0.124868 0.062129
1.000000 0.118466 0.065467
1.000000 0.112785 0.068266
0.000000 0.301515 0.000000
0.000000 0.301418 0.000000
0.000000 0.301310 0.000000
0.000000 0.301160 0.000000
0.000000 0.300958 0.000000
0.000000 0.300671 0.000000
0.006942 0.300279 0.000000
0.079141 0.299767 0.000000
0.143564 0.299088 0.000000
0.205920 0.298179 0.000000
0.272262 0.296926 0.000000
0.340992 0.295300 0.000000
0.412836 0.293228 0.000000
0.485461 0.290724 0.000000
0.558980 0.287750 0.000000
0.633947 0.284238 0.000000
0.707994 0.280266 0.000000
0.774702 0.276236 0.000000
0.850505 0.271105 0.000000
0.925072 0.265448 0.000000
0.997468 0.259335 0.000000
1.000000 0.253120 0.001704
1.000000 0.247010 0.006187
1.000000 0.240963 0.011196
1.000000 0.235031 0.016407
1.000000 0.229164 0.021737
1.000000 0.223521 0.026969
1.000000 0.218017 0.032134
1.000000 0.212728 0.037127
1.000000 0.207781 0.041782
1.000000 0.203177 0.045922
1.000000 0.198771 0.049690
1.000000 0.194930 0.052835
0.000000 0.357544 0.000000
0.000000 0.357461 0.000000
0.000000 0.357369 0.000000
0.000000 0.357241 0.000000
0.000000 0.357069 0.000000
0.000000 0.356824 0.000000
0.000000 0.356490 0.000000
0.017619 0.356052 0.000000
0.105224 0.355474 0.000000
0.178148 0.354700 0.000000
0.250843 0.353634 0.000000
0.323750 0.352251 0.000000
0.398576 0.350492 0.000000
0.473368 0.348371 0.000000
0.548535 0.345857 0.000000
0.624802 0.342895 0.000000
0.699869 0.339557 0.000000
0.767332 0.336182 0.000000
0.843850 0.331903 0.000000
0.919005 0.327208 0.000000
0.991889 0.322163 0.000000
1.000000 0.317068 0.000000
1.000000 0.312090 0.000000
1.000000 0.307198 0.000000
1.000000 0.302431 0.000000
1.000000 0.297751 0.002950
1.000000 0.293281 0.006925
1.000000 0.288954 0.011145
1.000000 0.284827 0.015388
1.000000 0.280995 0.019464
1.000000 0.277453 0.023319
1.000000 0.274089 0.027041
1.000000 0.271174 0.030306
0.000000 0.418424 0.000000
0.000000 0.418353 0.000000
0.000000 0.418274 0.000000
0.000000 0.418163 0.000000
0.000000 0.418016 0.000000
0.000000 0.417805 0.000000
0.000000 0.417518 0.000000
0.000000 0.417142 0.000000
0.037416 0.416646 0.000000
0.137108 0.415982 0.000000
0.221151 0.415067 0.000000
0.300580 0.413882 0.000000
0.379749 0.412376 0.000000
0.457575 0.410563 0.000000
0.534989 0.408416 0.000000
0.613000 0.405892 0.000000
0.689420 0.403054 0.000000
0.757874 0.400191 0.000000
0.835328 0.396571 0.000000
0.911250 0.392613 0.000000
0.984765 0.388376 0.000000
1.000000 0.384113 0.000000
1.000000 0.379967 0.000000
1.000000 0.375908 0.000000
1.000000 0.371970 0.000000
1.000000 0.368119 0.000000
1.000000 0.364457 0.000000
1.000000 0.360926 0.000000
1.000000 0.357574 0.000000
1.000000 0.354473 0.000000
1.000000 0.351619 0.000360
1.000000 0.348916 0.002614
1.000000 0.346582 0.004924
0.000000 0.481588 0.000000
0.000000 0.481525 0.000000
0.000000 0.481457 0.000000
0.000000 0.481360 0.000000
0.000000 0.481231 0.000000
0.000000 0.481049 0.000000
0.000000 0.480799 0.000000
0.000000 0.480472 0.000000
0.000000 0.480040 0.000000
0.071743 0.479463 0.000000
0.180411 0.478668 0.000000
0.270445 0.477641 0.000000
0.355916 0.476334 0.000000
0.437889 0.474762 0.000000
0.518266 0.472903 0.000000
0.598524 0.470721 0.000000
0.676662 0.468271 0.000000
0.746363 0.465802 0.000000
0.824980 0.462688 0.000000
0.901852 0.459290 0.000000
0.976146 0.455662 0.000000
1.000000 0.452021 0.000000
1.000000 0.448488 0.000000
1.000000 0.445040 0.000000
1.000000 0.441702 0.000000
1.000000 0.438447 0.000000
1.000000 0.435360 0.000000
1.000000 0.432391 0.000000
1.000000 0.429579 0.000000
1.000000 0.426984 0.000000
1.000000 0.424600 0.000000
1.000000 0.422348 0.000000
1.000000 0.420408 0.000000
0.000000 0.546680 0.000000
0.000000 0.546626 0.000000
0.000000 0.546565 0.000000
0.000000 0.546480 0.000000
0.000000 0.546368 0.000000
0.000000 0.546207 0.000000
0.000000 0.545987 0.000000
0.000000 0.545700 0.000000
0.000000 0.545320 0.000000
0.000000 0.544813 0.000000
0.120404 0.544116 0.000000
0.230609 0.543213 0.000000
0.325749 0.542066 0.000000
0.413517 0.540687 0.000000
0.497837 0.539058 0.000000
0.580993 0.537148 0.000000
0.661299 0.535004 0.000000
0.732554 0.532848 0.000000
0.812609 0.530132 0.000000
0.890643 0.527171 0.000000
0.965883 0.524016 0.000000
1.000000 0.520855 0.000000
1.000000 0.517794 0.000000
1.000000 0.514811 0.000000
1.000000 0.511929 0.000000
1.000000 0.509125 0.000000
1.000000 0.506469 0.000000
1.000000 0.503918 0.000000
1.000000 0.501505 0.000000
1.000000 0.499283 0.000000
1.000000 0.497245 0.000000
1.000000 0.495322 0.000000
1.000000 0.493667 0.000000
0.000000 0.613904 0.000000
0.000000 0.613856 0.000000
0.000000 0.613803 0.000000
0.000000 0.613727 0.000000
0.000000 0.613627 0.000000
0.000000 0.613485 0.000000
0.000000 0.613290 0.000000
0.000000 0.613035 0.000000
0.000000 0.612699 0.000000
0.000000 0.612249 0.000000
0.008035 0.611631 0.000000
0.174968 0.610831 0.000000
0.286812 0.609816 0.000000
0.383116 0.608594 0.000000
0.472824 0.607154 0.000000
0.559776 0.605464 0.000000
0.642847 0.603572 0.000000
0.716048 0.601668 0.000000
0.797882 0.599272 0.000000
0.877338 0.596665 0.000000
0.953730 0.593889 0.000000
1.000000 0.591111 0.000000
1.000000 0.588426 0.000000
1.000000 0.585811 0.000000
1.000000 0.583289 0.000000
1.000000 0.580837 0.000000
1.000000 0.578517 0.000000
1.000000 0.576292 0.000000
1.000000 0.574190 0.000000
1.000000 0.572257 0.000000
1.000000 0.570484 0.000000
1.000000 0.568813 0.000000
1.000000 0.567376 0.000000
0.000000 0.680921 0.000000
0.000000 0.680878 0.000000
0.000000 0.680830 0.000000
0.000000 0.680763 0.000000
0.000000 0.680673 0.000000
0.000000 0.680545 0.000000
0.000000 0.680371 0.000000
0.000000 0.680143 0.000000
0.000000 0.679840 0.000000
0.000000 0.679438 0.000000
0.000000 0.678883 0.000000
0.088904 0.678167 0.000000
0.236726 0.677257 0.000000
0.346136 0.676164 0.000000
0.443204 0.674875 0.000000
0.535040 0.673363 0.000000
0.621544 0.671670 0.000000
0.697108 0.669969 0.000000
0.781067 0.667829 0.000000
0.862203 0.665503 0.000000
0.939943 0.663028 0.000000
1.000000 0.660554 0.000000
1.000000 0.658165 0.000000
1.000000 0.655839 0.000000
1.000000 0.653599 0.000000
1.000000 0.651423 0.000000
1.000000 0.649366 0.000000
1.000000 0.647394 0.000000
1.000000 0.645534 0.000000
1.000000 0.643823 0.000000
1.000000 0.642255 0.000000
1.000000 0.640778 0.000000
1.000000 0.639510 0.000000
0.000000 0.741692 0.000000
0.000000 0.741653 0.000000
0.000000 0.741609 0.000000
0.000000 0.741548 0.000000
0.000000 0.741465 0.000000
0.000000 0.741348 0.000000
0.000000 0.741190 0.000000
0.000000 0.740981 0.000000
0.000000 0.740706 0.000000
0.000000 0.740338 0.000000
0.000000 0.739832 0.000000
0.000000 0.739178 0.000000
0.175230 0.738348 0.000000
0.304925 0.737351 0.000000
0.411425 0.736175 0.000000
0.509029 0.734798 0.000000
0.599408 0.733255 0.000000
0.677570 0.731706 0.000000
0.763822 0.729759 0.000000
0.846746 0.727643 0.000000
0.925905 0.725393 0.000000
0.997940 0.723144 0.000000
1.000000 0.720974 0.000000
1.000000 0.718865 0.000000
1.000000 0.716832 0.000000
1.000000 0.714859 0.000000
1.000000 0.712996 0.000000
1.000000 0.711211 0.000000
1.000000 0.709527 0.000000
1.000000 0.707979 0.000000
1.000000 0.706561 0.000000
1.000000 0.705227 0.000000
1.000000 0.704081 0.000000
0.000000 0.811104 0.000000
0.000000 0.811068 0.000000
0.000000 0.811029 0.000000
0.000000 0.810973 0.000000
0.000000 0.810898 0.000000
0.000000 0.810792 0.000000
0.000000 0.810647 0.000000
0.000000 0.810459 0.000000
0.000000 0.810208 0.000000
0.000000 0.809874 0.000000
0.000000 0.809415 0.000000
0.000000 0.808821 0.000000
0.057627 0.808069 0.000000
0.244622 0.807164 0.000000
0.367807 0.806098 0.000000
0.474356 0.804849 0.000000
0.570373 0.803451 0.000000
0.652180 0.802047 0.000000
0.741576 0.800283 0.000000
0.826907 0.798367 0.000000
0.907954 0.796330 0.000000
0.981439 0.794297 0.000000
1.000000 0.792336 0.000000
1.000000 0.790430 0.000000
1.000000 0.788595 0.000000
1.000000 0.786815 0.000000
1.000000 0.785133 0.000000
1.000000 0.783525 0.000000
1.000000 0.782007 0.000000
1.000000 0.780612 0.000000
1.000000 0.779336 0.000000
1.000000 0.778135 0.000000
1.000000 0.777103 0.000000
0.000000 0.879672 0.000000
0.000000 0.879640 0.000000
0.000000 0.879603 0.000000
0.000000 0.879552 0.000000
0.000000 0.879483 0.000000
0.000000 0.879387 0.000000
0.000000 0.879255 0.000000
0.000000 0.879081 0.000000
0.000000 0.878852 0.000000
0.000000 0.878547 0.000000
0.000000 0.878127 0.000000
0.000000 0.877584 0.000000
0.000000 0.876894 0.000000
0.159808 0.876067 0.000000
0.314174 0.875092 0.000000
0.433677 0.873950 0.000000
0.537092 0.872671 0.000000
0.623445 0.871388 0.000000
0.716640 0.869777 0.000000
0.804816 0.868027 0.000000
0.888058 0.866168 0.000000
0.963212 0.864314 0.000000
1.000000 0.862524 0.000000
1.000000 0.860786 0.000000
1.000000 0.859114 0.000000
1.000000 0.857492 0.000000
1.000000 0.855961 0.000000
1.000000 0.854496 0.000000
1.000000 0.853115 0.000000
1.000000 0.851846 0.000000
1.000000 0.850686 0.000000
1.000000 0.849593 0.000000
1.000000 0.848655 0.000000
0.000000 0.946464 0.000000
0.000000 0.946433 0.000000
0.000000 0.946400 0.000000
0.000000 0.946352 0.000000
0.000000 0.946289 0.000000
0.000000 0.946200 0.000000
0.000000 0.946077 0.000000
0.000000 0.945918 0.000000
0.000000 0.945707 0.000000
0.000000 0.945425 0.000000
0.000000 0.945038 0.000000
0.000000 0.944536 0.000000
0.000000 0.943900 0.000000
0.000266 0.943137 0.000000
0.246143 0.942238 0.000000
0.386005 0.941185 0.000000
0.499351 0.940006 0.000000
0.591399 0.938825 0.000000
0.689164 0.937340 0.000000
0.780666 0.935728 0.000000
0.866426 0.934016 0.000000
0.943472 0.932310 0.000000
1.000000 0.930662 0.000000
1.000000 0.929065 0.000000
1.000000 0.927527 0.000000
1.000000 0.926035 0.000000
1.000000 0.924628 0.000000
1.000000 0.923282 0.000000
1.000000 0.922014 0.000000
1.000000 0.920848 0.000000
1.000000 0.919782 0.000000
1.000000 0.918780 0.000000
1.000000 0.917919 0.000000
0.000000 1.000000 0.000000
0.000000 1.000000 0.000000
0.000000 1.000000 0.000000
0.000000 1.000000 0.000000
0.000000 1.000000 0.000000
0.000000 1.000000 0.000000
0.000000 1.000000 0.000000
0.000000 1.000000 0.000000
0.000000 1.000000 0.000000
0.000000 1.000000 0.000000
0.000000 1.000000 0.000000
0.000000 1.000000 0.000000
0.000000 1.000000 0.000000
0.000000 1.000000 0.000000
0.156299 1.000000 0.000000
0.332100 1.000000 0.000000
0.458664 1.000000 0.000000
0.557589 1.000000 0.000000
0.660596 0.999664 0.000000
0.755790 0.998164 0.000000
0.844285 0.996571 0.000000
0.923352 0.994982 0.000000
0.992980 0.993449 0.000000
1.000000 0.991962 0.000000
1.000000 0.990532 0.000000
1.000000 0.989145 0.000000
1.000000 0.987837 0.000000
1.000000 0.986586 0.000000
1.000000 0.985406 0.000000
1.000000 0.984324 0.000000
1.000000 0.983334 0.000000
1.000000 0.982403 0.000000
1.000000 0.981603 0.000000
0.000000 1.000000 0.000000
0.000000 1.000000 0.000000
0.000000 1.000000 0.000000
0.000000 1.000000 0.000000
0.000000 1.000000 0.000000
0.000000 1.000000 0.000000
0.000000 1.000000 0.000000
0.000000 1.000000 0.000000
0.000000 1.000000 0.000000
0.000000 1.000000 0.000000
0.000000 1.000000 0.000000
0.000000 1.000000 0.000000
0.000000 1.000000 0.000000
0.000000 1.000000 0.000000
0.001454 1.000000 0.000000
0.271096 1.000000 0.000000
0.415784 1.000000 0.000000
0.522926 1.000000 0.000000
0.631814 1.000000 0.000000
0.730987 1.000000 0.000000
0.822360 1.000000 0.000000
0.903521 1.000000 0.000000
0.974709 1.000000 0.000000
1.000000 1.000000 0.000000
1.000000 1.000000 0.000000
1.000000 1.000000 0.000000
1.000000 1.000000 0.000000
1.000000 1.000000 0.000000
1.000000 1.000000 0.000000
1.000000 1.000000 0.000000
1.000000 1.000000 0.000000
1.000000 1.000000 0.000000
1.000000 1.000000 0.000000
0.000000 1.000000 0.000000
0.000000 1.000000 0.000000
0.000000 1.000000 0.000000
0.000000 1.000000 0.000000
0.000000 1.000000 0.000000
0.000000 1.000000 0.000000
0.000000 1.000000 0.000000
0.000000 1.000000 0.000000
0.000000 1.000000 0.000000
0.000000 1.000000 0.000000
0.000000 1.000000 0.000000
0.000000 1.000000 0.000000
0.000000 1.000000 0.000000
0.000000 1.000000 0.000000
0.000000 1.000000 0.000000
0.197227 1.000000 0.000000
0.369646 1.000000 0.000000
0.486947 1.000000 0.000000
0.602549 1.000000 0.000000
0.706065 1.000000 0.000000
0.800495 1.000000 0.000000
0.883840 1.000000 0.000000
0.956638 1.000000 0.000000
1.000000 1.000000 0.000000
1.000000 1.000000 0.000000
1.000000 1.000000 0.000000
1.000000 1.000000 0.000000
1.000000 1.000000 0.000000
1.000000 1.000000 0.000000
1.000000 1.000000 0.000000
1.000000 1.000000 0.000000
1.000000 1.000000 0.000000
1.000000 1.000000 0.000000
0.000000 1.000000 0.000000
0.000000 1.000000 0.000000
0.000000 1.000000 0.000000
0.000000 1.000000 0.000000
0.000000 1.000000 0.000000
0.000000 1.000000 0.000000
0.000000 1.000000 0.000000
0.000000 1.000000 0.000000
0.000000 1.000000 0.000000
0.000000 1.000000 0.000000
0.000000 1.000000 0.000000
0.000000 1.000000 0.000000
0.000000 1.000000 0.000000
0.000000 1.000000 0.000000
0.000000 1.000000 0.000000
0.094078 1.000000 0.000000
0.319454 1.000000 0.000000
0.449675 1.000000 0.000000
0.572977 1.000000 0.000000
0.681214 1.000000 0.000000
0.778868 1.000000 0.000000
0.864476 1.000000 0.000000
0.938919 1.000000 0.000000
1.000000 1.000000 0.000000
1.000000 1.000000 0.000000
1.000000 1.000000 0.000000
1.000000 1.000000 0.000000
1.000000 1.000000 0.000000
1.000000 1.000000 0.000000
1.000000 1.000000 0.000000
1.000000 1.000000 0.000000
1.000000 1.000000 0.000000
1.000000 1.000000 0.000000
0.000000 1.000000 0.000000
0.000000 1.000000 0.000000
0.000000 1.000000 0.000000
0.000000 1.000000 0.000000
0.000000 1.000000 0.000000
0.000000 1.000000 0.000000
0.000000 1.000000 0.000000
0.000000 1.000000 0.000000
0.000000 1.000000 0.000000
0.000000 1.000000 0.000000
0.000000 1.000000 0.000000
0.000000 1.000000 0.000000
0.000000 1.000000 0.000000
0.000000 1.000000 0.000000
0.000000 1.000000 0.000000
0.000000 1.000000 0.000000
0.262705 1.000000 0.000000
0.410415 1.000000 0.000000
0.542765 1.000000 0.000000
0.656207 1.000000 0.000000
0.757298 1.000000 0.000000
0.845269 1.000000 0.000000
0.921410 1.000000 0.000000
0.989102 1.000000 0.000000
1.000000 1.000000 0.000000
1.000000 1.000000 0.000000
1.000000 1.000000 0.000000
1.000000 1.000000 0.000000
1.000000 1.000000 0.000000
1.000000 1.000000 0.000000
1.000000 1.000000 0.000000
1.000000 1.000000 0.000000
1.000000 1.000000 0.000000
0.000000 1.000000 0.000000
0.000000 1.000000 0.000000
0.000000 1.000000 0.000000
0.000000 1.000000 0.000000
0.000000 1.000000 0.000000
0.000000 1.000000 0.000000
0.000000 1.000000 0.000000
0.000000 1.000000 0.000000
0.000000 1.000000 0.000000
0.000000 1.000000 0.000000
0.000000 1.000000 0.000000
0.000000 1.000000 0.000000
0.000000 1.000000 0.000000
0.000000 1.000000 0.000000
0.000000 1.000000 0.000000
0.000000 1.000000 0.000000
0.196999 1.000000 0.000000
0.369758 1.000000 0.000000
0.512645 1.000000 0.000000
0.631701 1.000000 0.000000
0.736363 1.000000 0.000000
0.826736 1.000000 0.000000
0.904579 1.000000 0.000000
0.973560 1.000000 0.000000
1.000000 1.000000 0.000000
1.000000 1.000000 0.000000
