apps/lut-action/luts/AlexaV3__neutral_709_Rec709_EE_davinci3d.cube
# Alexa conversion LUT, logc2video, itu709. Full in/full out.
# created by alexalutconv (2.09)
LUT_3D_SIZE 5
0.006691 0.006694 0.007670
0.225259 0.000709 0.010100
0.730625 0.000000 0.030937
1.000000 0.000000 0.076076
1.000000 0.000000 0.103064
0.000000 0.206888 0.000000
0.185478 0.203514 0.000000
0.718710 0.176576 0.001626
1.000000 0.103015 0.046056
1.000000 0.013332 0.078513
0.000000 0.680921 0.000000
0.000000 0.679840 0.000000
0.621544 0.671670 0.000000
1.000000 0.653599 0.000000
1.000000 0.639510 0.000000
0.000000 1.000000 0.000000
0.000000 1.000000 0.000000
0.319454 1.000000 0.000000
1.000000 1.000000 0.000000
1.000000 1.000000 0.000000
0.000000 1.000000 0.000000
0.000000 1.000000 0.000000
0.000000 1.000000 0.000000
0.962747 1.000000 0.000000
1.000000 1.000000 0.000000
0.000000 0.000000 0.205653
0.217395 0.000000 0.206889
0.728137 0.000000 0.215977
1.000000 0.000000 0.234668
1.000000 0.000000 0.248081
0.000000 0.180604 0.191232
0.176214 0.176836 0.192540
0.716177 0.146280 0.202142
1.000000 0.054706 0.221787
1.000000 0.000000 0.235812
0.000000 0.672839 0.028013
0.000000 0.671744 0.030992
0.618590 0.663468 0.053533
1.000000 0.645156 0.093047
1.000000 0.630867 0.117590
0.000000 1.000000 0.000000
0.000000 1.000000 0.000000
0.313717 1.000000 0.000000
1.000000 1.000000 0.000000
1.000000 1.000000 0.000000
0.000000 1.000000 0.000000
0.000000 1.000000 0.000000
0.000000 1.000000 0.000000
0.960905 1.000000 0.000000
1.000000 1.000000 0.000000
0.000000 0.000000 0.684912
0.148753 0.000000 0.685314
0.709217 0.000000 0.688321
1.000000 0.000000 0.694788
1.000000 0.000000 0.699661
0.000000 0.000000 0.680345
0.088976 0.000000 0.680750
0.696912 0.000000 0.683778
1.000000 0.000000 0.690291
1.000000 0.000000 0.695197
0.000000 0.608757 0.644993
0.000000 0.607540 0.645421
0.595990 0.598331 0.648622
1.000000 0.577857 0.655500
1.000000 0.561785 0.660676
0.000000 1.000000 0.560518
0.000000 1.000000 0.561012
0.267280 1.000000 0.564707
1.000000 1.000000 0.572627
1.000000 1.000000 0.578570
0.000000 1.000000 0.486435
0.000000 1.000000 0.487005
0.000000 1.000000 0.491259
0.946997 1.000000 0.500352
1.000000 1.000000 0.507153
0.000000 0.000000 1.000000
0.000000 0.000000 1.000000
0.666400 0.000000 1.000000
1.000000 0.000000 1.000000
1.000000 0.000000 1.000000
0.000000 0.000000 1.000000
0.000000 0.000000 1.000000
0.653238 0.000000 1.000000
1.000000 0.000000 1.000000
1.000000 0.000000 1.000000
0.000000 0.438284 1.000000
0.000000 0.436585 1.000000
0.543857 0.423620 1.000000
1.000000 0.394107 1.000000
1.000000 0.370170 1.000000
0.000000 1.000000 1.000000
0.000000 1.000000 1.000000
0.128056 1.000000 1.000000
1.000000 1.000000 1.000000
1.000000 1.000000 1.000000
0.000000 1.000000 1.000000
0.000000 1.000000 1.000000
0.000000 1.000000 1.000000
0.916161 1.000000 1.000000
1.000000 1.000000 1.000000
0.000000 0.000000 1.000000
0.000000 0.000000 1.000000
0.632016 0.000000 1.000000
1.000000 0.000000 1.000000
1.000000 0.000000 1.000000
0.000000 0.000000 1.000000
0.000000 0.000000 1.000000
0.618084 0.000000 1.000000
1.000000 0.000000 1.000000
1.000000 0.000000 1.000000
0.000000 0.242220 1.000000
0.000000 0.239269 1.000000
0.500788 0.216042 1.000000
1.000000 0.156808 1.000000
1.000000 0.096978 1.000000
0.000000 0.980776 1.000000
0.000000 0.980050 1.000000
0.000000 0.974571 1.000000
1.000000 0.962585 1.000000
1.000000 0.953366 1.000000
0.000000 1.000000 1.000000
0.000000 1.000000 1.000000
0.000000 1.000000 1.000000
0.892086 1.000000 1.000000
1.000000 1.000000 1.000000
