apps/lut-action/luts/AlexaV3__neutral_709_Rec709_EE_davinci3d.cube
# Alexa conversion LUT, logc2video, itu709. Full in/full out.
# created by alexalutconv (2.09)
LUT_3D_SIZE 9
0.006691 0.006694 0.007670
0.084257 0.005159 0.008219
0.225259 0.000709 0.010100
0.451062 0.000000 0.016289
0.730625 0.000000 0.030937
1.000000 0.000000 0.054400
1.000000 0.000000 0.076076
1.000000 0.000000 0.092152
1.000000 0.000000 0.103064
0.000000 0.075709 0.002017
0.066109 0.074170 0.002461
0.216635 0.068900 0.004037
0.446564 0.051106 0.009547
0.727899 0.008452 0.023283
1.000000 0.000000 0.046916
1.000000 0.000000 0.069718
1.000000 0.000000 0.086445
1.000000 0.000000 0.097731
0.000000 0.206888 0.000000
0.000000 0.206115 0.000000
0.185478 0.203514 0.000000
0.431191 0.195281 0.000000
0.718710 0.176576 0.001626
1.000000 0.144535 0.020782
1.000000 0.103015 0.046056
1.000000 0.057255 0.065649
1.000000 0.013332 0.078513
0.000000 0.418424 0.000000
0.000000 0.418016 0.000000
0.037416 0.416646 0.000000
0.379749 0.412376 0.000000
0.689420 0.403054 0.000000
0.984765 0.388376 0.000000
1.000000 0.371970 0.000000
1.000000 0.357574 0.000000
1.000000 0.346582 0.004924
0.000000 0.680921 0.000000
0.000000 0.680673 0.000000
0.000000 0.679840 0.000000
0.236726 0.677257 0.000000
0.621544 0.671670 0.000000
0.939943 0.663028 0.000000
1.000000 0.653599 0.000000
1.000000 0.645534 0.000000
1.000000 0.639510 0.000000
0.000000 0.946464 0.000000
0.000000 0.946289 0.000000
0.000000 0.945707 0.000000
0.000000 0.943900 0.000000
0.499351 0.940006 0.000000
0.866426 0.934016 0.000000
1.000000 0.927527 0.000000
1.000000 0.922014 0.000000
1.000000 0.917919 0.000000
0.000000 1.000000 0.000000
0.000000 1.000000 0.000000
0.000000 1.000000 0.000000
0.000000 1.000000 0.000000
0.319454 1.000000 0.000000
0.778868 1.000000 0.000000
1.000000 1.000000 0.000000
1.000000 1.000000 0.000000
1.000000 1.000000 0.000000
0.000000 1.000000 0.000000
0.000000 1.000000 0.000000
0.000000 1.000000 0.000000
0.000000 1.000000 0.000000
0.000000 1.000000 0.000000
0.695759 1.000000 0.000000
1.000000 1.000000 0.000000
1.000000 1.000000 0.000000
1.000000 1.000000 0.000000
0.000000 1.000000 0.000000
0.000000 1.000000 0.000000
0.000000 1.000000 0.000000
0.000000 1.000000 0.000000
0.000000 1.000000 0.000000
0.626868 1.000000 0.000000
0.962747 1.000000 0.000000
1.000000 1.000000 0.000000
1.000000 1.000000 0.000000
0.003012 0.000000 0.073976
0.080632 0.000000 0.074533
0.223470 0.000000 0.076377
0.450120 0.000000 0.081948
0.730054 0.000000 0.093278
1.000000 0.000000 0.109218
1.000000 0.000000 0.124887
1.000000 0.000000 0.137157
1.000000 0.000000 0.145753
0.000000 0.063842 0.067523
0.061971 0.062161 0.068105
0.214786 0.056382 0.070032
0.445613 0.036528 0.075843
0.727325 0.000000 0.087612
1.000000 0.000000 0.104076
1.000000 0.000000 0.120179
1.000000 0.000000 0.132744
1.000000 0.000000 0.141527
0.000000 0.201087 0.043428
0.000000 0.200296 0.044126
0.183379 0.197633 0.046432
0.430207 0.189196 0.053316
0.718128 0.169971 0.066990
1.000000 0.136820 0.085648
1.000000 0.093214 0.103495
1.000000 0.043456 0.117213
1.000000 0.001739 0.126714
0.000000 0.415376 0.000000
0.000000 0.414965 0.000000
0.032263 0.413585 0.000000
0.378634 0.409284 0.000000
0.688811 0.399892 0.000000
0.984352 0.385098 0.012413
1.000000 0.368551 0.036525
1.000000 0.354024 0.057450
1.000000 0.342926 0.071047
0.000000 0.679071 0.000000
0.000000 0.678821 0.000000
0.000000 0.677987 0.000000
0.235012 0.675395 0.000000
0.620866 0.669792 0.000000
0.939508 0.661124 0.000000
1.000000 0.651666 0.000000
1.000000 0.643575 0.000000
1.000000 0.637532 0.000000
0.000000 0.945168 0.000000
0.000000 0.944993 0.000000
0.000000 0.944411 0.000000
0.000000 0.942601 0.000000
0.498502 0.938702 0.000000
0.865951 0.932702 0.000000
1.000000 0.926202 0.000000
1.000000 0.920679 0.000000
1.000000 0.916579 0.000000
0.000000 1.000000 0.000000
0.000000 1.000000 0.000000
0.000000 1.000000 0.000000
0.000000 1.000000 0.000000
0.318143 1.000000 0.000000
0.778335 1.000000 0.000000
1.000000 1.000000 0.000000
1.000000 1.000000 0.000000
1.000000 1.000000 0.000000
0.000000 1.000000 0.000000
0.000000 1.000000 0.000000
0.000000 1.000000 0.000000
0.000000 1.000000 0.000000
0.000000 1.000000 0.000000
0.695157 1.000000 0.000000
1.000000 1.000000 0.000000
1.000000 1.000000 0.000000
1.000000 1.000000 0.000000
0.000000 1.000000 0.000000
0.000000 1.000000 0.000000
0.000000 1.000000 0.000000
0.000000 1.000000 0.000000
0.000000 1.000000 0.000000
0.626196 1.000000 0.000000
0.962324 1.000000 0.000000
1.000000 1.000000 0.000000
1.000000 1.000000 0.000000
0.000000 0.000000 0.205653
0.067784 0.000000 0.205938
0.217395 0.000000 0.206889
0.446956 0.000000 0.209810
0.728137 0.000000 0.215977
1.000000 0.000000 0.225142
1.000000 0.000000 0.234668
1.000000 0.000000 0.242460
1.000000 0.000000 0.248081
0.000000 0.016504 0.202404
0.047053 0.014695 0.202694
0.208503 0.008938 0.203655
0.442416 0.000000 0.206613
0.725401 0.000000 0.212855
1.000000 0.000000 0.222125
1.000000 0.000000 0.231755
1.000000 0.000000 0.239625
1.000000 0.000000 0.245301
0.000000 0.180604 0.191232
0.000000 0.179742 0.191534
0.176214 0.176836 0.192540
0.426897 0.167591 0.195630
0.716177 0.146280 0.202142
1.000000 0.108419 0.211790
1.000000 0.054706 0.221787
1.000000 0.000000 0.229942
1.000000 0.000000 0.235812
0.000000 0.405015 0.152861
0.000000 0.404594 0.153218
0.016094 0.403179 0.154407
0.374884 0.398770 0.158046
0.686772 0.389132 0.165665
0.982969 0.373930 0.176842
1.000000 0.356891 0.188293
1.000000 0.341896 0.197547
1.000000 0.330417 0.204166
0.000000 0.672839 0.028013
0.000000 0.672587 0.028694
0.000000 0.671744 0.030992
0.229196 0.669128 0.038287
0.618590 0.663468 0.053533
0.938053 0.654713 0.073908
1.000000 0.645156 0.093047
1.000000 0.636977 0.107588
1.000000 0.630867 0.117590
0.000000 0.940820 0.000000
0.000000 0.940645 0.000000
0.000000 0.940059 0.000000
0.000000 0.938241 0.000000
0.495646 0.934320 0.000000
0.864358 0.928291 0.000000
1.000000 0.921755 0.000000
1.000000 0.916204 0.000000
1.000000 0.912082 0.000000
0.000000 1.000000 0.000000
0.000000 1.000000 0.000000
0.000000 1.000000 0.000000
0.000000 1.000000 0.000000
0.313717 1.000000 0.000000
0.776546 1.000000 0.000000
1.000000 1.000000 0.000000
1.000000 1.000000 0.000000
1.000000 1.000000 0.000000
0.000000 1.000000 0.000000
0.000000 1.000000 0.000000
0.000000 1.000000 0.000000
0.000000 1.000000 0.000000
0.000000 1.000000 0.000000
0.693137 1.000000 0.000000
1.000000 1.000000 0.000000
1.000000 1.000000 0.000000
1.000000 1.000000 0.000000
0.000000 1.000000 0.000000
0.000000 1.000000 0.000000
0.000000 1.000000 0.000000
0.000000 1.000000 0.000000
0.000000 1.000000 0.000000
0.623940 1.000000 0.000000
0.960905 1.000000 0.000000
1.000000 1.000000 0.000000
1.000000 1.000000 0.000000
0.000000 0.000000 0.419430
0.019348 0.000000 0.419581
0.197644 0.000000 0.420088
0.437025 0.000000 0.421653
0.722175 0.000000 0.424998
1.000000 0.000000 0.430064
1.000000 0.000000 0.435449
1.000000 0.000000 0.439943
1.000000 0.000000 0.443232
0.000000 0.000000 0.417708
0.000464 0.000000 0.417860
0.188001 0.000000 0.418368
0.432383 0.000000 0.419941
0.719415 0.000000 0.423298
1.000000 0.000000 0.428384
1.000000 0.000000 0.433790
1.000000 0.000000 0.438299
1.000000 0.000000 0.441600
0.000000 0.100875 0.411904
0.000000 0.099573 0.412058
0.152457 0.095144 0.412574
0.416496 0.080562 0.414166
0.710108 0.042853 0.417569
0.998924 0.000000 0.422721
1.000000 0.000000 0.428196
1.000000 0.000000 0.432762
1.000000 0.000000 0.436104
0.000000 0.371208 0.393411
0.000000 0.370749 0.393572
0.000000 0.369211 0.394110
0.363050 0.364407 0.395774
0.680424 0.353877 0.399326
0.978679 0.337176 0.404701
1.000000 0.318302 0.410407
1.000000 0.301542 0.415162
1.000000 0.288601 0.418639
0.000000 0.653168 0.350585
0.000000 0.652908 0.350765
0.000000 0.652038 0.351365
0.210362 0.649337 0.353218
0.611494 0.643494 0.357167
0.933532 0.634449 0.363130
1.000000 0.624566 0.369443
1.000000 0.616101 0.374691
1.000000 0.609771 0.378521
0.000000 0.927230 0.273619
0.000000 0.927053 0.273844
0.000000 0.926456 0.274593
0.000000 0.924609 0.276902
0.486708 0.920625 0.281808
0.859411 0.914495 0.289169
1.000000 0.907851 0.296907
1.000000 0.902206 0.303296
1.000000 0.898012 0.307937
0.000000 1.000000 0.160713
0.000000 1.000000 0.161057
0.000000 1.000000 0.162204
0.000000 1.000000 0.165717
0.299651 1.000000 0.173083
0.770985 1.000000 0.183915
1.000000 1.000000 0.195043
1.000000 1.000000 0.204053
1.000000 1.000000 0.210509
0.000000 1.000000 0.000000
0.000000 1.000000 0.000000
0.000000 1.000000 0.000000
0.000000 1.000000 0.000000
0.000000 1.000000 0.004725
0.686851 1.000000 0.025147
1.000000 1.000000 0.050526
1.000000 1.000000 0.069518
1.000000 1.000000 0.082060
0.000000 1.000000 0.000000
0.000000 1.000000 0.000000
0.000000 1.000000 0.000000
0.000000 1.000000 0.000000
0.000000 1.000000 0.000000
0.616909 1.000000 0.000000
0.956506 1.000000 0.000000
1.000000 1.000000 0.000000
1.000000 1.000000 0.000000
0.000000 0.000000 0.684912
0.000000 0.000000 0.685004
0.148753 0.000000 0.685314
0.414956 0.000000 0.686270
0.709217 0.000000 0.688321
0.998310 0.000000 0.691445
1.000000 0.000000 0.694788
1.000000 0.000000 0.697595
1.000000 0.000000 0.699661
0.000000 0.000000 0.683863
0.000000 0.000000 0.683956
0.136621 0.000000 0.684266
0.410069 0.000000 0.685224
0.706404 0.000000 0.687278
0.996373 0.000000 0.690407
1.000000 0.000000 0.693756
1.000000 0.000000 0.696568
1.000000 0.000000 0.698636
0.000000 0.000000 0.680345
0.000000 0.000000 0.680438
0.088976 0.000000 0.680750
0.393305 0.000000 0.681713
0.696912 0.000000 0.683778
0.989867 0.000000 0.686925
1.000000 0.000000 0.690291
1.000000 0.000000 0.693118
1.000000 0.000000 0.695197
0.000000 0.286490 0.669328
0.000000 0.285906 0.669423
0.000000 0.283947 0.669740
0.336365 0.277800 0.670720
0.666601 0.264168 0.672820
0.969410 0.242030 0.676020
1.000000 0.216093 0.679444
1.000000 0.192009 0.682317
1.000000 0.172543 0.684430
0.000000 0.608757 0.644993
0.000000 0.608477 0.645092
0.000000 0.607540 0.645421
0.164397 0.604631 0.646440
0.595990 0.598331 0.648622
0.923764 0.588559 0.651946
1.000000 0.577857 0.655500
1.000000 0.568669 0.658484
1.000000 0.561785 0.660676
0.000000 0.897342 0.605808
0.000000 0.897157 0.605913
0.000000 0.896540 0.606265
0.000000 0.894624 0.607352
0.466975 0.890493 0.609679
0.848705 0.884133 0.613221
1.000000 0.877236 0.617008
1.000000 0.871373 0.620183
1.000000 0.867016 0.622517
0.000000 1.000000 0.560518
0.000000 1.000000 0.560631
0.000000 1.000000 0.561012
0.000000 1.000000 0.562188
0.267280 1.000000 0.564707
0.758920 1.000000 0.568536
1.000000 1.000000 0.572627
1.000000 1.000000 0.576053
1.000000 1.000000 0.578570
0.000000 1.000000 0.519200
0.000000 1.000000 0.519323
0.000000 1.000000 0.519733
0.000000 1.000000 0.521004
0.000000 1.000000 0.523722
0.673169 1.000000 0.527853
0.992530 1.000000 0.532261
1.000000 1.000000 0.535950
1.000000 1.000000 0.538657
0.000000 1.000000 0.486435
0.000000 1.000000 0.486567
0.000000 1.000000 0.487005
0.000000 1.000000 0.488360
0.000000 1.000000 0.491259
0.601550 1.000000 0.495661
0.946997 1.000000 0.500352
1.000000 1.000000 0.504276
1.000000 1.000000 0.507153
0.000000 0.000000 0.953678
0.000000 0.000000 0.953742
0.033123 0.000000 0.953959
0.378822 0.000000 0.954630
0.688913 0.000000 0.956070
0.984422 0.000000 0.958269
1.000000 0.000000 0.960628
1.000000 0.000000 0.962611
1.000000 0.000000 0.964073
0.000000 0.000000 0.952942
0.000000 0.000000 0.953007
0.010638 0.000000 0.953224
0.373479 0.000000 0.953895
0.686011 0.000000 0.955337
0.982454 0.000000 0.957537
1.000000 0.000000 0.959898
1.000000 0.000000 0.961883
1.000000 0.000000 0.963347
0.000000 0.000000 0.950481
0.000000 0.000000 0.950547
0.000000 0.000000 0.950764
0.355064 0.000000 0.951437
0.676215 0.000000 0.952883
0.975846 0.000000 0.955089
1.000000 0.000000 0.957456
1.000000 0.000000 0.959448
1.000000 0.000000 0.960915
0.000000 0.067730 0.942814
0.000000 0.066100 0.942880
0.000000 0.060497 0.943099
0.291263 0.041367 0.943779
0.644874 0.001128 0.945237
0.955056 0.000000 0.947463
1.000000 0.000000 0.949851
1.000000 0.000000 0.951860
1.000000 0.000000 0.953339
0.000000 0.533482 0.926107
0.000000 0.533162 0.926174
0.000000 0.532088 0.926398
0.063819 0.528750 0.927091
0.571454 0.521505 0.928578
0.908612 0.510221 0.930848
1.000000 0.497794 0.933282
1.000000 0.487066 0.935330
1.000000 0.478988 0.936839
0.000000 0.849432 0.899898
0.000000 0.849237 0.899966
0.000000 0.848581 0.900197
0.000000 0.846546 0.900912
0.435098 0.842156 0.902447
0.832051 0.835394 0.904788
1.000000 0.828054 0.907298
1.000000 0.821807 0.909409
1.000000 0.817162 0.910965
0.000000 1.000000 0.870748
0.000000 1.000000 0.870820
0.000000 1.000000 0.871060
0.000000 1.000000 0.871800
0.209735 1.000000 0.873389
0.740072 1.000000 0.875815
1.000000 1.000000 0.878415
1.000000 1.000000 0.880603
1.000000 1.000000 0.882213
0.000000 1.000000 0.845314
0.000000 1.000000 0.845388
0.000000 1.000000 0.845635
0.000000 1.000000 0.846401
0.000000 1.000000 0.848042
0.651674 1.000000 0.850545
0.978550 1.000000 0.853229
1.000000 1.000000 0.855486
1.000000 1.000000 0.857148
0.000000 1.000000 0.825992
0.000000 1.000000 0.826067
0.000000 1.000000 0.826321
0.000000 1.000000 0.827105
0.000000 1.000000 0.828788
0.577258 1.000000 0.831354
0.932261 1.000000 0.834104
1.000000 1.000000 0.836416
1.000000 1.000000 0.838119
0.000000 0.000000 1.000000
0.000000 0.000000 1.000000
0.000000 0.000000 1.000000
0.335965 0.000000 1.000000
0.666400 0.000000 1.000000
0.969277 0.000000 1.000000
1.000000 0.000000 1.000000
1.000000 0.000000 1.000000
1.000000 0.000000 1.000000
0.000000 0.000000 1.000000
0.000000 0.000000 1.000000
0.000000 0.000000 1.000000
0.329969 0.000000 1.000000
0.663393 0.000000 1.000000
0.967275 0.000000 1.000000
1.000000 0.000000 1.000000
1.000000 0.000000 1.000000
1.000000 0.000000 1.000000
0.000000 0.000000 1.000000
0.000000 0.000000 1.000000
0.000000 0.000000 1.000000
0.309149 0.000000 1.000000
0.653238 0.000000 1.000000
0.960550 0.000000 1.000000
1.000000 0.000000 1.000000
1.000000 0.000000 1.000000
1.000000 0.000000 1.000000
0.000000 0.000000 1.000000
0.000000 0.000000 1.000000
0.000000 0.000000 1.000000
0.234527 0.000000 1.000000
0.620675 0.000000 1.000000
0.939387 0.000000 1.000000
1.000000 0.000000 1.000000
1.000000 0.000000 1.000000
1.000000 0.000000 1.000000
0.000000 0.438284 1.000000
0.000000 0.437893 1.000000
0.000000 0.436585 1.000000
0.000000 0.432509 1.000000
0.543857 0.423620 1.000000
0.892041 0.409659 1.000000
1.000000 0.394107 1.000000
1.000000 0.380514 1.000000
1.000000 0.370170 1.000000
0.000000 0.794523 1.000000
0.000000 0.794312 1.000000
0.000000 0.793607 1.000000
0.000000 0.791419 1.000000
0.398118 0.786696 1.000000
0.813771 0.779410 1.000000
1.000000 0.771491 1.000000
1.000000 0.764743 1.000000
1.000000 0.759720 1.000000
0.000000 1.000000 1.000000
0.000000 1.000000 1.000000
0.000000 1.000000 1.000000
0.000000 1.000000 1.000000
0.128056 1.000000 1.000000
0.719263 1.000000 1.000000
1.000000 1.000000 1.000000
1.000000 1.000000 1.000000
1.000000 1.000000 1.000000
0.000000 1.000000 1.000000
0.000000 1.000000 1.000000
0.000000 1.000000 1.000000
0.000000 1.000000 1.000000
0.000000 1.000000 1.000000
0.627749 1.000000 1.000000
0.963302 1.000000 1.000000
1.000000 1.000000 1.000000
1.000000 1.000000 1.000000
0.000000 1.000000 1.000000
0.000000 1.000000 1.000000
0.000000 1.000000 1.000000
0.000000 1.000000 1.000000
0.000000 1.000000 1.000000
0.549963 1.000000 1.000000
0.916161 1.000000 1.000000
1.000000 1.000000 1.000000
1.000000 1.000000 1.000000
0.000000 0.000000 1.000000
0.000000 0.000000 1.000000
0.000000 0.000000 1.000000
0.295465 0.000000 1.000000
0.646809 0.000000 1.000000
0.956323 0.000000 1.000000
1.000000 0.000000 1.000000
1.000000 0.000000 1.000000
1.000000 0.000000 1.000000
0.000000 0.000000 1.000000
0.000000 0.000000 1.000000
0.000000 0.000000 1.000000
0.288702 0.000000 1.000000
0.643705 0.000000 1.000000
0.954292 0.000000 1.000000
1.000000 0.000000 1.000000
1.000000 0.000000 1.000000
1.000000 0.000000 1.000000
0.000000 0.000000 1.000000
0.000000 0.000000 1.000000
0.000000 0.000000 1.000000
0.264987 0.000000 1.000000
0.633217 0.000000 1.000000
0.947465 0.000000 1.000000
1.000000 0.000000 1.000000
1.000000 0.000000 1.000000
1.000000 0.000000 1.000000
0.000000 0.000000 1.000000
0.000000 0.000000 1.000000
0.000000 0.000000 1.000000
0.175556 0.000000 1.000000
0.599514 0.000000 1.000000
0.925971 0.000000 1.000000
1.000000 0.000000 1.000000
1.000000 0.000000 1.000000
1.000000 0.000000 1.000000
0.000000 0.338403 1.000000
0.000000 0.337901 1.000000
0.000000 0.336222 1.000000
0.000000 0.330970 1.000000
0.519466 0.319414 1.000000
0.877829 0.300953 1.000000
1.000000 0.279872 1.000000
1.000000 0.260920 1.000000
1.000000 0.246114 1.000000
0.000000 0.744909 1.000000
0.000000 0.744682 1.000000
0.000000 0.743926 1.000000
0.000000 0.741579 1.000000
0.364193 0.736511 1.000000
0.798034 0.728685 1.000000
1.000000 0.720167 1.000000
1.000000 0.712898 1.000000
1.000000 0.707479 1.000000
0.000000 1.000000 1.000000
0.000000 1.000000 1.000000
0.000000 1.000000 1.000000
0.000000 1.000000 1.000000
0.011080 1.000000 1.000000
0.701236 0.996712 1.000000
1.000000 0.990674 1.000000
1.000000 0.985550 1.000000
1.000000 0.981747 1.000000
0.000000 1.000000 1.000000
0.000000 1.000000 1.000000
0.000000 1.000000 1.000000
0.000000 1.000000 1.000000
0.000000 1.000000 1.000000
0.606846 1.000000 1.000000
0.950259 1.000000 1.000000
1.000000 1.000000 1.000000
1.000000 1.000000 1.000000
0.000000 1.000000 1.000000
0.000000 1.000000 1.000000
0.000000 1.000000 1.000000
0.000000 1.000000 1.000000
0.000000 1.000000 1.000000
0.525861 1.000000 1.000000
0.902365 1.000000 1.000000
1.000000 1.000000 1.000000
1.000000 1.000000 1.000000
0.000000 0.000000 1.000000
0.000000 0.000000 1.000000
0.000000 0.000000 1.000000
0.262180 0.000000 1.000000
0.632016 0.000000 1.000000
0.946688 0.000000 1.000000
1.000000 0.000000 1.000000
1.000000 0.000000 1.000000
1.000000 0.000000 1.000000
0.000000 0.000000 1.000000
0.000000 0.000000 1.000000
0.000000 0.000000 1.000000
0.254639 0.000000 1.000000
0.628837 0.000000 1.000000
0.944634 0.000000 1.000000
1.000000 0.000000 1.000000
1.000000 0.000000 1.000000
1.000000 0.000000 1.000000
0.000000 0.000000 1.000000
0.000000 0.000000 1.000000
0.000000 0.000000 1.000000
0.227889 0.000000 1.000000
0.618084 0.000000 1.000000
0.937729 0.000000 1.000000
1.000000 0.000000 1.000000
1.000000 0.000000 1.000000
1.000000 0.000000 1.000000
0.000000 0.000000 1.000000
0.000000 0.000000 1.000000
0.000000 0.000000 1.000000
0.119704 0.000000 1.000000
0.583468 0.000000 1.000000
0.915983 0.000000 1.000000
1.000000 0.000000 1.000000
1.000000 0.000000 1.000000
1.000000 0.000000 1.000000
0.000000 0.242220 1.000000
0.000000 0.241543 1.000000
0.000000 0.239269 1.000000
0.000000 0.232105 1.000000
0.500788 0.216042 1.000000
0.867231 0.189351 1.000000
1.000000 0.156808 1.000000
1.000000 0.124797 1.000000
1.000000 0.096978 1.000000
0.000000 0.706092 1.000000
0.000000 0.705853 1.000000
0.000000 0.705053 1.000000
0.000000 0.702567 1.000000
0.337232 0.697195 1.000000
0.786262 0.688894 1.000000
1.000000 0.679843 1.000000
1.000000 0.672110 1.000000
1.000000 0.666338 1.000000
0.000000 0.980776 1.000000
0.000000 0.980610 1.000000
0.000000 0.980050 1.000000
0.000000 0.978313 1.000000
0.000000 0.974571 1.000000
0.687681 0.968816 1.000000
1.000000 0.962585 1.000000
1.000000 0.957294 1.000000
1.000000 0.953366 1.000000
0.000000 1.000000 1.000000
0.000000 1.000000 1.000000
0.000000 1.000000 1.000000
0.000000 1.000000 1.000000
0.000000 1.000000 1.000000
0.591006 1.000000 1.000000
0.940555 1.000000 1.000000
1.000000 1.000000 1.000000
1.000000 1.000000 1.000000
0.000000 1.000000 1.000000
0.000000 1.000000 1.000000
0.000000 1.000000 1.000000
0.000000 1.000000 1.000000
0.000000 1.000000 1.000000
0.507422 1.000000 1.000000
0.892086 1.000000 1.000000
1.000000 1.000000 1.000000
1.000000 1.000000 1.000000
