apps/lut-action/luts/DIT_RockandRoll_F55_OT_Rec709Full.cube
# iridas cube
#EcalVer: 170Z 28 May, 2014
LUT_3D_SIZE 8
DOMAIN_MIN 0.000000 0.000000 0.000000
DOMAIN_MAX 0.903226 0.903226 0.903226
0.003952 0.003346 0.003796
0.098114 0.045720 0.032803
0.263791 0.061891 0.000000
0.402752 0.000000 0.000000
0.503908 0.000000 0.000000
0.554197 0.000000 0.000000
0.571466 0.000000 0.079198
0.582892 0.000000 0.181125
0.000000 0.078129 0.049201
0.057112 0.065774 0.044069
0.246200 0.073584 0.000000
0.391219 0.000000 0.000000
0.501710 0.000000 0.000000
0.553945 0.000000 0.000000
0.571455 0.000000 0.080555
0.582896 0.000000 0.181655
0.000000 0.221119 0.046301
0.000000 0.215037 0.048007
0.234274 0.234632 0.000000
0.470719 0.185122 0.000000
0.582943 0.015419 0.000000
0.552534 0.000000 0.000000
0.571426 0.000000 0.082971
0.582905 0.000000 0.182824
0.000000 0.319749 0.000000
0.000000 0.317963 0.000000
0.000000 0.336782 0.000000
0.447732 0.401358 0.000000
0.664647 0.313278 0.000000
0.727721 0.182601 0.000000
0.604166 0.000000 0.070499
0.582915 0.000000 0.185366
0.000000 0.374857 0.000000
0.000000 0.374264 0.000000
0.000000 0.373396 0.000000
0.108305 0.508261 0.000000
0.667701 0.577645 0.000000
0.828125 0.481803 0.000000
0.831258 0.374063 0.001070
0.721092 0.075988 0.221775
0.000000 0.397486 0.000000
0.000000 0.397535 0.000000
0.000000 0.397694 0.029170
0.000000 0.399013 0.083342
0.377376 0.636316 0.000000
0.853468 0.713389 0.000000
0.924507 0.672419 0.000000
0.924443 0.616751 0.239130
0.000000 0.418430 0.165328
0.000000 0.419091 0.169486
0.000000 0.420572 0.178401
0.000000 0.423640 0.196328
0.000000 0.429526 0.227554
0.648342 0.737158 0.001225
0.932325 0.786493 0.000354
0.970640 0.798451 0.330382
0.000000 0.447756 0.292399
0.000000 0.448115 0.294036
0.000000 0.448908 0.297602
0.000000 0.450612 0.305263
0.000000 0.454289 0.321425
0.000000 0.461659 0.353368
0.825643 0.816970 0.315327
0.963214 0.850402 0.417874
0.015562 0.012781 0.025772
0.077212 0.038969 0.044563
0.234843 0.060849 0.031598
0.378801 0.000000 0.002225
0.493663 0.000000 0.000000
0.554342 0.000000 0.001751
0.571902 0.000000 0.103856
0.583156 0.000000 0.193148
0.016291 0.056789 0.054385
0.043731 0.045424 0.047959
0.208594 0.064433 0.037867
0.368137 0.000000 0.003894
0.491786 0.000000 0.000000
0.554096 0.000000 0.002663
0.571886 0.000000 0.104802
0.583155 0.000000 0.193629
0.000000 0.201629 0.069693
0.000000 0.195374 0.074357
0.187322 0.194930 0.045975
0.416285 0.161404 0.000205
0.558431 0.004262 0.000000
0.553097 0.000000 0.004388
0.571853 0.000000 0.106848
0.583155 0.000000 0.194696
0.000000 0.306658 0.038289
0.000000 0.304285 0.053608
0.000000 0.301892 0.038878
0.395357 0.365163 0.000000
0.647247 0.298124 0.000000
0.720664 0.170716 0.000000
0.600311 0.000000 0.100548
0.583155 0.000000 0.197073
0.000000 0.372934 0.014777
0.000000 0.372812 0.035281
0.000000 0.372673 0.068207
0.028577 0.486808 0.000000
0.649655 0.566222 0.000000
0.823104 0.477020 0.000000
0.830092 0.372464 0.009020
0.716919 0.071196 0.235604
0.000000 0.400986 0.105863
0.000000 0.401414 0.110723
0.000000 0.402471 0.121167
0.000000 0.405369 0.143592
0.344113 0.633484 0.000000
0.848718 0.713654 0.000000
0.923328 0.674069 0.000341
0.923808 0.617734 0.263109
0.000000 0.425907 0.208428
0.000000 0.426428 0.211271
0.000000 0.427618 0.217477
0.000000 0.430068 0.229953
0.000000 0.434995 0.254245
0.641997 0.740876 0.006357
0.931248 0.789543 0.001676
0.969848 0.800225 0.347574
0.000000 0.451917 0.310999
0.000000 0.452251 0.312463
0.000000 0.453002 0.315724
0.000000 0.454630 0.322809
0.000000 0.458089 0.337829
0.000000 0.464702 0.366400
0.823352 0.819698 0.337655
0.962414 0.851918 0.429879
0.033172 0.000000 0.138426
0.066351 0.012933 0.131209
0.205822 0.050159 0.129797
0.362973 0.000000 0.119181
0.489170 0.000000 0.104431
0.554632 0.000000 0.107071
0.572697 0.000000 0.147320
0.583601 0.000000 0.218238
0.018305 0.038411 0.150781
0.039383 0.025302 0.127601
0.184919 0.049097 0.127265
0.356473 0.000000 0.121420
0.487344 0.000000 0.106323
0.554373 0.000000 0.108251
0.572678 0.000000 0.148129
0.583599 0.000000 0.218688
0.000000 0.180908 0.167652
0.000000 0.176937 0.170356
0.137544 0.163671 0.136217
0.372426 0.142945 0.114761
0.520680 0.000000 0.086610
0.553764 0.000000 0.110816
0.572628 0.000000 0.149884
0.583593 0.000000 0.219714
0.000000 0.300409 0.176462
0.000000 0.299290 0.180339
0.000000 0.282923 0.160365
0.345194 0.335560 0.108875
0.624543 0.281897 0.035693
0.712433 0.154331 0.045830
0.589721 0.000000 0.144696
0.583579 0.000000 0.222008
0.000000 0.383857 0.181330
0.000000 0.384145 0.185149
0.000000 0.384683 0.193143
0.010240 0.467251 0.103158
0.623367 0.553183 0.000000
0.814829 0.471168 0.000079
0.827503 0.369486 0.124232
0.706783 0.058574 0.263231
0.000000 0.417723 0.211219
0.000000 0.418223 0.213892
0.000000 0.419345 0.219735
0.000000 0.421712 0.231962
0.277038 0.634775 0.014827
0.840353 0.716309 0.000000
0.921080 0.677563 0.030400
0.922363 0.619715 0.308513
0.000000 0.438341 0.269568
0.000000 0.438751 0.271505
0.000000 0.439647 0.275731
0.000000 0.441565 0.284734
0.000000 0.445683 0.303457
0.627477 0.748845 0.137161
0.928468 0.796085 0.085232
0.968156 0.803837 0.381687
0.000000 0.460362 0.347436
0.000000 0.460640 0.348645
0.000000 0.461257 0.351310
0.000000 0.462575 0.357007
0.000000 0.465270 0.368623
0.000000 0.470490 0.391161
0.818447 0.825201 0.379690
0.960678 0.855100 0.455065
0.000000 0.000000 0.215627
0.030800 0.000000 0.215424
0.180003 0.000000 0.247753
0.341453 0.000000 0.233067
0.481304 0.000000 0.214629
0.554281 0.000000 0.206377
0.573478 0.000000 0.220826
0.584155 0.000000 0.265580
0.000000 0.000104 0.222575
0.006201 0.000000 0.205947
0.164887 0.000000 0.246562
0.335091 0.000000 0.234792
0.479285 0.000000 0.215870
0.553972 0.000000 0.207244
0.573444 0.000000 0.221406
0.584149 0.000000 0.265922
0.000000 0.173572 0.306897
0.000000 0.169460 0.307255
0.070017 0.147046 0.270622
0.326844 0.086625 0.232603
0.470369 0.000000 0.200189
0.553271 0.000000 0.209193
0.573369 0.000000 0.222678
0.584132 0.000000 0.266670
0.000000 0.303234 0.315564
0.000000 0.301588 0.317117
0.000000 0.282023 0.298140
0.288889 0.310919 0.264708
0.597078 0.263250 0.225744
0.693880 0.088425 0.208030
0.572080 0.000000 0.221418
0.584094 0.000000 0.268348
0.000000 0.406172 0.322021
0.000000 0.406089 0.323814
0.000000 0.405881 0.327773
0.000000 0.452614 0.272465
0.586760 0.544712 0.224552
0.801498 0.465887 0.197680
0.821815 0.361768 0.256442
0.676042 0.002295 0.305672
0.000000 0.444171 0.333351
0.000000 0.444503 0.334966
0.000000 0.445232 0.338520
0.000000 0.446764 0.346051
0.191352 0.641437 0.263094
0.825551 0.727022 0.136966
0.914911 0.684162 0.256390
0.919133 0.622602 0.384640
0.000000 0.458859 0.360557
0.000000 0.459124 0.361728
0.000000 0.459694 0.364254
0.000000 0.460905 0.369645
0.000000 0.463437 0.380942
0.597530 0.762525 0.306505
0.921024 0.808810 0.291905
0.964704 0.810318 0.441355
0.000000 0.473711 0.404633
0.000000 0.473902 0.405461
0.000000 0.474324 0.407300
0.000000 0.475230 0.411273
0.000000 0.477174 0.419826
0.000000 0.481048 0.437066
0.808786 0.834607 0.450109
0.957010 0.861069 0.503570
0.000000 0.000000 0.267405
0.000000 0.000000 0.270675
0.137470 0.000000 0.332225
0.307293 0.000000 0.346862
0.464534 0.000000 0.335623
0.550494 0.000000 0.324601
0.573306 0.000000 0.317793
0.584722 0.000000 0.328605
0.000000 0.000000 0.266120
0.000000 0.000000 0.263145
0.122060 0.000000 0.329187
0.300704 0.000000 0.347364
0.462223 0.000000 0.336147
0.550151 0.000000 0.325054
0.573257 0.000000 0.318124
0.584715 0.000000 0.328817
0.000000 0.144415 0.409923
0.000000 0.138892 0.407865
0.008519 0.097289 0.387295
0.267526 0.000976 0.348311
0.456894 0.000000 0.337293
0.549367 0.000000 0.326079
0.573151 0.000000 0.318835
0.584694 0.000000 0.329254
0.000000 0.297043 0.455499
0.000000 0.295190 0.455767
0.000000 0.275647 0.440889
0.220499 0.282540 0.449498
0.546014 0.181885 0.404639
0.630014 0.000123 0.347155
0.572913 0.000000 0.320423
0.584649 0.000000 0.330237
0.000000 0.420681 0.463052
0.000000 0.420162 0.463679
0.000000 0.418991 0.465073
0.000000 0.425668 0.433052
0.524469 0.524757 0.444979
0.776862 0.447804 0.407381
0.803197 0.317394 0.412163
0.628927 0.000000 0.354543
0.000000 0.472164 0.465834
0.000000 0.472248 0.466504
0.000000 0.472417 0.467947
0.000000 0.472761 0.471083
0.004965 0.642374 0.453300
0.793708 0.741455 0.417865
0.902257 0.692331 0.433025
0.912304 0.622411 0.492848
0.000000 0.482605 0.466667
0.000000 0.482709 0.467196
0.000000 0.482944 0.468391
0.000000 0.483456 0.471003
0.000000 0.484571 0.476689
0.537940 0.781002 0.478606
0.906477 0.826615 0.458106
0.957884 0.819642 0.536941
0.000000 0.490850 0.481578
0.000000 0.490929 0.481969
0.000000 0.491108 0.482859
0.000000 0.491501 0.484807
0.000000 0.492347 0.489042
0.000000 0.494113 0.498111
0.791011 0.847515 0.552769
0.950749 0.869684 0.578924
0.000000 0.000000 0.303545
0.000000 0.000000 0.300752
0.092666 0.000000 0.370167
0.274097 0.000000 0.407700
0.441240 0.000000 0.422646
0.542124 0.000000 0.417169
0.572180 0.000000 0.403398
0.585536 0.000000 0.395192
0.000000 0.000000 0.303659
0.000000 0.000000 0.299354
0.069923 0.000000 0.365490
0.267190 0.000000 0.406760
0.438743 0.000000 0.422650
0.541658 0.000000 0.417368
0.572124 0.000000 0.403547
0.585526 0.000000 0.395272
0.000000 0.054304 0.433268
0.000000 0.041014 0.426364
0.000000 0.000061 0.371603
0.247270 0.000000 0.402900
0.432927 0.000000 0.422639
0.540597 0.000000 0.417809
0.571998 0.000000 0.403883
0.585501 0.000000 0.395445
0.000000 0.258483 0.520101
0.000000 0.256402 0.519433
0.000000 0.237896 0.508834
0.155688 0.219148 0.556206
0.478731 0.028004 0.515935
0.537973 0.000000 0.418674
0.571708 0.000000 0.404641
0.585448 0.000000 0.395843
0.000000 0.411909 0.563077
0.000000 0.411160 0.563046
0.000000 0.409491 0.562976
0.000000 0.397672 0.551672
0.457982 0.480529 0.623108
0.724314 0.337758 0.573088
0.758525 0.156152 0.533260
0.585324 0.000000 0.396711
0.000000 0.486103 0.568449
0.000000 0.486042 0.568623
0.000000 0.485906 0.569018
0.000000 0.485596 0.569899
0.000000 0.600203 0.588405
0.741410 0.731565 0.620479
0.879791 0.682389 0.603690
0.895123 0.584146 0.610313
0.000000 0.499491 0.560336
0.000000 0.499507 0.560511
0.000000 0.499544 0.560886
0.000000 0.499625 0.561723
0.000000 0.499801 0.563565
0.413566 0.786488 0.634034
0.884844 0.839957 0.620541
0.949522 0.826589 0.638813
0.000000 0.504578 0.557396
0.000000 0.504597 0.557539
0.000000 0.504643 0.557870
0.000000 0.504745 0.558598
0.000000 0.504967 0.560196
0.000000 0.505415 0.563532
0.764043 0.857886 0.661813
0.943184 0.877794 0.663250
0.000000 0.000000 0.340797
0.000000 0.000000 0.333980
0.038482 0.000000 0.385520
0.245538 0.000000 0.426980
0.416236 0.000000 0.452823
0.528869 0.000000 0.462676
0.570891 0.000000 0.456253
0.586216 0.000000 0.444010
0.000000 0.000000 0.340820
0.000000 0.000000 0.338128
0.018766 0.000000 0.378677
0.238651 0.000000 0.425714
0.413519 0.000000 0.452506
0.528250 0.000000 0.462667
0.570828 0.000000 0.456326
0.586202 0.000000 0.444046
0.000000 0.000000 0.340697
0.000000 0.000000 0.340834
0.000000 0.000000 0.358480
0.222139 0.000000 0.422541
0.407269 0.000000 0.451773
0.526860 0.000000 0.462641
0.570686 0.000000 0.456486
0.586176 0.000000 0.444128
0.000000 0.196885 0.513389
0.000000 0.194473 0.512281
0.000000 0.178775 0.504904
0.140676 0.110098 0.566646
0.393238 0.000000 0.471021
0.523656 0.000000 0.462578
0.570369 0.000000 0.456844
0.586116 0.000000 0.444308
0.000000 0.372668 0.579473
0.000000 0.371794 0.579218
0.000000 0.369797 0.578637
0.000000 0.356047 0.583834
0.424330 0.413924 0.682404
0.674905 0.199302 0.645227
0.569562 0.000000 0.457586
0.585980 0.000000 0.444705
0.000000 0.479542 0.607098
0.000000 0.479388 0.607085
0.000000 0.479043 0.607054
0.000000 0.478273 0.606966
0.000000 0.575073 0.654924
0.705609 0.703484 0.734425
0.845675 0.585068 0.703444
0.858560 0.442858 0.675602
0.000000 0.504684 0.607668
0.000000 0.504677 0.607711
0.000000 0.504661 0.607797
0.000000 0.504626 0.607992
0.000000 0.504543 0.608426
0.138654 0.756134 0.714295
0.861557 0.838654 0.730424
0.939888 0.824036 0.725891
0.000000 0.510633 0.602055
0.000000 0.510635 0.602090
0.000000 0.510637 0.602164
0.000000 0.510646 0.602331
0.000000 0.510664 0.602703
0.000000 0.510698 0.603509
0.720886 0.859153 0.742456
0.934605 0.882501 0.739789
0.000000 0.000000 0.352434
0.000000 0.000000 0.352171
0.001819 0.000000 0.386414
0.217387 0.000000 0.436985
0.387935 0.000000 0.464042
0.508205 0.000000 0.477806
0.566172 0.000000 0.481034
0.591293 0.000000 0.476354
0.000000 0.000000 0.352439
0.000000 0.000000 0.352424
0.000000 0.000000 0.377564
0.210358 0.000000 0.435663
0.385166 0.000000 0.463670
0.507529 0.000000 0.477748
0.566040 0.000000 0.481039
0.591279 0.000000 0.476375
0.000000 0.000000 0.352453
0.000000 0.000000 0.352442
0.000000 0.000000 0.359466
0.193342 0.000000 0.432472
0.378867 0.000000 0.462822
0.505973 0.000000 0.477616
0.565736 0.000000 0.481049
0.591247 0.000000 0.476438
0.000000 0.003301 0.384466
0.000000 0.000000 0.379036
0.000000 0.000000 0.351778
0.148860 0.000000 0.424100
0.363866 0.000000 0.460720
0.502403 0.000000 0.477317
0.565060 0.000000 0.481075
0.591164 0.000000 0.476582
0.000000 0.303239 0.562176
0.000000 0.302129 0.561777
0.000000 0.299588 0.560847
0.000000 0.295768 0.578155
0.421835 0.317141 0.680931
0.594766 0.021073 0.599379
0.563469 0.000000 0.481124
0.591025 0.000000 0.476854
0.000000 0.452777 0.608757
0.000000 0.452555 0.608701
0.000000 0.452063 0.608577
0.000000 0.450900 0.608283
0.000000 0.560934 0.681969
0.693060 0.663864 0.769409
0.813564 0.480350 0.739239
0.592259 0.000000 0.478695
0.000000 0.499306 0.620608
0.000000 0.499276 0.620604
0.000000 0.499212 0.620592
0.000000 0.499067 0.620567
0.000000 0.498740 0.620508
0.169038 0.748367 0.753450
0.846255 0.828483 0.793075
0.922735 0.782775 0.782785
0.000000 0.512955 0.623600
0.000000 0.512952 0.623606
0.000000 0.512946 0.623622
0.000000 0.512932 0.623656
0.000000 0.512900 0.623731
0.000000 0.512828 0.623895
0.618703 0.844494 0.785680
0.923582 0.881772 0.794404
