apps/lut-action/luts/DIT_F55_Rodrigo_Rock_N_Roll.cube
TITLE "Ecal: DIT_F55_Rodrigo_Rock_N_Roll"
LUT_3D_SIZE 9
0.010240 0.009685 0.009496
0.048386 0.031952 0.026394
0.199229 0.060626 0.003817
0.383287 0.000000 0.000000
0.518477 0.000000 0.000000
0.571005 0.000000 0.000000
0.588383 0.000000 0.018836
0.598715 0.000000 0.187093
0.602589 0.000000 0.307356
0.023607 0.049991 0.035997
0.036695 0.040185 0.031372
0.168745 0.060419 0.014700
0.365940 0.000000 0.000000
0.515331 0.000000 0.000000
0.570669 0.000000 0.000000
0.588402 0.000000 0.021875
0.598735 0.000000 0.187989
0.602597 0.000000 0.307762
0.000000 0.222325 0.029352
0.000000 0.213198 0.034550
0.137589 0.181963 0.021026
0.387953 0.144272 0.000000
0.554779 0.000000 0.000000
0.569142 0.000000 0.000000
0.588435 0.000000 0.028335
0.598778 0.000000 0.189860
0.602616 0.000000 0.308667
0.000000 0.363813 0.000000
0.000000 0.361787 0.000000
0.000000 0.350719 0.000000
0.360993 0.411586 0.000000
0.665091 0.300720 0.000000
0.736694 0.080962 0.000000
0.618500 0.000000 0.012688
0.598871 0.000000 0.193948
0.602661 0.000000 0.310640
0.000000 0.419639 0.000000
0.000000 0.418915 0.000000
0.000000 0.417275 0.000000
0.000000 0.511943 0.000000
0.681197 0.640158 0.000000
0.887503 0.535954 0.000000
0.868785 0.395088 0.007575
0.748411 0.010090 0.248449
0.602752 0.000000 0.314845
0.000000 0.448780 0.001866
0.000000 0.448672 0.005850
0.000000 0.448620 0.027014
0.000000 0.449884 0.093729
0.286216 0.648299 0.000000
0.917761 0.776410 0.000000
0.980505 0.761729 0.009706
0.971336 0.718556 0.358785
0.917357 0.523797 0.539205
0.000000 0.476670 0.194882
0.000000 0.477524 0.200646
0.000000 0.479337 0.212902
0.000000 0.483199 0.239046
0.000000 0.493028 0.294180
0.676783 0.780352 0.098151
0.982503 0.849497 0.159223
0.996065 0.880721 0.531568
0.993591 0.886232 0.663712
0.000000 0.513561 0.373221
0.000000 0.514098 0.376057
0.000000 0.515244 0.382118
0.000000 0.517666 0.394899
0.000000 0.522434 0.420133
0.000000 0.530381 0.464968
0.889705 0.879378 0.526563
0.988606 0.914713 0.647403
0.992048 0.929705 0.773473
0.000000 0.539392 0.501992
0.000000 0.539606 0.503276
0.000000 0.540056 0.506016
0.000000 0.540996 0.511718
0.000000 0.542907 0.523316
0.000000 0.546532 0.545915
0.000000 0.552600 0.586589
0.966835 0.925094 0.740148
0.990463 0.937816 0.803771
0.013660 0.012754 0.017623
0.038141 0.027831 0.028588
0.165467 0.055565 0.031433
0.345193 0.018545 0.000211
0.502339 0.000000 0.000000
0.571058 0.000000 0.000000
0.589218 0.000000 0.082667
0.599265 0.000000 0.207042
0.602807 0.000000 0.317423
0.025786 0.036310 0.034626
0.030385 0.030547 0.030616
0.134341 0.052115 0.035182
0.330040 0.030515 0.000441
0.499861 0.000000 0.000000
0.570814 0.000000 0.000000
0.589226 0.000000 0.085124
0.599270 0.000000 0.207828
0.602816 0.000000 0.317831
0.000000 0.190121 0.060538
0.000000 0.181030 0.064023
0.103617 0.139319 0.055060
0.316569 0.124060 0.007682
0.521339 0.000000 0.000000
0.569919 0.000000 0.000000
0.589242 0.000000 0.089981
0.599285 0.000000 0.209487
0.602836 0.000000 0.318676
0.000000 0.343023 0.002753
0.000000 0.339894 0.007159
0.000000 0.307385 0.019311
0.282595 0.349289 0.000475
0.635427 0.275532 0.000000
0.727128 0.056423 0.000000
0.611517 0.000000 0.042467
0.599316 0.000000 0.213131
0.602876 0.000000 0.320549
0.000000 0.415082 0.007552
0.000000 0.414939 0.014452
0.000000 0.414947 0.039174
0.000000 0.485786 0.000000
0.651862 0.624350 0.000000
0.879964 0.527798 0.000000
0.867241 0.392044 0.025621
0.743495 0.007386 0.271132
0.602963 0.000000 0.324557
0.000000 0.453035 0.129827
0.000000 0.453689 0.136845
0.000000 0.454980 0.150955
0.000000 0.458223 0.179440
0.230566 0.645929 0.000008
0.912399 0.779280 0.000000
0.979432 0.765991 0.063215
0.970323 0.720310 0.391466
0.915772 0.519921 0.554682
0.000000 0.487673 0.263580
0.000000 0.488650 0.269052
0.000000 0.490662 0.280317
0.000000 0.494521 0.301941
0.000000 0.501205 0.339629
0.666210 0.786615 0.191578
0.980878 0.855294 0.248648
0.995318 0.883222 0.553378
0.993108 0.887203 0.673591
0.000000 0.519684 0.405397
0.000000 0.520151 0.407867
0.000000 0.521145 0.413118
0.000000 0.523231 0.424167
0.000000 0.526980 0.445281
0.000000 0.534124 0.486320
0.887100 0.882739 0.552585
0.987914 0.916223 0.660027
0.991766 0.930290 0.778366
0.000000 0.541776 0.516443
0.000000 0.541962 0.517578
0.000000 0.542361 0.520008
0.000000 0.543219 0.525204
0.000000 0.545011 0.536073
0.000000 0.548210 0.556935
0.000000 0.553486 0.593636
0.966316 0.925983 0.747646
0.990306 0.938125 0.806454
0.031826 0.000000 0.140218
0.043181 0.009516 0.109358
0.130963 0.042405 0.109084
0.318880 0.014721 0.109140
0.496280 0.000000 0.090223
0.573127 0.000000 0.097604
0.590975 0.000000 0.151939
0.600025 0.000000 0.242823
0.603250 0.000000 0.337737
0.030620 0.020983 0.133154
0.036694 0.018910 0.110900
0.113170 0.039675 0.104426
0.309497 0.020577 0.111627
0.493393 0.000000 0.093310
0.572890 0.000000 0.099379
0.590985 0.000000 0.153081
0.600029 0.000000 0.243460
0.603257 0.000000 0.338076
0.000000 0.156983 0.158217
0.000000 0.151853 0.161338
0.060362 0.108652 0.113851
0.266814 0.108642 0.101036
0.485493 0.000000 0.064068
0.572359 0.000000 0.103260
0.591010 0.000000 0.155549
0.600036 0.000000 0.244804
0.603276 0.000000 0.338845
0.000000 0.330422 0.182802
0.000000 0.328520 0.188310
0.000000 0.285824 0.156123
0.217983 0.304907 0.123909
0.602591 0.252606 0.053523
0.716362 0.040556 0.047746
0.596917 0.000000 0.132139
0.600050 0.000000 0.247736
0.603312 0.000000 0.340538
0.000000 0.431891 0.209502
0.000000 0.432657 0.215540
0.000000 0.434156 0.227838
0.000000 0.471555 0.126808
0.610513 0.611684 0.007368
0.870256 0.520365 0.009537
0.864481 0.386933 0.157858
0.731658 0.000612 0.309298
0.603391 0.000000 0.344165
0.000000 0.475863 0.284822
0.000000 0.476569 0.289195
0.000000 0.478012 0.298166
0.000000 0.480863 0.315955
0.100903 0.650144 0.136160
0.902775 0.789080 0.004555
0.976605 0.774601 0.195345
0.968090 0.723436 0.453857
0.912383 0.510541 0.583245
0.000000 0.506039 0.365534
0.000000 0.506606 0.368706
0.000000 0.507805 0.375461
0.000000 0.510338 0.389747
0.000000 0.515265 0.417867
0.643382 0.798958 0.334465
0.976842 0.866102 0.351109
0.993709 0.887795 0.593858
0.992111 0.889196 0.693978
0.000000 0.529725 0.460538
0.000000 0.530047 0.462397
0.000000 0.530763 0.466485
0.000000 0.532282 0.475189
0.000000 0.535117 0.491974
0.000000 0.539791 0.520997
0.881746 0.888740 0.599871
0.986492 0.919306 0.685750
0.991184 0.931494 0.788465
0.000000 0.546201 0.543731
0.000000 0.546340 0.544649
0.000000 0.546648 0.546669
0.000000 0.547314 0.551043
0.000000 0.548739 0.560405
0.000000 0.551687 0.579726
0.000000 0.555275 0.607875
0.965232 0.927833 0.763282
0.989985 0.938755 0.811921
0.000003 0.000000 0.233324
0.000144 0.000000 0.217107
0.094031 0.000000 0.237026
0.286969 0.000000 0.253876
0.485704 0.000000 0.239898
0.574359 0.000000 0.235047
0.593424 0.000000 0.254669
0.601097 0.000000 0.306013
0.603973 0.000000 0.371944
0.000000 0.000000 0.230232
0.000050 0.000000 0.214776
0.078685 0.000000 0.233498
0.277893 0.000000 0.255174
0.482679 0.000000 0.241455
0.574079 0.000000 0.236276
0.593405 0.000000 0.255418
0.601094 0.000000 0.306485
0.603979 0.000000 0.372211
0.000000 0.138592 0.322470
0.000000 0.133590 0.322371
0.001650 0.089932 0.255284
0.223506 0.065857 0.231130
0.450122 0.000000 0.212318
0.573463 0.000000 0.238944
0.593364 0.000000 0.257032
0.601094 0.000000 0.307531
0.603990 0.000000 0.372764
0.000000 0.329310 0.376201
0.000000 0.326502 0.377714
0.000000 0.292264 0.345880
0.104486 0.269665 0.295300
0.559969 0.225016 0.263275
0.686145 0.002947 0.227725
0.592319 0.000000 0.255800
0.601087 0.000000 0.309754
0.604014 0.000000 0.373960
0.000000 0.464761 0.414433
0.000000 0.464664 0.416702
0.000000 0.464441 0.421600
0.000000 0.471326 0.332838
0.550474 0.605252 0.314498
0.855632 0.515361 0.279621
0.857810 0.375237 0.336121
0.707843 0.000000 0.372096
0.604067 0.000000 0.376512
0.000000 0.506244 0.455074
0.000000 0.506513 0.457056
0.000000 0.507098 0.461381
0.000000 0.508358 0.470705
0.002377 0.657899 0.387910
0.882785 0.812795 0.315932
0.969529 0.787619 0.413176
0.963466 0.727180 0.557277
0.905303 0.488339 0.631960
0.000000 0.528545 0.494774
0.000000 0.528800 0.496419
0.000000 0.529344 0.499926
0.000000 0.530484 0.507282
0.000000 0.532754 0.521881
0.593730 0.816640 0.506455
0.968695 0.884026 0.512810
0.990422 0.895119 0.660160
0.990315 0.892388 0.730697
0.000000 0.542751 0.538637
0.000000 0.542892 0.539595
0.000000 0.543204 0.541687
0.000000 0.543890 0.546288
0.000000 0.545353 0.556136
0.000000 0.548431 0.576740
0.871931 0.897822 0.673495
0.984239 0.924438 0.728201
0.990384 0.932904 0.802316
0.000000 0.553044 0.590118
0.000000 0.553118 0.590708
0.000000 0.553277 0.591965
0.000000 0.553616 0.594676
0.000000 0.554336 0.600408
0.000000 0.555807 0.612136
0.000000 0.557882 0.630687
0.962934 0.930506 0.785912
0.989358 0.939991 0.822638
0.000000 0.000000 0.280440
0.000000 0.000000 0.277504
0.005054 0.000000 0.316805
0.239207 0.000000 0.375558
0.463836 0.000000 0.387529
0.571745 0.000000 0.382894
0.594286 0.000000 0.376768
0.602624 0.000000 0.388414
0.605034 0.000000 0.423413
0.000000 0.000000 0.279330
0.000000 0.000000 0.277097
0.002268 0.000000 0.309694
0.229424 0.000000 0.374522
0.459893 0.000000 0.387813
0.571317 0.000000 0.383502
0.594253 0.000000 0.377215
0.602615 0.000000 0.388644
0.605037 0.000000 0.423561
0.000000 0.093875 0.419256
0.000000 0.086789 0.415915
0.000000 0.014203 0.362652
0.161050 0.000000 0.354126
0.451026 0.000000 0.388417
0.570286 0.000000 0.384808
0.594171 0.000000 0.378159
0.602594 0.000000 0.389187
0.605044 0.000000 0.423877
0.000000 0.305765 0.527507
0.000000 0.302707 0.526784
0.000000 0.273942 0.505209
0.000000 0.224484 0.494168
0.485984 0.094037 0.469371
0.621256 0.000000 0.393034
0.594000 0.000000 0.380185
0.602551 0.000000 0.390331
0.605060 0.000000 0.424561
0.000000 0.477532 0.576245
0.000000 0.476768 0.576613
0.000000 0.475088 0.577403
0.000000 0.454976 0.529568
0.445305 0.571165 0.587884
0.821226 0.484413 0.547922
0.833110 0.302403 0.532098
0.645791 0.000000 0.416913
0.605091 0.000000 0.426028
0.000000 0.527095 0.599916
0.000000 0.527098 0.600544
0.000000 0.527108 0.601923
0.000000 0.527114 0.604897
0.000000 0.653751 0.593131
0.842114 0.833336 0.616149
0.956150 0.798628 0.631030
0.956220 0.724660 0.683523
0.890293 0.432482 0.692274
0.000000 0.544996 0.611785
0.000000 0.545040 0.612305
0.000000 0.545134 0.613408
0.000000 0.545339 0.615814
0.000000 0.545766 0.620915
0.505202 0.830626 0.685596
0.955072 0.903201 0.680788
0.985785 0.903698 0.744405
0.987628 0.895711 0.783462
0.000000 0.553876 0.622512
0.000000 0.553912 0.622896
0.000000 0.553999 0.623755
0.000000 0.554182 0.625587
0.000000 0.554565 0.629455
0.000000 0.555364 0.637478
0.855771 0.907711 0.763246
0.979858 0.931218 0.788558
0.989179 0.934820 0.823456
0.000000 0.559109 0.641869
0.000000 0.559138 0.642147
0.000000 0.559186 0.642633
0.000000 0.559291 0.643688
0.000000 0.559516 0.645974
0.000000 0.559999 0.650862
0.000000 0.561018 0.661176
0.959537 0.933972 0.818596
0.988373 0.941372 0.836876
0.000000 0.000000 0.315461
0.000000 0.000000 0.310738
0.000323 0.000000 0.343577
0.202008 0.000000 0.422870
0.435002 0.000000 0.469213
0.566833 0.000000 0.478492
0.595037 0.000000 0.470644
0.604468 0.000000 0.463240
0.607152 0.000000 0.471765
0.000000 0.000000 0.315578
0.000000 0.000000 0.311379
0.000000 0.000000 0.338355
0.191028 0.000000 0.420271
0.430796 0.000000 0.468683
0.566361 0.000000 0.478638
0.595004 0.000000 0.470773
0.604460 0.000000 0.463330
0.607156 0.000000 0.471805
0.000000 0.012500 0.414260
0.000000 0.006842 0.407898
0.000000 0.000000 0.349212
0.160872 0.000000 0.412510
0.421478 0.000000 0.467475
0.564993 0.000000 0.478906
0.594926 0.000000 0.471032
0.604441 0.000000 0.463549
0.607165 0.000000 0.471896
0.000000 0.254147 0.554889
0.000000 0.251310 0.553322
0.000000 0.225547 0.537322
0.000000 0.150313 0.558416
0.395816 0.000000 0.550631
0.561664 0.000000 0.479476
0.594750 0.000000 0.471607
0.604401 0.000000 0.464023
0.607185 0.000000 0.472094
0.000000 0.460934 0.638335
0.000000 0.460191 0.638154
0.000000 0.458361 0.637671
0.000000 0.416971 0.626143
0.343355 0.501381 0.740262
0.748579 0.313390 0.702928
0.766570 0.037709 0.636564
0.604299 0.000000 0.465049
0.607231 0.000000 0.472524
0.000000 0.530225 0.661901
0.000000 0.530142 0.661922
0.000000 0.529956 0.661966
0.000000 0.529552 0.662054
0.000000 0.610503 0.695260
0.777435 0.819802 0.793467
0.937796 0.778813 0.785139
0.938499 0.665888 0.779992
0.855132 0.288847 0.721513
0.000000 0.550699 0.671368
0.000000 0.550694 0.671457
0.000000 0.550684 0.671642
0.000000 0.550658 0.672049
0.000000 0.550562 0.672648
0.317564 0.821969 0.794090
0.938719 0.913243 0.808244
0.980539 0.908042 0.816747
0.984394 0.896118 0.827073
0.000000 0.559043 0.673279
0.000000 0.559049 0.673344
0.000000 0.559062 0.673484
0.000000 0.559087 0.673781
0.000000 0.559145 0.674424
0.000000 0.559262 0.675778
0.827344 0.911123 0.828487
0.975151 0.935432 0.834729
0.987894 0.936317 0.845413
0.000000 0.562912 0.677091
0.000000 0.562920 0.677145
0.000000 0.562941 0.677262
0.000000 0.562979 0.677508
0.000000 0.563066 0.678048
0.000000 0.563244 0.679176
0.000000 0.563617 0.681509
0.955837 0.936175 0.846454
0.987420 0.942757 0.853332
0.000000 0.000000 0.343521
0.000000 0.000000 0.339349
0.000000 0.000000 0.363844
0.161282 0.000000 0.443770
0.408639 0.000000 0.494652
0.563748 0.000000 0.514110
0.602755 0.000000 0.509598
0.610758 0.000000 0.501491
0.613051 0.000000 0.501873
0.000000 0.000000 0.343543
0.000000 0.000000 0.341790
0.000000 0.000000 0.359086
0.149499 0.000000 0.441360
0.404497 0.000000 0.493981
0.563082 0.000000 0.514108
0.602727 0.000000 0.509659
0.610755 0.000000 0.501523
0.613057 0.000000 0.501889
0.000000 0.000000 0.343594
0.000000 0.000000 0.343559
0.000000 0.000000 0.349735
0.115495 0.000000 0.434034
0.394965 0.000000 0.492271
0.561599 0.000000 0.514098
0.602659 0.000000 0.509795
0.610745 0.000000 0.501593
0.613066 0.000000 0.501914
0.000000 0.178992 0.519807
0.000000 0.175551 0.517732
0.000000 0.158248 0.506093
0.000407 0.068707 0.533662
0.336708 0.000000 0.494555
0.557528 0.000000 0.513934
0.602452 0.000000 0.510087
0.610729 0.000000 0.501752
0.613089 0.000000 0.501977
0.000000 0.416499 0.632330
0.000000 0.415214 0.631851
0.000000 0.412337 0.630774
0.000000 0.366200 0.624712
0.298617 0.416778 0.746554
0.684593 0.127904 0.715501
0.601952 0.000000 0.510747
0.610688 0.000000 0.502099
0.613137 0.000000 0.502112
0.000000 0.523793 0.671265
0.000000 0.523673 0.671213
0.000000 0.523412 0.671101
0.000000 0.522836 0.670852
0.000000 0.588155 0.715173
0.735526 0.787192 0.838602
0.903422 0.653810 0.820454
0.899538 0.493600 0.793093
0.690967 0.000000 0.588971
0.000000 0.550405 0.684653
0.000000 0.550386 0.684653
0.000000 0.550344 0.684653
0.000000 0.550248 0.684650
0.000000 0.550038 0.684641
0.032244 0.767118 0.797019
0.923917 0.908353 0.851942
0.975901 0.904018 0.851564
0.981303 0.886595 0.851660
0.000000 0.560845 0.688729
0.000000 0.560838 0.688735
0.000000 0.560829 0.688752
0.000000 0.560803 0.688784
0.000000 0.560750 0.688854
0.000000 0.560627 0.689005
0.786840 0.906385 0.854736
0.970993 0.936343 0.860445
0.986649 0.936805 0.862001
0.000000 0.565057 0.690929
0.000000 0.565060 0.690940
0.000000 0.565064 0.690964
0.000000 0.565075 0.691017
0.000000 0.565098 0.691130
0.000000 0.565134 0.691321
0.000000 0.565189 0.691674
0.951768 0.936891 0.864568
0.986382 0.943677 0.866590
0.000000 0.000000 0.351726
0.000000 0.000000 0.351372
0.000000 0.000000 0.369639
0.095812 0.000000 0.446560
0.363303 0.000000 0.501443
0.540933 0.000000 0.530010
0.605428 0.000000 0.534165
0.622757 0.000000 0.529835
0.624412 0.000000 0.527470
0.000000 0.000000 0.351730
0.000000 0.000000 0.351724
0.000000 0.000000 0.365089
0.080062 0.000000 0.443350
0.359146 0.000000 0.500650
0.539851 0.000000 0.529901
0.605282 0.000000 0.534166
0.622758 0.000000 0.529865
0.624415 0.000000 0.527476
0.000000 0.000000 0.351737
0.000000 0.000000 0.351732
0.000000 0.000000 0.357772
0.046791 0.000000 0.435405
0.349602 0.000000 0.498730
0.537519 0.000000 0.529669
0.604945 0.000000 0.534171
0.622757 0.000000 0.529927
0.624423 0.000000 0.527491
0.000000 0.000491 0.381899
0.000000 0.000158 0.372182
0.000000 0.000000 0.350766
0.007181 0.000000 0.412136
0.327643 0.000000 0.494062
0.532267 0.000000 0.529150
0.604191 0.000000 0.534180
0.622751 0.000000 0.530063
0.624438 0.000000 0.527522
0.000000 0.324376 0.598583
0.000000 0.322697 0.597787
0.000000 0.318952 0.596010
0.000000 0.288228 0.600621
0.310180 0.306604 0.721097
0.605191 0.001013 0.658001
0.602533 0.000000 0.534194
0.622742 0.000000 0.530359
0.624473 0.000000 0.527591
0.000000 0.502887 0.666971
0.000000 0.502649 0.666889
0.000000 0.502139 0.666713
0.000000 0.501025 0.666328
0.000000 0.575524 0.723400
0.716199 0.742740 0.842937
0.868638 0.532866 0.816672
0.619854 0.000000 0.528592
0.624547 0.000000 0.527740
0.000000 0.542385 0.683789
0.000000 0.542347 0.683769
0.000000 0.542274 0.683728
0.000000 0.542104 0.683635
0.000000 0.541738 0.683432
0.032880 0.762340 0.805083
0.913468 0.901705 0.867313
0.968313 0.874158 0.863675
0.971006 0.831021 0.859072
0.000000 0.559427 0.694148
0.000000 0.559417 0.694146
0.000000 0.559404 0.694143
0.000000 0.559370 0.694136
0.000000 0.559292 0.694119
0.000000 0.559129 0.694083
0.682760 0.887380 0.861046
0.965847 0.934336 0.871875
0.985104 0.935863 0.871978
0.000000 0.565411 0.696443
0.000000 0.565411 0.696446
0.000000 0.565410 0.696450
0.000000 0.565409 0.696460
0.000000 0.565407 0.696479
0.000000 0.565403 0.696523
0.000000 0.565396 0.696616
0.943982 0.936079 0.873584
0.985035 0.943813 0.874335
0.000000 0.000008 0.354917
0.000000 0.000008 0.354917
0.000000 0.000000 0.366630
0.044457 0.000000 0.442846
0.332747 0.000000 0.503720
0.522096 0.000000 0.537792
0.599412 0.000000 0.544457
0.628471 0.000000 0.545982
0.634963 0.000000 0.545827
0.000000 0.000008 0.354917
0.000000 0.000008 0.354917
0.000000 0.000000 0.362623
0.036628 0.000000 0.438301
0.328431 0.000000 0.502805
0.521100 0.000000 0.537698
0.599274 0.000000 0.544449
0.628424 0.000000 0.545985
0.634962 0.000000 0.545827
0.000000 0.000008 0.354917
0.000000 0.000008 0.354917
0.000000 0.000000 0.354997
0.019336 0.000000 0.428263
0.318931 0.000000 0.500797
0.518870 0.000000 0.537480
0.598895 0.000000 0.544427
0.628328 0.000000 0.545988
0.634962 0.000000 0.545829
0.000000 0.000008 0.354917
0.000000 0.000008 0.354917
0.000000 0.000008 0.354917
0.001655 0.000000 0.405969
0.297930 0.000000 0.496350
0.513045 0.000000 0.536681
0.597944 0.000000 0.544369
0.628119 0.000000 0.545998
0.634965 0.000000 0.545838
0.000000 0.182584 0.525508
0.000000 0.180133 0.523968
0.000000 0.175095 0.520712
0.000000 0.142233 0.518263
0.268845 0.000276 0.585957
0.497988 0.000000 0.534277
0.595827 0.000000 0.544245
0.627653 0.000000 0.546016
0.634972 0.000000 0.545863
0.000000 0.470895 0.657051
0.000000 0.470514 0.656918
0.000000 0.469700 0.656634
0.000000 0.467910 0.656008
0.000000 0.546564 0.722901
0.704656 0.669137 0.835533
0.830111 0.388277 0.793737
0.626612 0.000000 0.546048
0.634983 0.000000 0.545907
0.000000 0.534200 0.680919
0.000000 0.534163 0.680903
0.000000 0.534093 0.680870
0.000000 0.533937 0.680798
0.000000 0.533592 0.680640
0.083041 0.776191 0.817771
0.911203 0.894670 0.870935
0.960014 0.840173 0.866327
0.908798 0.519140 0.819435
0.000000 0.554195 0.692533
0.000000 0.554182 0.692526
0.000000 0.554157 0.692513
0.000000 0.554100 0.692480
0.000000 0.553986 0.692416
0.000000 0.553675 0.692248
0.679792 0.885993 0.863682
0.963682 0.932906 0.875657
0.983754 0.932233 0.875160
0.000000 0.565095 0.698701
0.000000 0.565095 0.698701
0.000000 0.565094 0.698702
0.000000 0.565094 0.698706
0.000000 0.565087 0.698708
0.000000 0.565057 0.698702
0.000000 0.564989 0.698689
0.933025 0.934367 0.876013
0.984300 0.943691 0.877436
