apps/lut-action/luts/DIT_RockandRoll_F55_OT_Rec709Full.cube
# iridas cube
#EcalVer: 170Z 28 May, 2014
LUT_3D_SIZE 5
DOMAIN_MIN 0.000000 0.000000 0.000000
DOMAIN_MAX 0.903226 0.903226 0.903226
0.003952 0.003346 0.003796
0.224811 0.064258 0.000000
0.458496 0.000000 0.000000
0.560614 0.000000 0.000000
0.582892 0.000000 0.181125
0.000000 0.191821 0.053685
0.184267 0.192690 0.008296
0.525188 0.022328 0.000000
0.560286 0.000000 0.000000
0.582901 0.000000 0.182434
0.000000 0.353528 0.000000
0.000000 0.350182 0.000000
0.554985 0.486435 0.000000
0.781996 0.302845 0.000000
0.582919 0.000000 0.187592
0.000000 0.401754 0.043072
0.000000 0.402424 0.073793
0.000000 0.406909 0.131261
0.880515 0.733624 0.000000
0.944026 0.684524 0.250441
0.000000 0.447756 0.292399
0.000000 0.448650 0.296441
0.000000 0.452093 0.311865
0.000000 0.464188 0.364282
0.963214 0.850402 0.417874
0.033974 0.001698 0.112634
0.172342 0.052161 0.103691
0.434613 0.000000 0.082304
0.561479 0.000000 0.096015
0.583474 0.000000 0.210015
0.000000 0.151804 0.135329
0.111010 0.131636 0.111184
0.452293 0.001964 0.071305
0.561103 0.000000 0.098979
0.583469 0.000000 0.211182
0.000000 0.346340 0.141778
0.000000 0.345402 0.152370
0.495650 0.449084 0.000000
0.772645 0.291401 0.000697
0.583445 0.000000 0.215932
0.000000 0.418614 0.200407
0.000000 0.420000 0.207817
0.000000 0.424998 0.233560
0.872765 0.737852 0.000000
0.942328 0.688201 0.305603
0.000000 0.457755 0.336234
0.000000 0.458510 0.339499
0.000000 0.461398 0.351993
0.000000 0.470703 0.392163
0.961244 0.854083 0.447010
0.000000 0.000000 0.243669
0.119917 0.000000 0.287640
0.407025 0.000000 0.284826
0.560874 0.000000 0.264813
0.584410 0.000000 0.295754
0.000000 0.121545 0.349748
0.003374 0.085098 0.320767
0.396145 0.000000 0.286617
0.560406 0.000000 0.266413
0.584390 0.000000 0.296370
0.000000 0.366100 0.392078
0.000000 0.363413 0.394307
0.403122 0.411581 0.350389
0.748757 0.248444 0.299864
0.584305 0.000000 0.298873
0.000000 0.462767 0.402800
0.000000 0.463251 0.405293
0.000000 0.465188 0.415336
0.848291 0.760602 0.301236
0.935654 0.696983 0.443756
0.000000 0.482468 0.442972
0.000000 0.482808 0.444506
0.000000 0.484148 0.450572
0.000000 0.488517 0.471001
0.954136 0.865189 0.538933
0.000000 0.000000 0.313860
0.003466 0.000000 0.357620
0.356941 0.000000 0.427004
0.552458 0.000000 0.430351
0.585674 0.000000 0.408753
0.000000 0.000000 0.318182
0.000000 0.000000 0.330045
0.345623 0.000000 0.425749
0.551744 0.000000 0.430732
0.585647 0.000000 0.408916
0.000000 0.330045 0.552595
0.000000 0.326547 0.551710
0.294448 0.322031 0.612394
0.586487 0.000000 0.459417
0.585528 0.000000 0.409595
0.000000 0.493120 0.582913
0.000000 0.493021 0.583207
0.000000 0.492589 0.584398
0.779297 0.766066 0.653254
0.914466 0.675223 0.646055
0.000000 0.506609 0.571277
0.000000 0.506638 0.571522
0.000000 0.506747 0.572490
0.000000 0.507170 0.576277
0.941112 0.879438 0.684271
0.000000 0.000000 0.352434
0.000000 0.000000 0.363255
0.307756 0.000000 0.452254
0.527409 0.000000 0.479357
0.591293 0.000000 0.476354
0.000000 0.000000 0.352449
0.000000 0.000000 0.350180
0.295828 0.000000 0.450345
0.526288 0.000000 0.479287
0.591259 0.000000 0.476416
0.000000 0.194135 0.516805
0.000000 0.188853 0.514294
0.273942 0.076731 0.571116
0.521467 0.000000 0.478971
0.591106 0.000000 0.476693
0.000000 0.470762 0.613365
0.000000 0.470434 0.613289
0.000000 0.469048 0.612964
0.741422 0.720910 0.779191
0.796134 0.229903 0.673619
0.000000 0.512955 0.623600
0.000000 0.512948 0.623617
0.000000 0.512919 0.623686
0.000000 0.512797 0.623960
0.923582 0.881772 0.794404
