apps/lut-action/luts/DIT_F55_Rodrigo_Rock_N_Roll.cube
TITLE "Ecal: DIT_F55_Rodrigo_Rock_N_Roll"
LUT_3D_SIZE 5
0.010240 0.009685 0.009496
0.199229 0.060626 0.003817
0.518477 0.000000 0.000000
0.588383 0.000000 0.018836
0.602589 0.000000 0.307356
0.000000 0.222325 0.029352
0.137589 0.181963 0.021026
0.554779 0.000000 0.000000
0.588435 0.000000 0.028335
0.602616 0.000000 0.308667
0.000000 0.419639 0.000000
0.000000 0.417275 0.000000
0.681197 0.640158 0.000000
0.868785 0.395088 0.007575
0.602752 0.000000 0.314845
0.000000 0.476670 0.194882
0.000000 0.479337 0.212902
0.000000 0.493028 0.294180
0.982503 0.849497 0.159223
0.993591 0.886232 0.663712
0.000000 0.539392 0.501992
0.000000 0.540056 0.506016
0.000000 0.542907 0.523316
0.000000 0.552600 0.586589
0.990463 0.937816 0.803771
0.031826 0.000000 0.140218
0.130963 0.042405 0.109084
0.496280 0.000000 0.090223
0.590975 0.000000 0.151939
0.603250 0.000000 0.337737
0.000000 0.156983 0.158217
0.060362 0.108652 0.113851
0.485493 0.000000 0.064068
0.591010 0.000000 0.155549
0.603276 0.000000 0.338845
0.000000 0.431891 0.209502
0.000000 0.434156 0.227838
0.610513 0.611684 0.007368
0.864481 0.386933 0.157858
0.603391 0.000000 0.344165
0.000000 0.506039 0.365534
0.000000 0.507805 0.375461
0.000000 0.515265 0.417867
0.976842 0.866102 0.351109
0.992111 0.889196 0.693978
0.000000 0.546201 0.543731
0.000000 0.546648 0.546669
0.000000 0.548739 0.560405
0.000000 0.555275 0.607875
0.989985 0.938755 0.811921
0.000000 0.000000 0.280440
0.005054 0.000000 0.316805
0.463836 0.000000 0.387529
0.594286 0.000000 0.376768
0.605034 0.000000 0.423413
0.000000 0.093875 0.419256
0.000000 0.014203 0.362652
0.451026 0.000000 0.388417
0.594171 0.000000 0.378159
0.605044 0.000000 0.423877
0.000000 0.477532 0.576245
0.000000 0.475088 0.577403
0.445305 0.571165 0.587884
0.833110 0.302403 0.532098
0.605091 0.000000 0.426028
0.000000 0.544996 0.611785
0.000000 0.545134 0.613408
0.000000 0.545766 0.620915
0.955072 0.903201 0.680788
0.987628 0.895711 0.783462
0.000000 0.559109 0.641869
0.000000 0.559186 0.642633
0.000000 0.559516 0.645974
0.000000 0.561018 0.661176
0.988373 0.941372 0.836876
0.000000 0.000000 0.343521
0.000000 0.000000 0.363844
0.408639 0.000000 0.494652
0.602755 0.000000 0.509598
0.613051 0.000000 0.501873
0.000000 0.000000 0.343594
0.000000 0.000000 0.349735
0.394965 0.000000 0.492271
0.602659 0.000000 0.509795
0.613066 0.000000 0.501914
0.000000 0.416499 0.632330
0.000000 0.412337 0.630774
0.298617 0.416778 0.746554
0.601952 0.000000 0.510747
0.613137 0.000000 0.502112
0.000000 0.550405 0.684653
0.000000 0.550344 0.684653
0.000000 0.550038 0.684641
0.923917 0.908353 0.851942
0.981303 0.886595 0.851660
0.000000 0.565057 0.690929
0.000000 0.565064 0.690964
0.000000 0.565098 0.691130
0.000000 0.565189 0.691674
0.986382 0.943677 0.866590
0.000000 0.000008 0.354917
0.000000 0.000000 0.366630
0.332747 0.000000 0.503720
0.599412 0.000000 0.544457
0.634963 0.000000 0.545827
0.000000 0.000008 0.354917
0.000000 0.000000 0.354997
0.318931 0.000000 0.500797
0.598895 0.000000 0.544427
0.634962 0.000000 0.545829
0.000000 0.182584 0.525508
0.000000 0.175095 0.520712
0.268845 0.000276 0.585957
0.595827 0.000000 0.544245
0.634972 0.000000 0.545863
0.000000 0.534200 0.680919
0.000000 0.534093 0.680870
0.000000 0.533592 0.680640
0.911203 0.894670 0.870935
0.908798 0.519140 0.819435
0.000000 0.565095 0.698701
0.000000 0.565094 0.698702
0.000000 0.565087 0.698708
0.000000 0.564989 0.698689
0.984300 0.943691 0.877436
