apps/lut-action/luts/DIT_F55_Rodrigo_Rock_N_Roll.cube
TITLE "Ecal: DIT_F55_Rodrigo_Rock_N_Roll"
LUT_3D_SIZE 33
0.010240 0.009685 0.009496
0.011838 0.011009 0.010769
0.016741 0.015086 0.014592
0.027440 0.022736 0.020442
0.048386 0.031952 0.026394
0.077824 0.040607 0.028855
0.112956 0.048402 0.028077
0.155842 0.055302 0.018240
0.199229 0.060626 0.003817
0.243212 0.062208 0.000057
0.289261 0.055682 0.000000
0.339246 0.025216 0.000000
0.383287 0.000000 0.000000
0.424475 0.000000 0.000000
0.461971 0.000000 0.000000
0.491597 0.000000 0.000000
0.518477 0.000000 0.000000
0.537146 0.000000 0.000000
0.551603 0.000000 0.000000
0.562537 0.000000 0.000000
0.571005 0.000000 0.000000
0.576718 0.000000 0.000000
0.581585 0.000000 0.000000
0.585348 0.000000 0.000363
0.588383 0.000000 0.018836
0.590712 0.000000 0.074880
0.593303 0.000000 0.116055
0.595959 0.000000 0.150990
0.598715 0.000000 0.187093
0.600745 0.000000 0.223410
0.601746 0.000000 0.259816
0.602394 0.000000 0.296777
0.602589 0.000000 0.307356
0.012290 0.011738 0.011555
0.013018 0.012297 0.012032
0.016245 0.014899 0.014429
0.025071 0.021394 0.019480
0.044267 0.030539 0.025687
0.073448 0.039439 0.028666
0.108188 0.047508 0.028475
0.151392 0.054697 0.019652
0.195893 0.060252 0.004966
0.240504 0.062176 0.000066
0.286916 0.056226 0.000000
0.337194 0.027176 0.000000
0.381832 0.000000 0.000000
0.423162 0.000000 0.000000
0.461090 0.000000 0.000000
0.490860 0.000000 0.000000
0.517989 0.000000 0.000000
0.536809 0.000000 0.000000
0.551371 0.000000 0.000000
0.562438 0.000000 0.000000
0.570944 0.000000 0.000000
0.576695 0.000000 0.000000
0.581575 0.000000 0.000000
0.585358 0.000000 0.000373
0.588389 0.000000 0.019403
0.590716 0.000000 0.075233
0.593306 0.000000 0.116266
0.595963 0.000000 0.151177
0.598719 0.000000 0.187264
0.600748 0.000000 0.223551
0.601747 0.000000 0.259901
0.602395 0.000000 0.296853
0.602590 0.000000 0.307417
0.016098 0.016039 0.015313
0.016066 0.015829 0.015164
0.017198 0.016499 0.015754
0.023383 0.020846 0.019004
0.040282 0.029150 0.024808
0.067803 0.037972 0.028436
0.101621 0.046277 0.029023
0.144753 0.053720 0.021677
0.189935 0.059584 0.007017
0.235024 0.062112 0.000084
0.282868 0.057165 0.000000
0.334562 0.029690 0.000000
0.380071 0.000000 0.000000
0.421531 0.000000 0.000000
0.460002 0.000000 0.000000
0.489937 0.000000 0.000000
0.517284 0.000000 0.000000
0.536393 0.000000 0.000000
0.551093 0.000000 0.000000
0.562320 0.000000 0.000000
0.570873 0.000000 0.000000
0.576668 0.000000 0.000000
0.581561 0.000000 0.000000
0.585370 0.000000 0.000385
0.588393 0.000000 0.020119
0.590720 0.000000 0.075671
0.593309 0.000000 0.116560
0.595967 0.000000 0.151409
0.598723 0.000000 0.187466
0.600750 0.000000 0.223692
0.601750 0.000000 0.260064
0.602397 0.000000 0.296966
0.602592 0.000000 0.307508
0.022205 0.026631 0.023162
0.021881 0.025789 0.022572
0.021667 0.024804 0.021865
0.025130 0.025768 0.022556
0.036835 0.029912 0.025400
0.062761 0.037687 0.028741
0.094011 0.045414 0.029682
0.135673 0.052675 0.023910
0.179896 0.058715 0.010494
0.225300 0.061965 0.000566
0.273652 0.059302 0.000000
0.326868 0.035529 0.000000
0.375989 0.000000 0.000000
0.418898 0.000000 0.000000
0.458725 0.000000 0.000000
0.488829 0.000000 0.000000
0.516386 0.000000 0.000000
0.535892 0.000000 0.000000
0.550762 0.000000 0.000000
0.562177 0.000000 0.000000
0.570776 0.000000 0.000000
0.576633 0.000000 0.000000
0.581552 0.000000 0.000000
0.585386 0.000000 0.000399
0.588397 0.000000 0.020910
0.590723 0.000000 0.076176
0.593313 0.000000 0.116866
0.595971 0.000000 0.151671
0.598728 0.000000 0.187686
0.600753 0.000000 0.223887
0.601752 0.000000 0.260183
0.602399 0.000000 0.297087
0.602594 0.000000 0.307628
0.023607 0.049991 0.035997
0.025559 0.048057 0.035255
0.026180 0.045598 0.034121
0.029046 0.042438 0.032488
0.036695 0.040185 0.031372
0.058521 0.042723 0.031610
0.087835 0.048032 0.031770
0.126129 0.054668 0.028339
0.168745 0.060419 0.014700
0.213745 0.063380 0.002901
0.260780 0.063038 0.000000
0.313083 0.044045 0.000000
0.365940 0.000000 0.000000
0.411980 0.000000 0.000000
0.455492 0.000000 0.000000
0.487395 0.000000 0.000000
0.515331 0.000000 0.000000
0.535292 0.000000 0.000000
0.550366 0.000000 0.000000
0.562007 0.000000 0.000000
0.570669 0.000000 0.000000
0.576596 0.000000 0.000000
0.581536 0.000000 0.000000
0.585404 0.000000 0.000417
0.588402 0.000000 0.021875
0.590728 0.000000 0.076819
0.593321 0.000000 0.117267
0.595976 0.000000 0.151992
0.598735 0.000000 0.187989
0.600756 0.000000 0.224086
0.601754 0.000000 0.260341
0.602402 0.000000 0.297233
0.602597 0.000000 0.307762
0.000272 0.086102 0.045970
0.000899 0.084505 0.045663
0.001930 0.082222 0.045191
0.005510 0.077520 0.044119
0.016908 0.070347 0.042190
0.052453 0.066282 0.040129
0.084949 0.065634 0.037911
0.122497 0.068139 0.033506
0.163858 0.072408 0.024256
0.208015 0.075101 0.006697
0.254810 0.074161 0.000000
0.306540 0.062245 0.000000
0.356421 0.027877 0.000000
0.401380 0.000655 0.000000
0.444768 0.000000 0.000000
0.480231 0.000000 0.000000
0.512759 0.000000 0.000000
0.534392 0.000000 0.000000
0.549873 0.000000 0.000000
0.561786 0.000000 0.000000
0.570536 0.000000 0.000000
0.576545 0.000000 0.000000
0.581517 0.000000 0.000000
0.585425 0.000000 0.000439
0.588408 0.000000 0.023077
0.590734 0.000000 0.077576
0.593326 0.000000 0.117746
0.595983 0.000000 0.152395
0.598743 0.000000 0.188334
0.600761 0.000000 0.224362
0.601759 0.000000 0.260594
0.602406 0.000000 0.297422
0.602601 0.000000 0.307922
0.000000 0.127737 0.050307
0.000000 0.126008 0.050270
0.000000 0.123907 0.050225
0.000000 0.118873 0.049963
0.000000 0.109708 0.048810
0.021170 0.098579 0.047100
0.074757 0.095757 0.044437
0.118514 0.093592 0.039461
0.163832 0.092257 0.030399
0.209018 0.095597 0.007583
0.256662 0.095371 0.000000
0.310352 0.086348 0.000000
0.364644 0.064960 0.000000
0.410084 0.016018 0.000000
0.447867 0.000000 0.000000
0.473828 0.000000 0.000000
0.501713 0.000000 0.000000
0.531057 0.000000 0.000000
0.549285 0.000000 0.000000
0.561476 0.000000 0.000000
0.570387 0.000000 0.000000
0.576488 0.000000 0.000000
0.581496 0.000000 0.000000
0.585451 0.000000 0.000466
0.588415 0.000000 0.024500
0.590740 0.000000 0.078486
0.593334 0.000000 0.118313
0.595992 0.000000 0.152892
0.598753 0.000000 0.188744
0.600765 0.000000 0.224676
0.601763 0.000000 0.260833
0.602410 0.000000 0.297652
0.602605 0.000000 0.308134
0.000000 0.176774 0.047475
0.000000 0.175200 0.047713
0.000000 0.173266 0.048005
0.000000 0.170171 0.048290
0.000000 0.161731 0.048705
0.001528 0.144657 0.048967
0.028974 0.136624 0.047152
0.098511 0.134804 0.041782
0.157534 0.132135 0.029606
0.209130 0.126526 0.011238
0.260223 0.124212 0.000024
0.316482 0.116707 0.000001
0.375989 0.099085 0.000000
0.429255 0.055307 0.000000
0.474698 0.009694 0.000000
0.500717 0.000025 0.000000
0.519646 0.000000 0.000000
0.531911 0.000000 0.000000
0.543664 0.000000 0.000000
0.560099 0.000000 0.000000
0.570216 0.000000 0.000000
0.576413 0.000000 0.000000
0.581466 0.000000 0.000000
0.585479 0.000000 0.000499
0.588426 0.000000 0.026241
0.590749 0.000000 0.079636
0.593345 0.000000 0.119047
0.596001 0.000000 0.153484
0.598763 0.000000 0.189252
0.600770 0.000000 0.225060
0.601768 0.000000 0.261164
0.602415 0.000000 0.297919
0.602610 0.000000 0.308381
0.000000 0.222325 0.029352
0.000000 0.221156 0.030018
0.000000 0.219714 0.030839
0.000000 0.217948 0.031845
0.000000 0.213198 0.034550
0.000000 0.196058 0.041913
0.000000 0.179549 0.043188
0.047594 0.180150 0.036239
0.137589 0.181963 0.021026
0.204288 0.176215 0.006189
0.262341 0.165930 0.000033
0.323914 0.157431 0.000007
0.387953 0.144272 0.000000
0.445054 0.115371 0.000000
0.500220 0.063342 0.000000
0.532227 0.010751 0.000000
0.554779 0.000000 0.000000
0.564416 0.000000 0.000000
0.564358 0.000000 0.000000
0.558429 0.000000 0.000000
0.569142 0.000000 0.000000
0.576325 0.000000 0.000000
0.581433 0.000000 0.000000
0.585512 0.000000 0.000538
0.588435 0.000000 0.028335
0.590760 0.000000 0.080961
0.593358 0.000000 0.119897
0.596013 0.000000 0.154184
0.598778 0.000000 0.189860
0.600779 0.000000 0.225532
0.601774 0.000000 0.261549
0.602421 0.000000 0.298246
0.602616 0.000000 0.308667
0.000000 0.264045 0.008872
0.000000 0.263047 0.009303
0.000000 0.261819 0.009833
0.000000 0.260334 0.010474
0.000000 0.258533 0.011252
0.000000 0.248370 0.016065
0.000000 0.228051 0.024511
0.007977 0.224673 0.017491
0.077865 0.229679 0.009169
0.178905 0.231681 0.001639
0.256159 0.225352 0.000063
0.324888 0.210146 0.000000
0.395594 0.195232 0.000000
0.457713 0.174326 0.000000
0.519728 0.144194 0.000000
0.561486 0.093103 0.000000
0.592696 0.038005 0.000000
0.605865 0.004976 0.000000
0.607326 0.000000 0.000000
0.599627 0.000000 0.000000
0.582841 0.000000 0.000000
0.576903 0.000000 0.000000
0.581391 0.000000 0.000000
0.585550 0.000000 0.000587
0.588448 0.000000 0.030822
0.590772 0.000000 0.082655
0.593371 0.000000 0.120935
0.596029 0.000000 0.155053
0.598794 0.000000 0.190606
0.600787 0.000000 0.226108
0.601784 0.000000 0.262033
0.602429 0.000000 0.298657
0.602624 0.000000 0.309036
0.000000 0.304584 0.000000
0.000000 0.303794 0.000000
0.000000 0.302835 0.000000
0.000000 0.301666 0.000000
0.000000 0.300248 0.000000
0.000000 0.297118 0.000000
0.000000 0.283128 0.001532
0.000008 0.272331 0.002238
0.002298 0.279421 0.001515
0.121280 0.289825 0.000157
0.233613 0.293104 0.000000
0.318492 0.280968 0.000000
0.397088 0.253992 0.000000
0.464894 0.233833 0.000000
0.532564 0.209059 0.000000
0.581734 0.177504 0.000000
0.620247 0.132812 0.000000
0.644706 0.069667 0.000000
0.653357 0.006042 0.000000
0.648867 0.000000 0.000000
0.633822 0.000000 0.000000
0.609226 0.000000 0.000000
0.577092 0.000000 0.000000
0.585516 0.000000 0.000642
0.588462 0.000000 0.033820
0.590787 0.000000 0.084618
0.593390 0.000000 0.122162
0.596048 0.000000 0.156080
0.598814 0.000000 0.191497
0.600797 0.000000 0.226788
0.601794 0.000000 0.262579
0.602438 0.000000 0.299144
0.602633 0.000000 0.309475
0.000000 0.336713 0.000000
0.000000 0.336168 0.000000
0.000000 0.335460 0.000000
0.000000 0.334543 0.000000
0.000000 0.333461 0.000000
0.000000 0.332057 0.000000
0.000000 0.327830 0.000000
0.000000 0.313975 0.000069
0.000000 0.317365 0.000002
0.039811 0.336023 0.000007
0.178203 0.351151 0.000001
0.291865 0.352142 0.000000
0.390183 0.338762 0.000000
0.469032 0.308386 0.000000
0.543121 0.281429 0.000000
0.599411 0.254550 0.000000
0.644327 0.219935 0.000000
0.674288 0.172508 0.000000
0.693349 0.112874 0.000000
0.695767 0.045041 0.000000
0.688297 0.001674 0.000000
0.666281 0.000021 0.000000
0.637943 0.000000 0.000000
0.601858 0.000000 0.000928
0.588154 0.000000 0.033930
0.590804 0.000000 0.087067
0.593408 0.000000 0.123672
0.596072 0.000000 0.157363
0.598839 0.000000 0.192623
0.600809 0.000000 0.227622
0.601806 0.000000 0.263301
0.602450 0.000000 0.299742
0.602645 0.000000 0.310013
0.000000 0.363813 0.000000
0.000000 0.363453 0.000000
0.000000 0.363007 0.000000
0.000000 0.362455 0.000000
0.000000 0.361787 0.000000
0.000000 0.360914 0.000000
0.000000 0.359811 0.000000
0.000000 0.352310 0.000000
0.000000 0.350719 0.000000
0.000000 0.371442 0.000000
0.062639 0.398632 0.000000
0.239936 0.409395 0.000000
0.360993 0.411586 0.000000
0.463555 0.393370 0.000000
0.547554 0.357067 0.000000
0.612749 0.328293 0.000000
0.665091 0.300720 0.000000
0.702427 0.265298 0.000000
0.727701 0.224533 0.000000
0.736278 0.171560 0.000000
0.736694 0.080962 0.000000
0.722731 0.002497 0.000000
0.697010 0.000000 0.000000
0.665720 0.000000 0.001547
0.618500 0.000000 0.012688
0.590221 0.000000 0.083590
0.593433 0.000000 0.125468
0.596099 0.000000 0.158892
0.598871 0.000000 0.193948
0.600825 0.000000 0.228612
0.601820 0.000000 0.264141
0.602465 0.000000 0.300446
0.602661 0.000000 0.310640
0.000000 0.384125 0.000000
0.000000 0.383829 0.000000
0.000000 0.383465 0.000000
0.000000 0.383008 0.000000
0.000000 0.382440 0.000000
0.000000 0.381686 0.000000
0.000000 0.380745 0.000000
0.000000 0.379125 0.000000
0.000000 0.374272 0.000000
0.000000 0.392721 0.000000
0.004058 0.425054 0.000000
0.134101 0.452752 0.000000
0.310129 0.465346 0.000000
0.434715 0.467413 0.000000
0.539870 0.451138 0.000000
0.621802 0.415771 0.000000
0.683531 0.383389 0.000000
0.729698 0.353327 0.000000
0.758543 0.317094 0.000000
0.772061 0.275165 0.000000
0.774076 0.229146 0.000000
0.767691 0.166364 0.000000
0.754196 0.083464 0.000000
0.731116 0.026715 0.000746
0.698471 0.002077 0.014971
0.643781 0.000000 0.059374
0.595060 0.000000 0.118320
0.596134 0.000000 0.160749
0.598903 0.000000 0.195512
0.600844 0.000000 0.229832
0.601837 0.000000 0.265168
0.602481 0.000000 0.301325
0.602677 0.000000 0.311427
0.000000 0.400755 0.000000
0.000000 0.400491 0.000000
0.000000 0.400174 0.000000
0.000000 0.399763 0.000000
0.000000 0.399262 0.000000
0.000000 0.398631 0.000000
0.000000 0.397878 0.000000
0.000000 0.396964 0.000000
0.000000 0.395870 0.000000
0.000000 0.399907 0.000000
0.000000 0.435409 0.000000
0.025315 0.476192 0.000000
0.228149 0.506530 0.000000
0.386720 0.522518 0.000000
0.510045 0.526425 0.000000
0.620106 0.509622 0.000000
0.699777 0.477065 0.000000
0.754349 0.442757 0.000000
0.791306 0.412399 0.000000
0.810000 0.375526 0.000000
0.815144 0.335697 0.000000
0.809651 0.291801 0.000000
0.798755 0.243143 0.000000
0.783811 0.187695 0.000001
0.766611 0.097189 0.009336
0.733149 0.006227 0.058897
0.676469 0.000000 0.115659
0.604411 0.000000 0.154486
0.598940 0.000000 0.197433
0.600865 0.000000 0.231266
0.601858 0.000000 0.266384
0.602500 0.000000 0.302340
0.602697 0.000000 0.312346
0.000000 0.410877 0.000000
0.000000 0.410720 0.000000
0.000000 0.410531 0.000000
0.000000 0.410303 0.000000
0.000000 0.410035 0.000000
0.000000 0.409697 0.000000
0.000000 0.409295 0.000000
0.000000 0.408743 0.000000
0.000000 0.408070 0.000000
0.000000 0.406052 0.000000
0.000000 0.422796 0.000000
0.003570 0.473917 0.000000
0.076578 0.521603 0.000000
0.295906 0.554044 0.000000
0.463890 0.576206 0.000000
0.594977 0.582208 0.000000
0.698819 0.570632 0.000000
0.771771 0.537245 0.000000
0.818935 0.503326 0.000000
0.843509 0.472818 0.000000
0.854952 0.438246 0.000000
0.853293 0.400076 0.000000
0.845419 0.359663 0.000000
0.833102 0.316051 0.000000
0.817436 0.266282 0.008976
0.797601 0.194075 0.058692
0.767570 0.092290 0.128007
0.705391 0.012567 0.174315
0.624440 0.000000 0.201511
0.600892 0.000000 0.233039
0.601885 0.000000 0.267911
0.602525 0.000000 0.303626
0.602721 0.000000 0.313493
0.000000 0.419639 0.000000
0.000000 0.419505 0.000000
0.000000 0.419341 0.000000
0.000000 0.419143 0.000000
0.000000 0.418915 0.000000
0.000000 0.418620 0.000000
0.000000 0.418249 0.000000
0.000000 0.417788 0.000000
0.000000 0.417275 0.000000
0.000000 0.416642 0.000000
0.000000 0.415753 0.000000
0.000000 0.451171 0.000000
0.000000 0.511943 0.000000
0.146659 0.563156 0.000000
0.392178 0.602807 0.000000
0.552257 0.629834 0.000000
0.681197 0.640158 0.000000
0.775994 0.627694 0.000000
0.837891 0.596164 0.000000
0.869943 0.563747 0.000000
0.887503 0.535954 0.000000
0.891756 0.504660 0.000000
0.889898 0.472202 0.000000
0.881130 0.435666 0.000000
0.868785 0.395088 0.007575
0.853290 0.347953 0.043619
0.832263 0.287694 0.128684
0.802987 0.186651 0.202957
0.748411 0.010090 0.248449
0.635730 0.000000 0.245336
0.601915 0.000000 0.269735
0.602555 0.000000 0.305138
0.602752 0.000000 0.314845
0.000000 0.427904 0.000000
0.000000 0.427777 0.000000
0.000000 0.427625 0.000000
0.000000 0.427438 0.000000
0.000000 0.427214 0.000000
0.000000 0.426933 0.000000
0.000000 0.426614 0.000000
0.000000 0.426229 0.000000
0.000000 0.425787 0.000000
0.000000 0.425258 0.000000
0.000000 0.424625 0.000000
0.000000 0.430486 0.000030
0.000000 0.478265 0.000000
0.036633 0.544265 0.000000
0.252379 0.603359 0.000000
0.475583 0.647482 0.000000
0.645220 0.677618 0.000000
0.757269 0.685748 0.000000
0.844589 0.677451 0.000000
0.887255 0.650434 0.000000
0.909504 0.620336 0.000000
0.920035 0.596856 0.000000
0.922136 0.570798 0.000000
0.918454 0.543133 0.000182
0.912275 0.513269 0.003146
0.901830 0.476969 0.030674
0.888593 0.432970 0.121693
0.867276 0.371158 0.214820
0.837667 0.281636 0.285956
0.775425 0.109032 0.317934
0.656342 0.000000 0.301228
0.602590 0.000000 0.306993
0.602788 0.000000 0.316509
0.000000 0.435339 0.000000
0.000000 0.435209 0.000000
0.000000 0.435050 0.000000
0.000000 0.434863 0.000000
0.000000 0.434642 0.000000
0.000000 0.434372 0.000000
0.000000 0.434081 0.000000
0.000000 0.433763 0.000000
0.000000 0.433389 0.000000
0.000000 0.432946 0.000030
0.000000 0.432425 0.000044
0.000000 0.431926 0.001433
0.000000 0.429954 0.004117
0.000000 0.504121 0.000000
0.045163 0.579906 0.000000
0.357468 0.643010 0.000000
0.577808 0.692496 0.000000
0.721021 0.714474 0.000000
0.828886 0.725936 0.000000
0.892873 0.720210 0.000000
0.928394 0.704158 0.000000
0.940589 0.679357 0.000000
0.947389 0.660998 0.000000
0.947282 0.640533 0.000208
0.943850 0.616316 0.002239
0.938236 0.590384 0.030522
0.930562 0.559613 0.111917
0.919517 0.520489 0.217560
0.902403 0.464431 0.310171
0.872086 0.372265 0.370125
0.815529 0.196316 0.399882
0.665487 0.000000 0.345416
0.602324 0.000000 0.314848
0.000000 0.441961 0.000000
0.000000 0.441867 0.000000
0.000000 0.441762 0.000000
0.000000 0.441661 0.000072
0.000000 0.441545 0.000205
0.000000 0.441398 0.000356
0.000000 0.441220 0.000513
0.000000 0.441018 0.001112
0.000000 0.440816 0.002843
0.000000 0.440576 0.005131
0.000000 0.440425 0.012895
0.000000 0.440387 0.027099
0.000000 0.440580 0.046811
0.000000 0.452738 0.038612
0.000000 0.529941 0.000001
0.165058 0.610931 0.000000
0.456402 0.678823 0.000000
0.657751 0.721578 0.000000
0.794232 0.743724 0.000000
0.877991 0.751867 0.000000
0.928568 0.751366 0.000000
0.951888 0.739262 0.000000
0.962665 0.726862 0.000000
0.966323 0.714970 0.000016
0.966944 0.702994 0.000002
0.964434 0.687600 0.043425
0.960096 0.666732 0.114186
0.952799 0.641050 0.232244
0.942661 0.604632 0.330915
0.927273 0.550029 0.400534
0.899363 0.458493 0.451228
0.841362 0.262749 0.469589
0.818643 0.180005 0.468456
0.000000 0.448780 0.001866
0.000000 0.448752 0.002099
0.000000 0.448721 0.002371
0.000000 0.448688 0.003341
0.000000 0.448672 0.005850
0.000000 0.448652 0.008831
0.000000 0.448623 0.012154
0.000000 0.448575 0.015900
0.000000 0.448620 0.027014
0.000000 0.448739 0.044352
0.000000 0.448852 0.061878
0.000000 0.449216 0.078221
0.000000 0.449884 0.093729
0.000000 0.450648 0.110945
0.000000 0.456246 0.067165
0.014677 0.558522 0.000010
0.286216 0.648299 0.000000
0.553822 0.711192 0.000000
0.737365 0.748168 0.000000
0.850788 0.767313 0.000000
0.917761 0.776410 0.000000
0.953049 0.777299 0.000000
0.970474 0.771236 0.000000
0.977223 0.766415 0.000000
0.980505 0.761729 0.009706
0.980955 0.756105 0.072962
0.980133 0.750006 0.153807
0.976993 0.738042 0.269874
0.971336 0.718556 0.358785
0.962878 0.688882 0.429787
0.947618 0.635420 0.487468
0.925020 0.552654 0.529203
0.917357 0.523797 0.539205
0.000000 0.455660 0.043455
0.000000 0.455699 0.045936
0.000000 0.455740 0.048855
0.000000 0.455796 0.052541
0.000000 0.455887 0.058615
0.000000 0.456005 0.066415
0.000000 0.456179 0.074167
0.000000 0.456391 0.082581
0.000000 0.456620 0.091834
0.000000 0.456936 0.101616
0.000000 0.457416 0.110765
0.000000 0.458033 0.121170
0.000000 0.458888 0.132948
0.000000 0.460151 0.146321
0.000000 0.461585 0.160810
0.000000 0.494429 0.093628
0.026434 0.587789 0.003154
0.363147 0.678811 0.000642
0.643223 0.740114 0.000000
0.798252 0.769318 0.000000
0.894955 0.786515 0.000000
0.943072 0.794326 0.000000
0.970876 0.797226 0.000000
0.981571 0.798338 0.000000
0.986522 0.798607 0.055589
0.989334 0.799159 0.121857
0.989700 0.798519 0.214428
0.988855 0.795296 0.314984
0.987014 0.790608 0.393666
0.982830 0.777986 0.465263
0.975107 0.755692 0.521473
0.962363 0.711560 0.565537
0.957856 0.695073 0.577627
0.000000 0.463224 0.112159
0.000000 0.463310 0.113689
0.000000 0.463413 0.115519
0.000000 0.463541 0.117708
0.000000 0.463685 0.120239
0.000000 0.463863 0.123367
0.000000 0.464071 0.126994
0.000000 0.464316 0.131381
0.000000 0.464599 0.136374
0.000000 0.465117 0.142675
0.000000 0.465839 0.150043
0.000000 0.466672 0.158559
0.000000 0.467601 0.168065
0.000000 0.468751 0.179127
0.000000 0.470460 0.192263
0.000000 0.472650 0.208197
0.000000 0.507715 0.139551
0.115987 0.623644 0.034217
0.490551 0.718230 0.001085
0.719805 0.765058 0.000552
0.857085 0.790720 0.000101
0.924918 0.803865 0.000013
0.963087 0.811607 0.000000
0.981358 0.817815 0.000000
0.989505 0.825055 0.088564
0.992890 0.828702 0.198010
0.994116 0.831664 0.285529
0.994805 0.834011 0.364233
0.994067 0.834433 0.435876
0.992740 0.832737 0.502329
0.989501 0.827869 0.556735
0.983284 0.811525 0.596951
0.981373 0.806033 0.608810
0.000000 0.469832 0.154395
0.000000 0.469935 0.155617
0.000000 0.470056 0.157051
0.000000 0.470246 0.158872
0.000000 0.470479 0.161038
0.000000 0.470761 0.163670
0.000000 0.471089 0.166744
0.000000 0.471483 0.170461
0.000000 0.471936 0.174707
0.000000 0.472544 0.179956
0.000000 0.473311 0.186157
0.000000 0.474217 0.193496
0.000000 0.475396 0.202270
0.000000 0.476929 0.213118
0.000000 0.478762 0.225844
0.000000 0.481442 0.242397
0.000000 0.484816 0.261826
0.000868 0.541285 0.195111
0.153592 0.660907 0.103541
0.568773 0.746639 0.038275
0.791588 0.789511 0.013737
0.894575 0.809738 0.011523
0.949073 0.822128 0.021560
0.974833 0.829863 0.010097
0.988196 0.838006 0.096095
0.993009 0.847376 0.252062
0.995243 0.853921 0.357785
0.995867 0.857822 0.418339
0.996073 0.861860 0.482837
0.995985 0.863848 0.541846
0.994183 0.862953 0.589044
0.991028 0.859170 0.626298
0.990043 0.857835 0.637293
0.000000 0.476670 0.194882
0.000000 0.476830 0.195959
0.000000 0.477020 0.197248
0.000000 0.477251 0.198804
0.000000 0.477524 0.200646
0.000000 0.477866 0.202949
0.000000 0.478267 0.205657
0.000000 0.478759 0.208995
0.000000 0.479337 0.212902
0.000000 0.480055 0.217790
0.000000 0.480916 0.223643
0.000000 0.481969 0.230798
0.000000 0.483199 0.239046
0.000000 0.485266 0.250631
0.000000 0.487598 0.263709
0.000000 0.490229 0.278458
0.000000 0.493028 0.294180
0.000000 0.496098 0.311483
0.000000 0.562526 0.244481
0.254843 0.701820 0.174554
0.676783 0.780352 0.098151
0.842366 0.812477 0.088016
0.927487 0.830840 0.089465
0.963545 0.840926 0.097316
0.982503 0.849497 0.159223
0.991204 0.859073 0.282955
0.994661 0.869472 0.399129
0.995291 0.876538 0.479034
0.996065 0.880721 0.531568
0.996596 0.884546 0.582745
0.996018 0.886843 0.622917
0.994215 0.886698 0.655195
0.993591 0.886232 0.663712
0.000000 0.485312 0.239756
0.000000 0.485485 0.240798
0.000000 0.485690 0.242051
0.000000 0.485945 0.243594
0.000000 0.486238 0.245381
0.000000 0.486604 0.247608
0.000000 0.487030 0.250204
0.000000 0.487549 0.253365
0.000000 0.488155 0.257050
0.000000 0.489022 0.261918
0.000000 0.490037 0.267601
0.000000 0.491242 0.274339
0.000000 0.492611 0.281994
0.000000 0.494205 0.290883
0.000000 0.495985 0.300793
0.000000 0.497996 0.311988
0.000000 0.500213 0.324317
0.000000 0.502717 0.338270
0.000000 0.505538 0.353995
0.033851 0.597668 0.310114
0.375722 0.743657 0.263565
0.735198 0.805824 0.225641
0.884429 0.835741 0.212908
0.943378 0.850584 0.238810
0.972565 0.860844 0.286157
0.985462 0.868907 0.340763
0.992255 0.878343 0.419294
0.993941 0.888559 0.514091
0.995003 0.895292 0.582316
0.995786 0.898916 0.623268
0.995658 0.901681 0.659593
0.994436 0.902703 0.684689
0.994076 0.902902 0.691645
0.000000 0.495634 0.289403
0.000000 0.495788 0.290258
0.000000 0.495967 0.291253
0.000000 0.496187 0.292481
0.000000 0.496438 0.293879
0.000000 0.496756 0.295652
0.000000 0.497120 0.297692
0.000000 0.497566 0.300169
0.000000 0.498077 0.303009
0.000000 0.498730 0.306588
0.000000 0.499478 0.310683
0.000000 0.500359 0.315522
0.000000 0.501376 0.321090
0.000000 0.502565 0.327626
0.000000 0.503916 0.335051
0.000000 0.505524 0.343896
0.000000 0.507403 0.354232
0.000000 0.509664 0.366617
0.000000 0.512324 0.381075
0.000000 0.515407 0.397897
0.000000 0.627041 0.366527
0.494626 0.778726 0.357264
0.810451 0.835292 0.343310
0.911651 0.857563 0.353999
0.957729 0.870626 0.378812
0.976989 0.879166 0.418605
0.987202 0.886714 0.463702
0.992020 0.896181 0.534519
