apps/lut-action/luts/DIT_RockandRoll_F55_OT_Rec709Full.cube
# iridas cube
#EcalVer: 170Z 28 May, 2014
LUT_3D_SIZE 32
0.003952 0.003346 0.003796
0.011879 0.009725 0.010941
0.022261 0.017099 0.018548
0.051630 0.031308 0.028929
0.098114 0.045720 0.032803
0.140905 0.054336 0.028979
0.183198 0.060700 0.014725
0.224811 0.064258 0.000000
0.263791 0.061891 0.000000
0.301256 0.052979 0.000000
0.338488 0.021521 0.000000
0.373261 0.000000 0.000000
0.402752 0.000000 0.000000
0.433187 0.000000 0.000000
0.458496 0.000000 0.000000
0.482157 0.000000 0.000000
0.503908 0.000000 0.000000
0.520516 0.000000 0.000000
0.534245 0.000000 0.000000
0.545181 0.000000 0.000000
0.554197 0.000000 0.000000
0.560614 0.000000 0.000000
0.565641 0.000000 0.001671
0.568768 0.000000 0.044434
0.571466 0.000000 0.079198
0.574301 0.000000 0.103814
0.577137 0.000000 0.127409
0.580232 0.000000 0.153964
0.582892 0.000000 0.181125
0.583993 0.000000 0.208985
0.584463 0.000000 0.239087
0.584577 0.000000 0.248113
0.010379 0.009111 0.010202
0.013492 0.011471 0.012814
0.020559 0.016365 0.017846
0.044514 0.028463 0.027310
0.091223 0.044005 0.032811
0.135253 0.053321 0.029902
0.178187 0.060044 0.016730
0.220943 0.064215 0.000458
0.260921 0.062353 0.000000
0.299157 0.053591 0.000000
0.336745 0.023249 0.000000
0.371996 0.000000 0.000000
0.401706 0.000000 0.000000
0.432319 0.000000 0.000000
0.457878 0.000000 0.000000
0.481681 0.000000 0.000000
0.503535 0.000000 0.000000
0.520202 0.000000 0.000000
0.534077 0.000000 0.000000
0.545096 0.000000 0.000000
0.554156 0.000000 0.000000
0.560588 0.000000 0.000000
0.565637 0.000000 0.001711
0.568767 0.000000 0.044867
0.571467 0.000000 0.079450
0.574299 0.000000 0.103962
0.577138 0.000000 0.127540
0.580232 0.000000 0.154092
0.582894 0.000000 0.181234
0.583995 0.000000 0.209060
0.584463 0.000000 0.239150
0.584578 0.000000 0.248166
0.017760 0.016755 0.018061
0.017956 0.016572 0.017925
0.020839 0.018088 0.019432
0.037930 0.026486 0.026166
0.082785 0.042102 0.032814
0.127980 0.052075 0.030840
0.171035 0.059106 0.020037
0.214947 0.063798 0.001385
0.255521 0.062798 0.000000
0.294717 0.054856 0.000000
0.333836 0.026046 0.000000
0.370300 0.000000 0.000000
0.400401 0.000000 0.000000
0.431232 0.000000 0.000000
0.457105 0.000000 0.000000
0.481066 0.000000 0.000000
0.503048 0.000000 0.000000
0.519813 0.000000 0.000000
0.533880 0.000000 0.000000
0.544991 0.000000 0.000000
0.554100 0.000000 0.000000
0.560558 0.000000 0.000000
0.565632 0.000000 0.001761
0.568763 0.000000 0.045418
0.571463 0.000000 0.079758
0.574298 0.000000 0.104166
0.577137 0.000000 0.127701
0.580232 0.000000 0.154248
0.582894 0.000000 0.181346
0.583997 0.000000 0.209187
0.584464 0.000000 0.239244
0.584579 0.000000 0.248248
0.024871 0.037118 0.033060
0.024972 0.035331 0.031993
0.025819 0.033111 0.030679
0.035002 0.033832 0.031248
0.072787 0.043601 0.034640
0.120626 0.053137 0.032952
0.163380 0.059848 0.024843
0.207110 0.064457 0.002826
0.247239 0.064149 0.000000
0.286574 0.057405 0.000000
0.326845 0.032955 0.000000
0.365545 0.000000 0.000000
0.397630 0.000000 0.000000
0.429694 0.000000 0.000000
0.456192 0.000000 0.000000
0.480323 0.000000 0.000000
0.502443 0.000000 0.000000
0.519358 0.000000 0.000000
0.533645 0.000000 0.000000
0.544859 0.000000 0.000000
0.554033 0.000000 0.000000
0.560523 0.000000 0.000000
0.565628 0.000000 0.001819
0.568758 0.000000 0.046045
0.571458 0.000000 0.080105
0.574295 0.000000 0.104393
0.577135 0.000000 0.127886
0.580231 0.000000 0.154419
0.582895 0.000000 0.181496
0.583998 0.000000 0.209292
0.584465 0.000000 0.239343
0.584580 0.000000 0.248348
0.000000 0.078129 0.049201
0.000000 0.075807 0.048653
0.000689 0.072313 0.047711
0.018230 0.067277 0.046067
0.057112 0.065774 0.044069
0.114038 0.069215 0.039682
0.160727 0.072377 0.031612
0.205660 0.074966 0.012458
0.246200 0.073584 0.000000
0.284221 0.066295 0.000000
0.322158 0.045462 0.000000
0.358477 0.002438 0.000000
0.391219 0.000000 0.000000
0.424747 0.000000 0.000000
0.453994 0.000000 0.000000
0.479225 0.000000 0.000000
0.501710 0.000000 0.000000
0.518794 0.000000 0.000000
0.533361 0.000000 0.000000
0.544702 0.000000 0.000000
0.553945 0.000000 0.000000
0.560482 0.000000 0.000000
0.565621 0.000000 0.001892
0.568750 0.000000 0.046828
0.571455 0.000000 0.080555
0.574295 0.000000 0.104683
0.577133 0.000000 0.128124
0.580230 0.000000 0.154649
0.582896 0.000000 0.181655
0.584000 0.000000 0.209433
0.584467 0.000000 0.239468
0.584581 0.000000 0.248468
0.000000 0.119213 0.055423
0.000000 0.117671 0.055269
0.000000 0.115398 0.055033
0.000000 0.110108 0.054482
0.017726 0.105307 0.053074
0.097662 0.108391 0.048317
0.156801 0.108268 0.039381
0.208750 0.106023 0.020427
0.255129 0.103825 0.000874
0.297874 0.096264 0.000000
0.338922 0.077907 0.000000
0.378168 0.039538 0.000000
0.402333 0.001709 0.000000
0.424484 0.000000 0.000000
0.446901 0.000000 0.000000
0.474735 0.000000 0.000000
0.500209 0.000000 0.000000
0.518112 0.000000 0.000000
0.532991 0.000000 0.000000
0.544510 0.000000 0.000000
0.553826 0.000000 0.000000
0.560427 0.000000 0.000000
0.565611 0.000000 0.001979
0.568742 0.000000 0.047775
0.571450 0.000000 0.080989
0.574291 0.000000 0.105032
0.577133 0.000000 0.128416
0.580230 0.000000 0.154914
0.582899 0.000000 0.181871
0.584004 0.000000 0.209632
0.584469 0.000000 0.239630
0.584583 0.000000 0.248614
0.000000 0.156198 0.056531
0.000000 0.154883 0.056569
0.000000 0.153200 0.056617
0.000000 0.149281 0.056636
0.000000 0.142711 0.056075
0.052594 0.144877 0.051943
0.139618 0.148814 0.041966
0.202647 0.146949 0.019980
0.257712 0.140833 0.000000
0.306006 0.134553 0.000000
0.353611 0.121996 0.000000
0.401891 0.101203 0.000000
0.439940 0.055696 0.000000
0.467218 0.008209 0.000000
0.475941 0.000000 0.000000
0.481184 0.000000 0.000000
0.496060 0.000000 0.000000
0.515403 0.000000 0.000000
0.532408 0.000000 0.000000
0.544267 0.000000 0.000000
0.553687 0.000000 0.000000
0.560365 0.000000 0.000000
0.565593 0.000000 0.002089
0.568733 0.000000 0.048948
0.571442 0.000000 0.081520
0.574288 0.000000 0.105456
0.577130 0.000000 0.128776
0.580229 0.000000 0.155246
0.582900 0.000000 0.182125
0.584007 0.000000 0.209846
0.584471 0.000000 0.239822
0.584585 0.000000 0.248802
0.000000 0.191821 0.053685
0.000000 0.190877 0.053795
0.000000 0.189698 0.053932
0.000000 0.187713 0.054158
0.000000 0.181577 0.054683
0.003631 0.179083 0.052035
0.100727 0.189170 0.037304
0.184267 0.192690 0.008296
0.252163 0.188155 0.000000
0.309019 0.175319 0.000000
0.360706 0.165633 0.000000
0.413791 0.150187 0.000000
0.458488 0.128388 0.000000
0.498860 0.090196 0.000000
0.525188 0.022328 0.000000
0.534373 0.000000 0.000000
0.531975 0.000000 0.000000
0.521032 0.000000 0.000000
0.528417 0.000000 0.000000
0.543735 0.000000 0.000000
0.553509 0.000000 0.000000
0.560286 0.000000 0.000000
0.565569 0.000000 0.002217
0.568722 0.000000 0.050327
0.571435 0.000000 0.082184
0.574284 0.000000 0.105978
0.577128 0.000000 0.129202
0.580227 0.000000 0.155642
0.582901 0.000000 0.182434
0.584011 0.000000 0.210114
0.584473 0.000000 0.240052
0.584587 0.000000 0.249021
0.000000 0.221119 0.046301
0.000000 0.220368 0.046522
0.000000 0.219438 0.046795
0.000000 0.218298 0.047131
0.000000 0.215037 0.048007
0.000000 0.207540 0.048616
0.023431 0.219330 0.030163
0.147408 0.231065 0.001753
0.234274 0.234632 0.000000
0.304544 0.228578 0.000000
0.363546 0.214698 0.000000
0.421168 0.202112 0.000000
0.470719 0.185122 0.000000
0.513769 0.161525 0.000000
0.548522 0.129415 0.000000
0.572385 0.072170 0.000000
0.582943 0.015419 0.000000
0.579401 0.000000 0.000000
0.559549 0.000000 0.000000
0.547502 0.000000 0.000000
0.552534 0.000000 0.000000
0.560195 0.000000 0.000000
0.565535 0.000000 0.002374
0.568705 0.000000 0.052034
0.571426 0.000000 0.082971
0.574281 0.000000 0.106613
0.577125 0.000000 0.129733
0.580227 0.000000 0.156131
0.582905 0.000000 0.182824
0.584017 0.000000 0.210457
0.584477 0.000000 0.240337
0.584590 0.000000 0.249285
0.000000 0.249541 0.030160
0.000000 0.248872 0.030649
0.000000 0.248033 0.031262
0.000000 0.247029 0.031995
0.000000 0.245598 0.033031
0.000000 0.239399 0.037439
0.000588 0.241265 0.023238
0.078055 0.264679 0.000103
0.202489 0.274329 0.000000
0.287722 0.276616 0.000000
0.357910 0.267015 0.000000
0.420443 0.248421 0.000000
0.475266 0.232965 0.000000
0.522703 0.216513 0.000000
0.563314 0.194086 0.000000
0.592545 0.164554 0.000000
0.615818 0.120559 0.000000
0.628610 0.047981 0.000000
0.623774 0.001053 0.000000
0.605260 0.000000 0.000000
0.564737 0.000000 0.000000
0.558644 0.000000 0.000000
0.565490 0.000000 0.004621
0.568688 0.000000 0.054036
0.571413 0.000000 0.083948
0.574274 0.000000 0.107377
0.577121 0.000000 0.130424
0.580224 0.000000 0.156721
0.582907 0.000000 0.183272
0.584026 0.000000 0.210869
0.584481 0.000000 0.240692
0.584594 0.000000 0.249617
0.000000 0.275364 0.003850
0.000000 0.274863 0.004241
0.000000 0.274254 0.004722
0.000000 0.273510 0.005307
0.000000 0.272594 0.006032
0.000000 0.270773 0.007888
0.000000 0.266086 0.008073
0.000000 0.287841 0.000124
0.116274 0.311725 0.000000
0.257370 0.320888 0.000000
0.341092 0.320134 0.000000
0.412574 0.307822 0.000000
0.474765 0.285553 0.000000
0.526395 0.266553 0.000000
0.572733 0.246549 0.000000
0.606196 0.222357 0.000000
0.634292 0.192144 0.000000
0.653728 0.153186 0.000000
0.666840 0.086473 0.000000
0.663417 0.028073 0.000000
0.644814 0.000305 0.000000
0.601859 0.000000 0.000000
0.566630 0.000000 0.004603
0.568579 0.000000 0.055981
0.571399 0.000000 0.085133
0.574266 0.000000 0.108310
0.577117 0.000000 0.131285
0.580223 0.000000 0.157461
0.582909 0.000000 0.183847
0.584035 0.000000 0.211356
0.584487 0.000000 0.241121
0.584599 0.000000 0.250027
0.000000 0.298278 0.000000
0.000000 0.297847 0.000000
0.000000 0.297318 0.000000
0.000000 0.296673 0.000000
0.000000 0.295896 0.000000
0.000000 0.294896 0.000000
0.000000 0.291931 0.000000
0.000000 0.294731 0.000000
0.030140 0.334772 0.000000
0.202318 0.357531 0.000000
0.313051 0.363702 0.000000
0.393842 0.361425 0.000000
0.467941 0.345156 0.000000
0.526914 0.320292 0.000000
0.578496 0.299941 0.000000
0.618279 0.280513 0.000000
0.651108 0.255133 0.000000
0.674539 0.223963 0.000000
0.690602 0.187811 0.000000
0.698627 0.140093 0.000000
0.699348 0.061500 0.000000
0.679706 0.004072 0.000000
0.637543 0.000000 0.000000
0.579294 0.000000 0.037978
0.571341 0.000000 0.086418
0.574255 0.000000 0.109432
0.577111 0.000000 0.132322
0.580221 0.000000 0.158332
0.582910 0.000000 0.184531
0.584045 0.000000 0.211976
0.584494 0.000000 0.241630
0.584605 0.000000 0.250503
0.000000 0.319749 0.000000
0.000000 0.319438 0.000000
0.000000 0.319048 0.000000
0.000000 0.318569 0.000000
0.000000 0.317963 0.000000
0.000000 0.317148 0.000000
0.000000 0.315946 0.000000
0.000000 0.311492 0.000000
0.000000 0.336782 0.000000
0.057070 0.383402 0.000000
0.259090 0.401662 0.000000
0.364189 0.406110 0.000000
0.447732 0.401358 0.000000
0.519751 0.383990 0.000000
0.579316 0.356496 0.000000
0.625649 0.334091 0.000000
0.664647 0.313278 0.000000
0.693595 0.287904 0.000000
0.712908 0.258041 0.000000
0.724234 0.223211 0.000000
0.727721 0.182601 0.000000
0.723722 0.117122 0.000000
0.708171 0.044450 0.000000
0.669251 0.000000 0.004528
0.604166 0.000000 0.070499
0.573795 0.000000 0.109277
0.577103 0.000000 0.133611
0.580216 0.000000 0.159422
0.582915 0.000000 0.185366
0.584057 0.000000 0.212717
0.584503 0.000000 0.242271
0.584615 0.000000 0.251106
0.000000 0.338263 0.000000
0.000000 0.337997 0.000000
0.000000 0.337660 0.000000
0.000000 0.337200 0.000000
0.000000 0.336611 0.000000
0.000000 0.335859 0.000000
0.000000 0.334902 0.000000
0.000000 0.333753 0.000000
0.000000 0.335974 0.000000
0.000000 0.385365 0.000000
0.138375 0.427403 0.000000
0.315620 0.443069 0.000000
0.415904 0.447560 0.000000
0.501607 0.443944 0.000000
0.574634 0.425205 0.000000
0.630839 0.398138 0.000000
0.676014 0.374314 0.000000
0.710204 0.351485 0.000000
0.733435 0.324826 0.000000
0.747774 0.294272 0.000000
0.753705 0.260863 0.000000
0.752910 0.223823 0.000000
0.747186 0.182718 0.000000
0.734694 0.105507 0.000000
0.704106 0.014851 0.040265
0.615097 0.000233 0.096789
0.579336 0.000000 0.133906
0.580212 0.000000 0.160709
0.582916 0.000000 0.186362
0.584071 0.000000 0.213615
0.584512 0.000000 0.243032
0.584623 0.000000 0.251820
0.000000 0.353528 0.000000
0.000000 0.353286 0.000000
0.000000 0.352987 0.000000
0.000000 0.352621 0.000000
0.000000 0.352175 0.000000
0.000000 0.351620 0.000000
0.000000 0.350948 0.000000
0.000000 0.350182 0.000000
0.000000 0.348799 0.000000
0.000000 0.355906 0.000000
0.023325 0.428259 0.000000
0.225584 0.469720 0.000000
0.363037 0.483981 0.000000
0.469566 0.489847 0.000000
0.554985 0.486435 0.000000
0.628581 0.470594 0.000000
0.683824 0.443362 0.000000
0.724638 0.417024 0.000000
0.753232 0.393239 0.000000
0.771405 0.365378 0.000000
0.780614 0.334999 0.000000
0.781996 0.302845 0.000000
0.778648 0.268788 0.000000
0.769969 0.230909 0.000000
0.757052 0.176446 0.011025
0.731072 0.086479 0.086343
0.658428 0.000000 0.133078
0.586870 0.000000 0.161535
0.582919 0.000000 0.187592
0.584091 0.000000 0.214715
0.584522 0.000000 0.243959
0.584633 0.000000 0.252702
0.000000 0.365116 0.000000
0.000000 0.364933 0.000000
0.000000 0.364714 0.000000
0.000000 0.364447 0.000000
0.000000 0.364139 0.000000
0.000000 0.363752 0.000000
0.000000 0.363350 0.000000
0.000000 0.362897 0.000000
0.000000 0.362376 0.000000
0.000000 0.361823 0.000000
0.000000 0.393759 0.000000
0.035658 0.472021 0.000000
0.272924 0.507220 0.000000
0.415506 0.525583 0.000000
0.521586 0.532923 0.000000
0.612909 0.532066 0.000000
0.683087 0.516630 0.000000
0.735540 0.488445 0.000000
0.770298 0.461381 0.000000
0.793057 0.436627 0.000000
0.806173 0.409218 0.000000
0.810689 0.380109 0.000000
0.810324 0.350357 0.000000
0.804511 0.319363 0.000000
0.795189 0.283612 0.002637
0.781248 0.235694 0.065068
0.759040 0.143763 0.137649
0.688789 0.024020 0.174017
0.596930 0.000000 0.191716
0.584114 0.000000 0.216071
0.584538 0.000000 0.245101
0.584646 0.000000 0.253766
0.000000 0.374857 0.000000
0.000000 0.374749 0.000000
0.000000 0.374615 0.000000
0.000000 0.374453 0.000000
0.000000 0.374264 0.000000
0.000000 0.374085 0.000000
0.000000 0.373902 0.000000
0.000000 0.373682 0.000000
0.000000 0.373396 0.000000
0.000000 0.372993 0.000000
0.000000 0.374840 0.000000
0.000681 0.428886 0.000000
0.108305 0.508261 0.000000
0.329295 0.545198 0.000000
0.469107 0.566444 0.000000
0.582417 0.578116 0.000000
0.667701 0.577645 0.000000
0.736981 0.561456 0.000000
0.782057 0.531983 0.000000
0.809228 0.504573 0.000000
0.828125 0.481803 0.000000
0.836923 0.457309 0.000000
0.839916 0.431600 0.000000
0.837515 0.404136 0.000000
0.831258 0.374063 0.001070
0.821725 0.337948 0.027504
0.807297 0.290850 0.123033
0.784077 0.211146 0.186737
0.721092 0.075988 0.221775
0.593006 0.000000 0.220077
0.584555 0.000000 0.246481
0.584664 0.000000 0.255065
0.000000 0.382380 0.000000
0.000000 0.382326 0.000000
0.000000 0.382289 0.000000
0.000000 0.382237 0.000000
0.000000 0.382151 0.000000
0.000000 0.382039 0.000000
0.000000 0.381907 0.000000
0.000000 0.381732 0.000000
0.000000 0.381545 0.000000
0.000000 0.381321 0.000000
0.000000 0.381082 0.000000
0.000000 0.381706 0.000000
0.000000 0.463547 0.000000
0.157678 0.544364 0.000000
0.384766 0.583648 0.000000
0.528879 0.608865 0.000000
0.640083 0.620984 0.000000
0.724436 0.620798 0.000000
0.785843 0.606075 0.000000
0.821622 0.577251 0.000000
0.844775 0.551254 0.000000
0.857537 0.530477 0.000000
0.864224 0.508697 0.000000
0.865416 0.485644 0.000000
0.862591 0.460629 0.000000
0.857314 0.431997 0.007469
0.848448 0.396546 0.100457
0.834343 0.349687 0.182985
0.809412 0.274679 0.239070
0.750387 0.087706 0.270369
0.612239 0.000000 0.257766
0.584437 0.000000 0.255662
0.000000 0.388537 0.000000
0.000000 0.388486 0.000000
0.000000 0.388433 0.000000
0.000000 0.388389 0.000000
0.000000 0.388321 0.000000
0.000000 0.388240 0.000000
0.000000 0.388155 0.000000
0.000000 0.388060 0.000000
0.000000 0.387967 0.000000
0.000000 0.387865 0.000000
0.000000 0.387775 0.000000
0.000000 0.387726 0.000000
0.000000 0.392513 0.000000
0.004279 0.498402 0.000000
0.211772 0.576749 0.000000
0.449255 0.619998 0.000000
0.593879 0.647008 0.000000
0.697714 0.657965 0.000000
0.775330 0.658208 0.000000
0.826674 0.644822 0.000000
0.857657 0.621538 0.000000
0.874555 0.600340 0.000000
0.884434 0.582749 0.000000
0.888623 0.563569 0.000000
0.888623 0.543069 0.000000
0.886426 0.520177 0.003205
0.881941 0.492807 0.062538
0.874049 0.458623 0.173167
0.860240 0.411580 0.240565
0.832586 0.333430 0.289474
0.773473 0.178370 0.319148
0.745304 0.122700 0.321870
0.000000 0.393322 0.000000
0.000000 0.393296 0.000000
0.000000 0.393269 0.000000
0.000000 0.393238 0.000000
0.000000 0.393206 0.000000
0.000000 0.393172 0.000000
0.000000 0.393139 0.000000
0.000000 0.393115 0.000000
0.000000 0.393095 0.000264
0.000000 0.393107 0.003487
0.000000 0.393152 0.008457
0.000000 0.393279 0.017634
0.000000 0.393523 0.042747
0.000000 0.402177 0.037915
0.040249 0.524213 0.000042
0.302361 0.606838 0.000000
0.511164 0.651960 0.000000
0.650657 0.676386 0.000000
0.750801 0.686869 0.000000
0.816936 0.687595 0.000000
0.861548 0.677909 0.000000
0.885399 0.659596 0.000000
0.898432 0.642428 0.000000
0.905894 0.629149 0.000000
0.909310 0.615217 0.000000
0.909731 0.598977 0.000000
0.908327 0.579881 0.053276
0.904311 0.555281 0.164269
0.896516 0.522872 0.238271
0.881017 0.474225 0.293966
0.853459 0.394709 0.339161
0.842496 0.363560 0.351539
0.000000 0.397486 0.000000
0.000000 0.397496 0.000000
0.000000 0.397507 0.000000
0.000000 0.397521 0.000000
0.000000 0.397535 0.000000
0.000000 0.397550 0.000000
0.000000 0.397590 0.007549
0.000000 0.397641 0.018057
0.000000 0.397694 0.029170
0.000000 0.397846 0.041443
0.000000 0.398087 0.055703
0.000000 0.398395 0.071142
0.000000 0.399013 0.083342
0.000000 0.399794 0.095556
0.000000 0.425355 0.039352
0.058939 0.559997 0.000000
0.377376 0.636316 0.000000
0.575849 0.680773 0.000000
0.707613 0.702267 0.000000
0.795238 0.711370 0.000000
0.853468 0.713389 0.000000
0.889457 0.706747 0.000000
0.908709 0.694284 0.000000
0.917979 0.681448 0.000000
0.924507 0.672419 0.000000
0.927334 0.662067 0.001544
0.928716 0.650722 0.048789
0.928030 0.636085 0.156121
0.924443 0.616751 0.239130
0.915070 0.587357 0.296805
0.899624 0.541233 0.345729
0.893961 0.523688 0.359927
0.000000 0.401754 0.043072
0.000000 0.401793 0.045934
0.000000 0.401839 0.049341
0.000000 0.401894 0.053327
0.000000 0.401959 0.058005
0.000000 0.402039 0.063408
0.000000 0.402197 0.068449
0.000000 0.402424 0.073793
0.000000 0.402685 0.080049
0.000000 0.402980 0.087303
0.000000 0.403436 0.094440
0.000000 0.404007 0.102155
0.000000 0.404693 0.110739
0.000000 0.405597 0.120093
0.000000 0.406909 0.131261
0.000000 0.451754 0.064017
0.109886 0.582963 0.003768
0.441625 0.662317 0.000000
0.633280 0.703100 0.000000
0.755425 0.722263 0.000000
0.833656 0.731413 0.000000
0.880515 0.733624 0.000000
0.910797 0.729797 0.000000
0.925017 0.721910 0.000000
0.933863 0.715702 0.000000
0.939472 0.709949 0.000000
0.943097 0.703679 0.036330
0.944656 0.695133 0.170886
0.944026 0.684524 0.250441
0.938603 0.669274 0.307519
0.929101 0.645078 0.352917
0.925650 0.635659 0.366752
0.000000 0.406792 0.097595
0.000000 0.406873 0.098702
0.000000 0.406969 0.100013
0.000000 0.407088 0.101607
0.000000 0.407230 0.103511
0.000000 0.407397 0.105794
0.000000 0.407595 0.108518
0.000000 0.407851 0.111667
0.000000 0.408203 0.115235
0.000000 0.408622 0.119412
0.000000 0.409119 0.124380
0.000000 0.409682 0.130044
0.000000 0.410650 0.137391
0.000000 0.411818 0.146030
0.000000 0.413353 0.156673
0.000000 0.415312 0.169114
0.000000 0.473986 0.093294
0.145089 0.615556 0.004366
0.515807 0.690594 0.000000
0.691114 0.724151 0.000000
0.799795 0.740868 0.000000
0.862951 0.748867 0.000000
0.903373 0.752275 0.000000
0.926837 0.751815 0.000000
0.939292 0.748937 0.000000
0.946975 0.745509 0.002151
0.952535 0.743014 0.097387
0.956173 0.739815 0.200002
0.957918 0.736060 0.270062
0.955303 0.729199 0.323528
0.949331 0.717845 0.366340
0.947273 0.713574 0.378755
0.000000 0.412201 0.131681
0.000000 0.412307 0.132508
0.000000 0.412434 0.133501
0.000000 0.412588 0.134700
0.000000 0.412774 0.136145
0.000000 0.413001 0.137919
0.000000 0.413274 0.140052
0.000000 0.413601 0.142612
0.000000 0.414002 0.145719
0.000000 0.414529 0.149541
0.000000 0.415236 0.154360
0.000000 0.416102 0.160009
0.000000 0.417145 0.166824
0.000000 0.418416 0.174795
0.000000 0.419983 0.184104
0.000000 0.421776 0.194496
0.000000 0.423849 0.205956
0.012679 0.496703 0.143004
0.271196 0.644224 0.010051
0.577767 0.713064 0.000000
0.744352 0.743579 0.000000
0.832806 0.757289 0.000000
0.886953 0.764668 0.000000
0.919272 0.768916 0.000000
0.939153 0.771551 0.000000
0.950637 0.772571 0.036400
0.957503 0.772824 0.165234
0.962647 0.771986 0.238457
0.965970 0.771120 0.297638
0.965342 0.769032 0.346723
0.961519 0.765003 0.385230
0.960239 0.763465 0.396659
0.000000 0.418430 0.165328
0.000000 0.418541 0.166075
0.000000 0.418684 0.167003
0.000000 0.418870 0.168136
0.000000 0.419091 0.169486
0.000000 0.419368 0.171162
0.000000 0.419696 0.173138
0.000000 0.420094 0.175533
0.000000 0.420572 0.178401
0.000000 0.421134 0.181785
0.000000 0.421809 0.185875
0.000000 0.422621 0.190623
0.000000 0.423640 0.196328
0.000000 0.424804 0.202779
0.000000 0.426107 0.210002
0.000000 0.427722 0.218359
0.000000 0.429526 0.227554
0.000000 0.431568 0.237833
0.000000 0.526257 0.179530
0.353461 0.673861 0.037340
0.648342 0.737158 0.001225
0.785848 0.761169 0.000000
0.862698 0.774160 0.000000
0.905304 0.781409 0.000000
0.932325 0.786493 0.000354
0.949730 0.790507 0.031190
0.959308 0.794617 0.197147
0.965615 0.796960 0.279981
0.970640 0.798451 0.330382
0.971567 0.798711 0.374151
0.968909 0.798097 0.408299
0.968012 0.797751 0.418617
0.000000 0.425938 0.200898
0.000000 0.426044 0.201492
0.000000 0.426166 0.202192
0.000000 0.426317 0.203053
0.000000 0.426494 0.204062
0.000000 0.426720 0.205321
0.000000 0.426989 0.206823
0.000000 0.427312 0.208607
0.000000 0.427713 0.210771
0.000000 0.428219 0.213402
0.000000 0.428817 0.216515
0.000000 0.429503 0.220089
0.000000 0.430318 0.224326
0.000000 0.431279 0.229215
0.000000 0.432402 0.234909
0.000000 0.433747 0.241573
0.000000 0.435344 0.249386
0.000000 0.437232 0.258548
0.000000 0.439453 0.269188
0.042354 0.543278 0.218300
0.440278 0.707733 0.108090
0.700141 0.758007 0.020446
0.823802 0.779975 0.000783
0.883943 0.790987 0.013608
0.920456 0.798211 0.026663
0.942465 0.803542 0.066405
0.957674 0.809325 0.204910
0.965826 0.814564 0.304763
0.971580 0.817566 0.367594
0.974339 0.819546 0.405814
0.972472 0.820779 0.435094
0.971783 0.821043 0.443993
0.000000 0.433122 0.232606
0.000000 0.433209 0.233040
0.000000 0.433317 0.233569
0.000000 0.433445 0.234201
0.000000 0.433597 0.234958
0.000000 0.433789 0.235905
0.000000 0.434016 0.237034
0.000000 0.434293 0.238406
0.000000 0.434620 0.240022
0.000000 0.435013 0.241973
0.000000 0.435493 0.244344
0.000000 0.436056 0.247137
0.000000 0.436764 0.250580
0.000000 0.437618 0.254677
0.000000 0.438652 0.259626
0.000000 0.439874 0.265450
0.000000 0.441318 0.272331
0.000000 0.443064 0.280477
0.000000 0.445075 0.289803
0.000000 0.447447 0.300618
0.000000 0.577995 0.267001
0.485463 0.730832 0.190634
0.754161 0.779692 0.120451
0.851088 0.797293 0.117848
0.902509 0.807121 0.138133
0.931077 0.813969 0.187784
0.950434 0.820217 0.243644
0.963888 0.826860 0.312005
0.971198 0.832691 0.389083
0.975137 0.836193 0.439657
0.973593 0.837813 0.465969
0.972993 0.838267 0.474025
0.000000 0.440265 0.262221
0.000000 0.440340 0.262577
0.000000 0.440430 0.263006
0.000000 0.440537 0.263520
0.000000 0.440673 0.264162
0.000000 0.440835 0.264931
0.000000 0.441037 0.265895
0.000000 0.441276 0.267029
0.000000 0.441572 0.268437
0.000000 0.441923 0.270110
0.000000 0.442365 0.272192
0.000000 0.442894 0.274643
0.000000 0.443540 0.277635
0.000000 0.444303 0.281168
0.000000 0.445217 0.285411
0.000000 0.446297 0.290390
0.000000 0.447579 0.296293
0.000000 0.449147 0.303326
0.000000 0.450998 0.311510
0.000000 0.453222 0.321264
0.000000 0.455817 0.332598
0.051056 0.595691 0.314081
