apps/lut-action/luts/GR_RED.cube
TITLE "Generated by Resolve"
LUT_3D_SIZE 9
0.00683604 0.0144656 0.0178683
0.0684367 0 0.00917067
0.365759 0 0
0.581521 0 0
0.702098 0 0
0.74934 0 0
0.785931 0 0.144915
0.816907 0 0.228351
0.835569 0 0.269383
0 0.0491035 0.0125277
0.0702068 0.050309 0
0.357534 0 0
0.578347 0 0
0.708919 0 0
0.745876 0 0
0.771572 0 0
0.810071 0 0.210117
0.832944 0 0.262043
0 0.19144 0
0 0.209049 0
0.419501 0.218326 0
0.720623 0.212573 0
0.874418 0.159167 0
0.882567 0 0
0.834424 0 0
0.766033 0 0
0.783078 0 0
0 0.362951 0
0 0.394247 0
0.456397 0.468894 0
0.878279 0.506355 0
1 0.5037 0
1 0.498619 0
1 0.496071 0
1 0.484779 0
1 0.457267 0
0 0.543145 0
0 0.582162 0
0.433951 0.695384 0
0.895247 0.744976 0
1 0.758221 0
1 0.766049 0
1 0.774853 0
1 0.782269 0
1 0.780621 0
0 0.673884 0
0 0.707225 0
0.404044 0.823697 0
0.887114 0.857466 0
1 0.866575 0
1 0.872236 0
1 0.873854 0
1 0.874891 0
1 0.875029 0
0 0.734417 0
0 0.758862 0
0.400076 0.868498 0
0.897017 0.893645 0
1 0.89865 0
1 0.90074 0
1 0.901686 0
1 0.902144 0
1 0.902312 0
0 0.759106 0
0 0.770031 0
0.43061 0.887785 0
0.926284 0.907225 0
1 0.909438 0
1 0.911269 0
1 0.912108 0
1 0.912703 0
1 0.912871 0
0 0.767803 0
0 0.77847 0
0.452232 0.89543 0
0.936065 0.912505 0
1 0.91368 0
1 0.914656 0
1 0.915251 0
1 0.915648 0
1 0.91574 0
0 0.0159152 0.0557107
0.05243 0.0104067 0.0555581
0.347341 0 0
0.577829 0 0
0.71075 0 0
0.775982 0 0.150729
0.811154 0 0.223102
0.838682 0 0.278737
0.852338 0 0.309499
0 0.0535897 0.0657969
0.0211185 0.0558938 0.0576944
0.322286 0 0
0.585794 0 0
0.70454 0 0
0.749905 0 0
0.789349 0 0.153155
0.824857 0 0.245869
0.843992 0 0.288045
0 0.199893 0.0476081
0 0.220706 0
0.386038 0.234257 0
0.709712 0.202731 0
0.859037 0.126085 0
0.867308 0 0
0.818326 0 0
0.771679 0 0
0.786557 0 0.0763561
0 0.376028 0
0 0.407523 0
0.354299 0.501366 0
0.840894 0.522972 0
1 0.521111 0
1 0.514595 0
1 0.513466 0
1 0.503914 0
1 0.483192 0
0 0.557763 0
0 0.591073 0
0.201709 0.702037 0
0.843046 0.757275 0
1 0.770611 0
1 0.775906 0
1 0.783871 0
1 0.79147 0
1 0.793301 0
0 0.688533 0
0 0.709148 0
0 0.817853 0
0.826535 0.861265 0
1 0.872145 0
1 0.875898 0
1 0.877958 0
1 0.879118 0
1 0.879652 0
0 0.744427 0
0 0.753887 0
0 0.855116 0
0.839994 0.895918 0
1 0.90103 0
1 0.902968 0
1 0.904372 0
1 0.904921 0
1 0.905074 0
0 0.769421 0
0 0.772656 0
0 0.872541 0
0.878111 0.908812 0
1 0.911254 0
1 0.912673 0
1 0.913344 0
1 0.913893 0
1 0.914122 0
0 0.781491 0
0 0.783368 0
0 0.874281 0
0.902571 0.91339 0
1 0.914992 0
1 0.915816 0
1 0.916487 0
1 0.916808 0
1 0.916915 0
0 0.0243229 0.192432
0.0083772 0.0231632 0.201404
0.329 0 0.250446
0.616556 0 0.280735
0.780163 0 0.304891
0.843732 0 0.332708
0.867872 0 0.367132
0.882292 0 0.403784
0.887633 0 0.421439
0 0.0701762 0.221241
0 0.0723888 0.219974
0.258793 0 0.215335
0.598077 0 0.242527
0.759472 0 0.253208
0.827771 0 0.290272
0.854826 0 0.328161
0.873335 0 0.37145
0.881331 0 0.394476
0 0.229511 0.282612
0 0.24123 0.281025
0.179843 0.233051 0.22977
0.62472 0.167941 0.155062
0.740993 0 0
0.754513 0 0
0.786145 0 0.0968643
0.832609 0 0.25861
0.857954 0 0.319585
0 0.422827 0.311101
0 0.442527 0.297353
0 0.511635 0.167224
0.758633 0.539956 0
1 0.523095 0
1 0.494652 0
1 0.487175 0
1 0.469612 0
1 0.446799 0
0 0.613108 0.327352
0 0.635859 0.302327
0 0.692699 0
0.751919 0.799313 0
1 0.796628 0
1 0.796277 0
1 0.801129 0
1 0.806332 0
1 0.807324 0
0 0.734524 0.332448
0 0.751156 0.300465
0 0.766079 0
0.695262 0.876905 0
1 0.883436 0
1 0.885435 0
1 0.886427 0
1 0.887663 0
1 0.888182 0
0 0.786419 0.343847
0 0.795178 0.316503
0 0.796582 0.131319
0.719265 0.901473 0
1 0.906508 0
1 0.907683 0
1 0.908537 0
1 0.90988 0
1 0.909697 0
0 0.811078 0.375647
0 0.815824 0.358633
0 0.817411 0.285512
0.766522 0.911833 0
1 0.915663 0
1 0.916274 0
1 0.918242 0
1 0.922087 0
1 0.921584 0
0 0.820966 0.393484
0 0.82504 0.387915
0 0.826383 0.352468
0.80914 0.915541 0
1 0.919005 0
1 0.919448 0
1 0.923873 0
1 0.937179 0.0816815
1 0.944274 0.326726
0 0.0287022 0.36672
0 0.0250553 0.386526
0.331838 0 0.44419
0.633585 0 0.472099
0.817731 0 0.482536
0.879652 0 0.496712
0.897093 0 0.519738
0.904463 0 0.548318
0.906584 0 0.557656
0 0.0825513 0.401251
0 0.0884718 0.413458
0.208057 0.0336461 0.417548
0.59028 0 0.455619
0.809995 0 0.469139
0.877363 0 0.478355
0.895033 0 0.497459
0.902815 0 0.525597
0.905699 0 0.537499
0 0.257084 0.495476
0 0.26685 0.500557
0 0.25449 0.476905
0.563424 0.199573 0.46392
0.816831 0 0.427314
0.879637 0 0.449134
0.893431 0 0.469657
0.90135 0 0.501106
0.904585 0 0.518013
0 0.475929 0.555077
0 0.49456 0.555566
0 0.540902 0.574441
0.544747 0.539315 0.499641
0.918456 0.475059 0.431983
0.993637 0.354253 0.31986
0.971206 0.231769 0.251881
0.952728 0.159854 0.32462
0.98822 0.191638 0.381506
0 0.662684 0.584237
0 0.684611 0.576486
0 0.72462 0.571862
0.212467 0.806485 0.418616
0.938201 0.796963 0.196124
1 0.787335 0
1 0.792386 0
1 0.794995 0
1 0.796979 0
0 0.768414 0.592782
0 0.783368 0.584634
0 0.803571 0.576608
0 0.823667 0.363806
0.97081 0.90016 0
1 0.895323 0
1 0.896971 0
1 0.89955 0.0839399
1 0.901061 0.297673
0 0.811261 0.604303
0 0.820264 0.598703
0 0.831174 0.598383
0 0.843778 0.410529
0.956329 0.923156 0
1 0.927275 0
1 0.932754 0.358572
1 0.939055 0.520699
1 0.945083 0.634897
0 0.832227 0.629999
0 0.836454 0.629023
0 0.842542 0.643412
0 0.875746 0.520958
0.927398 0.947188 0.380728
0.977691 0.95349 0.559884
0.990265 0.956436 0.657359
0.994842 0.957641 0.725902
0.996674 0.957946 0.758419
0 0.838636 0.63949
0 0.842573 0.644999
0 0.846754 0.673167
0 0.904326 0.556939
0.914336 0.96202 0.613153
0.971862 0.962493 0.689143
0.985321 0.963058 0.751858
0.992309 0.963973 0.79353
0.994293 0.963989 0.807889
0 0.0213016 0.521218
0 0.0193942 0.54464
0.324926 0 0.597803
0.639399 0 0.635843
0.826383 0 0.64213
0.888914 0 0.647089
0.904585 0 0.658991
0.911528 0 0.677516
0.913481 0 0.680919
0 0.0897841 0.556817
0 0.0939651 0.571344
0.161318 0.0594339 0.593149
0.573648 0 0.624826
0.81706 0 0.647883
0.888716 0 0.649088
0.905303 0 0.656321
0.911879 0 0.672236
0.913893 0 0.677943
0 0.26099 0.653864
0 0.271931 0.663035
0 0.268437 0.668956
0.518013 0.225238 0.675212
0.8094 0 0.647517
0.895277 0 0.663859
0.908675 0 0.665888
0.913832 0 0.679408
0.915648 0 0.687144
0 0.502831 0.738705
0 0.522545 0.743893
0 0.560235 0.765469
0.430213 0.548989 0.742199
0.869947 0.493675 0.717678
0.978271 0.387167 0.686397
0.989288 0.281468 0.675944
0.990448 0.23592 0.690028
1 0.304006 0.702007
0 0.693523 0.77116
0 0.714565 0.772198
0 0.749325 0.782315
0 0.793545 0.755886
0.837308 0.808179 0.724422
0.982177 0.787717 0.698924
1 0.781308 0.696345
1 0.790509 0.716854
1 0.797406 0.732509
0 0.788083 0.777203
0 0.802136 0.77615
0 0.819791 0.781079
0 0.836469 0.779095
0.792844 0.921843 0.711986
0.964797 0.914076 0.704768
0.990692 0.9122 0.735286
0.999451 0.912459 0.751156
1 0.913451 0.764019
0 0.825833 0.782544
0 0.833326 0.78233
0 0.842435 0.790234
0 0.85391 0.790829
0.810315 0.953002 0.753033
0.956313 0.950225 0.768475
0.983017 0.949172 0.790158
0.990753 0.949432 0.820874
0.993591 0.949432 0.833982
0 0.841398 0.791882
0 0.845762 0.795377
0 0.850767 0.805524
0 0.874144 0.809491
0.853559 0.964263 0.805539
0.957443 0.96228 0.825833
0.979599 0.961532 0.845045
0.988525 0.961563 0.862623
0.991608 0.961395 0.870069
0 0.847074 0.79382
0 0.850568 0.800473
0 0.85359 0.81442
0 0.890135 0.816632
0.880964 0.968521 0.831312
0.960189 0.966644 0.852033
0.978653 0.966186 0.867704
0.988022 0.966827 0.882017
0.990631 0.966598 0.886503
0 0.0348669 0.63505
0 0.0423285 0.656504
0.29015 0 0.700328
0.632136 0 0.736492
0.830671 0 0.747082
0.894224 0 0.747082
0.910063 0 0.748348
0.916793 0 0.754971
0.918791 0 0.756374
0 0.0936446 0.666499
0 0.0966354 0.681453
0.16199 0.0764782 0.713344
0.55758 0 0.734142
0.816022 0 0.754971
0.892989 0 0.754711
0.911238 0 0.755657
0.917769 0 0.760052
0.919646 0 0.760937
0 0.254673 0.746456
0 0.262669 0.754803
0 0.27779 0.78027
0.488182 0.244831 0.799512
0.795666 0 0.773571
0.898909 0 0.771984
0.914855 0 0.769329
0.919905 0 0.771176
0.921553 0 0.772473
0 0.505165 0.825437
0 0.525246 0.832181
0 0.565835 0.846311
0.332311 0.556313 0.860182
0.839338 0.510079 0.851484
0.967102 0.411704 0.832258
0.988678 0.326146 0.820218
0.992477 0.279576 0.817151
1 0.342077 0.826734
0 0.703441 0.854932
0 0.725109 0.858335
0 0.758999 0.865599
0 0.786191 0.871229
0.787411 0.810117 0.869383
0.965438 0.789715 0.856886
0.999008 0.786618 0.851957
1 0.796567 0.854566
1 0.802792 0.856489
0 0.797421 0.859586
0 0.811414 0.861143
0 0.828595 0.865644
0 0.838499 0.868833
0.73904 0.922972 0.865812
0.946395 0.917617 0.859785
0.981979 0.915679 0.861433
0.992889 0.915969 0.865354
0.996597 0.916655 0.868971
0 0.832746 0.85864
0 0.839719 0.860334
0 0.847471 0.864439
0 0.852583 0.866682
0.769696 0.954009 0.872328
0.943297 0.952041 0.874678
0.976547 0.951095 0.880705
0.986175 0.951125 0.890517
0.990021 0.950988 0.892714
0 0.846098 0.86009
0 0.850065 0.861509
0 0.854093 0.865583
0 0.867903 0.870298
0.832273 0.964889 0.886641
0.950103 0.963516 0.892638
0.975418 0.962875 0.900221
0.985641 0.963211 0.90779
0.989059 0.963073 0.911437
0 0.851118 0.85771
0 0.853849 0.860639
0 0.856275 0.866163
0 0.867475 0.871962
0.867704 0.969085 0.894072
0.955367 0.967788 0.901396
0.975616 0.967529 0.90988
0.985779 0.968215 0.916426
0.988785 0.96817 0.918074
0 0.0782788 0.718349
0 0.0916762 0.736538
0.264027 0.064271 0.768948
0.598901 0 0.778363
0.830564 0 0.792538
0.89543 0 0.792889
0.912398 0 0.792386
0.919005 0 0.793194
0.921065 0 0.792676
0 0.100099 0.741009
0 0.106477 0.752621
0.156497 0.109987 0.777111
0.526955 0 0.786831
0.80914 0 0.797833
0.891218 0 0.797864
0.912581 0 0.79762
0.919692 0 0.798566
0.922026 0 0.799527
0 0.251835 0.802289
0 0.259739 0.80972
0 0.283146 0.828077
0.481956 0.255955 0.851392
0.786465 0 0.82443
0.894835 0 0.807874
0.915328 0 0.807202
0.921462 0 0.807141
0.9234 0 0.806882
0 0.480766 0.848981
0 0.5028 0.855787
0 0.54609 0.866728
0.309071 0.561517 0.899992
0.821271 0.522408 0.897841
0.961089 0.432654 0.883726
0.987808 0.350744 0.871839
0.993744 0.315679 0.86659
1 0.356863 0.873915
0 0.701747 0.880186
0 0.724163 0.883299
0 0.759091 0.888182
0 0.771969 0.892119
0.76112 0.814038 0.916671
0.955825 0.796719 0.910491
0.993545 0.793179 0.905241
1 0.803372 0.905165
1 0.809247 0.905211
0 0.799069 0.885664
0 0.813245 0.887587
0 0.830228 0.89044
0 0.838102 0.892012
0.703929 0.922011 0.913649
0.935912 0.918822 0.911742
0.977066 0.916976 0.908919
0.989639 0.918044 0.909651
0.993774 0.91873 0.910048
0 0.835111 0.88603
0 0.842222 0.887297
0 0.849546 0.889326
0 0.852552 0.889433
0.739742 0.953445 0.913329
0.936812 0.952804 0.914504
0.972824 0.952148 0.915999
0.983932 0.952239 0.919676
0.988052 0.952087 0.921126
0 0.848203 0.885161
0 0.851942 0.886213
0 0.855314 0.887434
0 0.863005 0.889647
0.815503 0.964645 0.918425
0.94638 0.963882 0.921477
0.973098 0.963516 0.924651
0.984176 0.964324 0.927749
0.987732 0.964309 0.929412
0 0.852934 0.882872
0 0.855207 0.884367
0 0.857328 0.886366
0 0.85919 0.888701
0.857572 0.969024 0.921767
0.953063 0.9682 0.924849
0.974273 0.968261 0.928405
0.984817 0.969146 0.931853
0.987854 0.969223 0.93283
0 0.124468 0.775982
0.0416876 0.137835 0.789517
0.260609 0.13756 0.814252
0.584207 0 0.814191
0.828855 0 0.812589
0.893751 0 0.812772
0.911925 0 0.812634
0.919326 0 0.813062
0.921721 0 0.812482
0.0457923 0.140261 0.791974
0.0633097 0.149874 0.800778
0.133623 0.165835 0.817761
0.51722 0 0.828046
0.801099 0 0.815061
0.888563 0 0.816098
0.911574 0 0.815854
0.919539 0 0.816114
0.922286 0 0.816434
0 0.251911 0.83505
0 0.257618 0.840162
0 0.274922 0.85211
0.47715 0.248981 0.86978
0.778698 0 0.837018
0.891081 0 0.821622
0.913695 0 0.821546
0.920867 0 0.821759
0.923476 0 0.822263
0 0.460929 0.870237
0 0.480919 0.874189
0 0.520958 0.880583
0.278416 0.561227 0.915251
0.812634 0.524666 0.916136
0.957671 0.435309 0.90341
0.985092 0.347829 0.89102
0.990738 0.304067 0.884657
0.998825 0.321736 0.8878
0 0.692607 0.889509
0 0.715938 0.89192
0 0.752804 0.895903
0 0.772381 0.899992
0.744503 0.816526 0.935439
0.950301 0.801541 0.932876
0.990417 0.798886 0.928588
1 0.807462 0.927321
1 0.813474 0.927184
0 0.796002 0.89543
0 0.811215 0.897032
0 0.828565 0.89926
0 0.836728 0.900435
0.684962 0.921798 0.933745
0.930526 0.920058 0.93489
0.974105 0.918181 0.932067
0.987579 0.91931 0.930724
0.991943 0.919951 0.930373
0 0.834195 0.896513
0 0.842008 0.897993
0 0.849668 0.89929
0 0.852033 0.898741
0.724041 0.953079 0.932326
0.933333 0.953277 0.934508
0.970886 0.952667 0.934173
0.982803 0.952895 0.934829
0.987015 0.952819 0.935058
0 0.848478 0.896651
0 0.85272 0.897597
0 0.855985 0.897932
0 0.861006 0.89839
0.807431 0.964553 0.934432
0.944869 0.964309 0.936339
0.972137 0.964157 0.937896
0.983429 0.965148 0.939834
0.986923 0.965225 0.941054
0 0.854185 0.895979
0 0.855894 0.896025
0 0.857725 0.896132
0 0.859083 0.896666
0.853208 0.969085 0.935943
0.952361 0.968643 0.937407
0.973648 0.968872 0.939986
0.984237 0.969833 0.942596
0.987274 0.969802 0.943145
0.0706951 0.155169 0.805997
0.0958267 0.168612 0.816648
0.240253 0.177356 0.83566
0.574075 0 0.838041
0.821729 0 0.820035
0.890669 0 0.820417
0.91043 0 0.820447
0.918334 0 0.82089
0.921248 0 0.820951
0.0998093 0.170855 0.818418
0.117418 0.180957 0.826383
0.14583 0.197757 0.838651
0.508095 0.131518 0.849699
0.784176 0 0.821622
0.885817 0 0.822873
0.909895 0 0.822889
0.918761 0 0.823606
0.921599 0 0.82356
0.0957656 0.234867 0.846235
0.123522 0.237797 0.850065
0.159167 0.247013 0.857603
0.467964 0.210086 0.868391
0.774548 0 0.827039
0.888884 0 0.826917
0.912276 0 0.82681
0.920424 0 0.827298
0.923018 0 0.827161
0 0.449577 0.884596
0 0.466636 0.888655
0 0.505028 0.894408
0.234089 0.546151 0.920241
0.812177 0.506325 0.922072
0.955428 0.407111 0.908293
0.980911 0.308278 0.894148
0.984649 0.250797 0.886015
0.985382 0.23418 0.882856
0 0.677501 0.891905
0 0.70425 0.894728
0 0.744427 0.898741
0 0.769421 0.901534
0.741711 0.814954 0.942489
0.949813 0.802106 0.941222
0.989792 0.801251 0.937026
1 0.810239 0.936233
1 0.81268 0.935393
0 0.790478 0.899443
0 0.807691 0.901015
0 0.826673 0.902358
0 0.835615 0.903273
0.69485 0.921523 0.941451
0.930861 0.921126 0.943069
0.973587 0.918807 0.9402
0.987274 0.920058 0.93933
0.991577 0.919921 0.938476
0 0.831907 0.900862
0 0.840558 0.901671
0 0.849073 0.90312
0 0.851484 0.902007
0.74374 0.953017 0.940047
0.934661 0.953445 0.941497
0.970871 0.952651 0.940749
0.982849 0.952972 0.941421
0.986847 0.952773 0.941146
0 0.847761 0.901152
0 0.852567 0.901747
0 0.856199 0.902235
0 0.857069 0.901152
0.818616 0.964691 0.942061
0.945846 0.964462 0.943679
0.972045 0.964401 0.944335
0.98352 0.96553 0.946227
0.986831 0.965347 0.946395
0 0.853834 0.90042
0 0.856153 0.900984
0 0.858015 0.90074
0 0.858991 0.900298
0.854383 0.969024 0.942428
0.952422 0.968582 0.943603
0.973495 0.968872 0.945388
0.9841 0.969879 0.947707
0.98706 0.969863 0.94815
