apps/lut-action/luts/GR_RED.cube
TITLE "Generated by Resolve"
LUT_3D_SIZE 5
0.00683604 0.0144656 0.0178683
0.365759 0 0
0.702098 0 0
0.785931 0 0.144915
0.835569 0 0.269383
0 0.19144 0
0.419501 0.218326 0
0.874418 0.159167 0
0.834424 0 0
0.783078 0 0
0 0.543145 0
0.433951 0.695384 0
1 0.758221 0
1 0.774853 0
1 0.780621 0
0 0.734417 0
0.400076 0.868498 0
1 0.89865 0
1 0.901686 0
1 0.902312 0
0 0.767803 0
0.452232 0.89543 0
1 0.91368 0
1 0.915251 0
1 0.91574 0
0 0.0243229 0.192432
0.329 0 0.250446
0.780163 0 0.304891
0.867872 0 0.367132
0.887633 0 0.421439
0 0.229511 0.282612
0.179843 0.233051 0.22977
0.740993 0 0
0.786145 0 0.0968643
0.857954 0 0.319585
0 0.613108 0.327352
0 0.692699 0
1 0.796628 0
1 0.801129 0
1 0.807324 0
0 0.786419 0.343847
0 0.796582 0.131319
1 0.906508 0
1 0.908537 0
1 0.909697 0
0 0.820966 0.393484
0 0.826383 0.352468
1 0.919005 0
1 0.923873 0
1 0.944274 0.326726
0 0.0213016 0.521218
0.324926 0 0.597803
0.826383 0 0.64213
0.904585 0 0.658991
0.913481 0 0.680919
0 0.26099 0.653864
0 0.268437 0.668956
0.8094 0 0.647517
0.908675 0 0.665888
0.915648 0 0.687144
0 0.693523 0.77116
0 0.749325 0.782315
0.837308 0.808179 0.724422
1 0.781308 0.696345
1 0.797406 0.732509
0 0.825833 0.782544
0 0.842435 0.790234
0.810315 0.953002 0.753033
0.983017 0.949172 0.790158
0.993591 0.949432 0.833982
0 0.847074 0.79382
0 0.85359 0.81442
0.880964 0.968521 0.831312
0.978653 0.966186 0.867704
0.990631 0.966598 0.886503
0 0.0782788 0.718349
0.264027 0.064271 0.768948
0.830564 0 0.792538
0.912398 0 0.792386
0.921065 0 0.792676
0 0.251835 0.802289
0 0.283146 0.828077
0.786465 0 0.82443
0.915328 0 0.807202
0.9234 0 0.806882
0 0.701747 0.880186
0 0.759091 0.888182
0.76112 0.814038 0.916671
0.993545 0.793179 0.905241
1 0.809247 0.905211
0 0.835111 0.88603
0 0.849546 0.889326
0.739742 0.953445 0.913329
0.972824 0.952148 0.915999
0.988052 0.952087 0.921126
0 0.852934 0.882872
0 0.857328 0.886366
0.857572 0.969024 0.921767
0.974273 0.968261 0.928405
0.987854 0.969223 0.93283
0.0706951 0.155169 0.805997
0.240253 0.177356 0.83566
0.821729 0 0.820035
0.91043 0 0.820447
0.921248 0 0.820951
0.0957656 0.234867 0.846235
0.159167 0.247013 0.857603
0.774548 0 0.827039
0.912276 0 0.82681
0.923018 0 0.827161
0 0.677501 0.891905
0 0.744427 0.898741
0.741711 0.814954 0.942489
0.989792 0.801251 0.937026
1 0.81268 0.935393
0 0.831907 0.900862
0 0.849073 0.90312
0.74374 0.953017 0.940047
0.970871 0.952651 0.940749
0.986847 0.952773 0.941146
0 0.853834 0.90042
0 0.858015 0.90074
0.854383 0.969024 0.942428
0.973495 0.968872 0.945388
0.98706 0.969863 0.94815
