apps/lut-action/luts/GR_RED.cube
TITLE "Generated by Resolve"
LUT_3D_SIZE 33
0.00683604 0.0144656 0.0178683
0.00596628 0.0137179 0.0175479
0.0173342 0.0141451 0.016968
0.0367742 0.0129244 0.0151064
0.0684367 0 0.00917067
0.119738 0 0
0.188632 0 0
0.272999 0 0
0.365759 0 0
0.451514 0 0
0.505959 0 0
0.54435 0 0
0.581521 0 0
0.617456 0 0
0.651743 0 0
0.680735 0 0
0.702098 0 0
0.718685 0 0
0.730343 0 0
0.739864 0 0
0.74934 0 0
0.757244 0 0
0.76704 0 0
0.776318 0 0.108217
0.785931 0 0.144915
0.793408 0 0.170748
0.801236 0 0.1897
0.808774 0 0.210101
0.816907 0 0.228351
0.822095 0 0.239536
0.82649 0 0.249393
0.830701 0 0.258701
0.835569 0 0.269383
0.00587472 0.0152132 0.0171511
0.00460822 0.0146487 0.0171664
0.0166476 0.0149844 0.0164492
0.0358892 0.0140841 0.0146944
0.0673533 0.00280766 0.00868238
0.118776 0 0
0.18909 0 0
0.27303 0 0
0.367727 0 0
0.454444 0 0
0.507973 0 0
0.545708 0 0
0.583108 0 0
0.619364 0 0
0.653422 0 0
0.6822 0 0
0.703471 0 0
0.719493 0 0
0.730617 0 0
0.740276 0 0
0.74931 0 0
0.756924 0 0
0.766659 0 0
0.775998 0 0.106065
0.785077 0 0.141833
0.792432 0 0.167483
0.800214 0 0.186801
0.80734 0 0.206226
0.815473 0 0.225086
0.82063 0 0.236271
0.825101 0 0.246296
0.829328 0 0.255695
0.834134 0 0.266224
0 0.0224308 0.0177005
0 0.0215 0.0177615
0.0129397 0.0220493 0.0163119
0.0346838 0.0217594 0.0140078
0.0665446 0.0187839 0.00531014
0.118059 0 0
0.183291 0 0
0.263798 0 0
0.35256 0 0
0.437217 0 0
0.500648 0 0
0.543465 0 0
0.581827 0 0
0.618616 0 0
0.652018 0 0
0.679713 0 0
0.701396 0 0
0.717922 0 0
0.729824 0 0
0.738415 0 0
0.746212 0 0
0.754131 0 0
0.764263 0 0
0.773358 0 0.0847181
0.783352 0 0.134249
0.791867 0 0.16495
0.800305 0 0.186908
0.808682 0 0.210071
0.817136 0 0.22829
0.821988 0 0.239292
0.826444 0 0.249256
0.83093 0 0.259174
0.83592 0 0.270008
0 0.0327611 0.0167697
0 0.0314031 0.0175326
0 0.0324407 0.0150149
0.0329137 0.0326238 0.010193
0.069749 0.0311742 0
0.119371 0.0237736 0
0.185168 0 0
0.266285 0 0
0.351034 0 0
0.431601 0 0
0.492439 0 0
0.536767 0 0
0.577798 0 0
0.616709 0 0
0.652842 0 0
0.682841 0 0
0.704982 0 0
0.720043 0 0
0.730922 0 0
0.738827 0 0
0.745754 0 0
0.751659 0 0
0.760693 0 0
0.770092 0 0.00959792
0.779843 0 0.112749
0.788708 0 0.150759
0.797894 0 0.176791
0.806806 0 0.203952
0.815763 0 0.225147
0.82089 0 0.236789
0.825528 0 0.247028
0.831006 0 0.258824
0.836271 0 0.270054
0 0.0491035 0.0125277
0 0.0467994 0.0142977
0 0.0485847 0.0089723
0.0219883 0.0499275 0
0.0702068 0.050309 0
0.129137 0.0472877 0
0.192493 0.0313268 0
0.27042 0 0
0.357534 0 0
0.432898 0 0
0.49044 0 0
0.536538 0 0
0.578347 0 0
0.61857 0 0
0.655421 0 0
0.685481 0 0
0.708919 0 0
0.724651 0 0
0.735042 0 0
0.741726 0 0
0.745876 0 0
0.749844 0 0
0.754208 0 0
0.762234 0 0
0.771572 0 0
0.781415 0 0.111315
0.791257 0 0.156313
0.801022 0 0.185626
0.810071 0 0.210117
0.815518 0 0.222751
0.821424 0 0.235874
0.827237 0 0.248966
0.832944 0 0.262043
0 0.0759442 0
0 0.0736095 0
0 0.0746929 0
0 0.0763409 0
0.0659495 0.0791485 0
0.135897 0.0803388 0
0.211521 0.0741588 0
0.288212 0.053666 0
0.365866 0 0
0.437308 0 0
0.495674 0 0
0.545464 0 0
0.58883 0 0
0.63064 0 0
0.668406 0 0
0.698131 0 0
0.719081 0 0
0.732738 0 0
0.742138 0 0
0.747143 0 0
0.749676 0 0
0.751492 0 0
0.752239 0 0
0.755291 0 0
0.758175 0 0
0.767468 0 0
0.777905 0 0.0858167
0.789364 0 0.140002
0.799832 0 0.177249
0.807126 0 0.197665
0.814237 0 0.218524
0.820584 0 0.23386
0.826337 0 0.246738
0 0.116258 0
0 0.113725 0
0 0.114611 0
0 0.114076 0
0.0508736 0.11725 0
0.142535 0.12018 0
0.22591 0.119448 0
0.313283 0.109636 0
0.387823 0.0938735 0
0.454871 0.066804 0
0.516213 0 0
0.571496 0 0
0.619745 0 0
0.662379 0 0
0.701366 0 0
0.731472 0 0
0.751736 0 0
0.764096 0 0
0.765988 0 0
0.763394 0 0
0.759976 0 0
0.758328 0 0
0.756634 0 0
0.756069 0 0
0.754925 0 0
0.757885 0 0
0.765423 0 0
0.77377 0 0
0.785229 0 0.119875
0.793042 0 0.151766
0.800122 0 0.176486
0.808194 0 0.1953
0.815671 0 0.211734
0 0.156756 0
0 0.153628 0
0 0.160418 0
0 0.158999 0
0 0.161898 0
0.140246 0.167147 0
0.232593 0.168017 0
0.320806 0.16437 0
0.407324 0.157641 0
0.484443 0.150195 0
0.549477 0.141161 0
0.609461 0.131548 0
0.665415 0.119875 0
0.714107 0.102251 0
0.754604 0.0623484 0
0.786053 0 0
0.807523 0 0
0.818952 0 0
0.821485 0 0
0.817472 0 0
0.80737 0 0
0.794812 0 0
0.785687 0 0
0.776486 0 0
0.765118 0 0
0.762295 0 0
0.757443 0 0
0.764431 0 0
0.769757 0 0
0.774289 0 0
0.782315 0 0.0771954
0.789837 0 0.139559
0.799008 0 0.172305
0 0.19144 0
0 0.188312 0
0 0.206729 0
0 0.211048 0
0 0.209049 0
0.111788 0.211124 0
0.226581 0.215732 0
0.325704 0.218235 0
0.419501 0.218326 0
0.50869 0.216938 0
0.588251 0.215488 0
0.659449 0.21529 0
0.720623 0.212573 0
0.773465 0.207187 0
0.816892 0.195666 0
0.851545 0.180835 0
0.874418 0.159167 0
0.886244 0.132937 0
0.891814 0.1037 0
0.889647 0.0508125 0
0.882567 0 0
0.872969 0 0
0.862699 0 0
0.850156 0 0
0.834424 0 0
0.813306 0 0
0.804089 0 0
0.784772 0 0
0.766033 0 0
0.767437 0 0
0.773465 0 0
0.776318 0 0
0.783078 0 0
0 0.229343 0
0 0.225238 0
0 0.245335 0
0 0.257282 0
0 0.253956 0
0.0347295 0.257725 0
0.219547 0.266026 0
0.329137 0.274067 0
0.433539 0.28043 0
0.531106 0.283223 0
0.622797 0.285496 0
0.708263 0.287541 0
0.778973 0.286641 0
0.834119 0.284443 0
0.878172 0.277745 0
0.913024 0.26894 0
0.937743 0.258106 0
0.952804 0.245838 0
0.959045 0.233173 0
0.962966 0.222827 0
0.960845 0.209323 0
0.955566 0.192813 0
0.949966 0.1785 0
0.938872 0.153643 0
0.92932 0.129717 0
0.916884 0.0712291 0
0.897658 0 0
0.882261 0 0
0.854719 0 0
0.838712 0 0
0.819455 0 0
0.797375 0 0
0.800656 0 0
0 0.271931 0
0 0.266957 0
0 0.285817 0
0 0.298192 0
0 0.299474 0
0 0.307759 0
0.206592 0.321126 0
0.332372 0.332738 0
0.444556 0.343084 0
0.552728 0.350286 0
0.653223 0.355062 0
0.748852 0.359045 0
0.827207 0.360128 0
0.886107 0.35816 0
0.929488 0.354101 0
0.962371 0.348638 0
0.986099 0.34229 0
1 0.334966 0
1 0.327459 0
1 0.322011 0
1 0.313787 0
1 0.306966 0
1 0.29836 0
1 0.290913 0
1 0.282994 0
1 0.271778 0
1 0.262043 0
0.986831 0.238956 0
0.976867 0.219226 0
0.971588 0.206989 0
0.949493 0.158114 0
0.92575 0.0845808 0
0.903578 0 0
0 0.316716 0
0 0.310155 0
0 0.328862 0
0 0.340002 0
0 0.345495 0
0 0.359319 0
0.184863 0.376471 0
0.332448 0.392523 0
0.453529 0.406226 0
0.567742 0.417029 0
0.675944 0.424521 0
0.77641 0.430579 0
0.860807 0.434165 0
0.923858 0.434867 0
0.968383 0.432166 0
0.997787 0.428183 0
1 0.424079 0
1 0.419486 0
1 0.416449 0
1 0.412482 0
1 0.409323 0
1 0.406088 0
1 0.40296 0
1 0.400183 0
1 0.394965 0
1 0.391882 0
1 0.384878 0
1 0.377935 0
1 0.367147 0
1 0.355627 0
1 0.344961 0
1 0.334936 0
1 0.32549 0
0 0.362951 0
0 0.354528 0
0 0.372519 0
0 0.383917 0
0 0.394247 0
0 0.410727 0
0.140597 0.433051 0
0.324941 0.452598 0
0.456397 0.468894 0
0.577569 0.482841 0
0.691249 0.493797 0
0.79266 0.501305 0
0.878279 0.506355 0
0.943084 0.509667 0
0.989456 0.509071 0
1 0.506905 0
1 0.5037 0
1 0.501656 0
1 0.499413 0
1 0.499352 0
1 0.498619 0
1 0.497627 0
1 0.4981 0
1 0.496147 0
1 0.496071 0
1 0.494774 0
1 0.493263 0
1 0.491081 0
1 0.484779 0
1 0.480995 0
1 0.476707 0
1 0.467781 0
1 0.457267 0
0 0.409842 0
0 0.401205 0
0 0.418647 0
0 0.429221 0
0 0.443183 0
0 0.463737 0
0 0.488991 0
0.310811 0.51194 0
0.454536 0.531685 0
0.580941 0.547204 0
0.698436 0.559945 0
0.802182 0.568612 0
0.886915 0.574533 0
0.952819 0.57937 0
0.999207 0.580987 0
1 0.581491 0
1 0.57969 0
1 0.578073 0
1 0.578073 0
1 0.577859 0
1 0.579568 0
1 0.581094 0
1 0.582391 0
1 0.583978 0
1 0.584955 0
1 0.585748 0
1 0.585595 0
1 0.585107 0
1 0.586435 0
1 0.583062 0
1 0.579477 0
1 0.576089 0
1 0.573739 0
0 0.455573 0
0 0.446952 0
0 0.464393 0
0 0.476249 0
0 0.491371 0
0 0.51371 0
0 0.543847 0
0.295018 0.569558 0
0.448188 0.591043 0
0.581598 0.608255 0
0.701381 0.621576 0
0.806699 0.631174 0
0.892317 0.637919 0
0.958007 0.64303 0
1 0.646525 0
1 0.647929 0
1 0.648905 0
1 0.6486 0
1 0.648264 0
1 0.649561 0
1 0.651484 0
1 0.653666 0
1 0.656703 0
1 0.659068 0
1 0.661479 0
1 0.66305 0
1 0.664775 0
1 0.66717 0
1 0.666728 0
1 0.665766 0
1 0.665537 0
1 0.665553 0
1 0.66186 0
0 0.500572 0
0 0.491463 0
0 0.507759 0
0 0.521675 0
0 0.53843 0
0 0.563912 0
0 0.59704 0
0.276768 0.623758 0
0.442176 0.64651 0
0.578347 0.663676 0
0.702464 0.677516 0
0.808133 0.687907 0
0.894652 0.694972 0
0.96022 0.700786 0
1 0.704417 0
1 0.707256 0
1 0.708827 0
1 0.710582 0
1 0.711192 0
1 0.712215 0
1 0.714183 0
1 0.716381 0
1 0.719173 0
1 0.722148 0
1 0.72517 0
1 0.728511 0
1 0.730877 0
1 0.731456 0
1 0.733379 0
1 0.733776 0
1 0.732158 0
1 0.7308 0
1 0.730388 0
0 0.543145 0
0 0.533776 0
0 0.55021 0
0 0.565774 0
0 0.582162 0
0 0.609995 0
0 0.645716 0
0.253849 0.673213 0
0.433951 0.695384 0
0.575311 0.712596 0
0.700008 0.726406 0
0.808591 0.737255 0
0.895247 0.744976 0
0.959991 0.750973 0
1 0.754513 0
1 0.756374 0
1 0.758221 0
1 0.760876 0
1 0.762524 0
1 0.764569 0
1 0.766049 0
1 0.767727 0
1 0.769924 0
1 0.772107 0
1 0.774853 0
1 0.777111 0
1 0.778973 0
1 0.780926 0
1 0.782269 0
1 0.781796 0
1 0.781659 0
1 0.781918 0
1 0.780621 0
0 0.583535 0
0 0.573251 0
0 0.58999 0
0 0.605585 0
0 0.622202 0
0 0.651514 0
0 0.689662 0
0.227192 0.717098 0
0.426642 0.738369 0
0.570306 0.754192 0
0.69723 0.767834 0
0.805371 0.779446 0
0.892729 0.787549 0
0.958022 0.792523 0
0.999176 0.794781 0
1 0.796277 0
1 0.798413 0
1 0.80029 0
1 0.803006 0
1 0.805615 0
1 0.80679 0
1 0.808347 0
1 0.809552 0
1 0.810788 0
1 0.81207 0
1 0.813107 0
1 0.814343 0
1 0.815473 0
1 0.817395 0
1 0.817334 0
1 0.817151 0
1 0.817166 0
1 0.817502 0
0 0.619791 0
0 0.608408 0
0 0.626215 0
0 0.642527 0
0 0.656809 0
0 0.684901 0
0 0.725734 0
0.192981 0.755566 0
0.41767 0.77467 0
0.566201 0.788861 0
0.69337 0.799802 0
0.80116 0.810422 0
0.888411 0.818006 0
0.954879 0.823087 0
0.996109 0.825483 0
1 0.827268 0
1 0.827817 0
1 0.829801 0
1 0.831662 0
1 0.833707 0
1 0.835798 0
1 0.837232 0
1 0.838285 0
1 0.838788 0
1 0.83946 0
1 0.839765 0
1 0.84036 0
1 0.841154 0
1 0.841978 0
1 0.84213 0
1 0.842329 0
1 0.842588 0
1 0.84242 0
0 0.649104 0
0 0.639963 0
0 0.654749 0
0 0.669551 0
0 0.68603 0
0 0.713726 0
0 0.753552 0
0.160815 0.783536 0
0.409979 0.803738 0
0.563455 0.816953 0
0.690349 0.825864 0
0.798871 0.833844 0
0.887724 0.840269 0
0.953033 0.845258 0
0.992706 0.847852 0
1 0.849851 0
1 0.851408 0
1 0.852445 0
1 0.854215 0
1 0.85568 0
1 0.856794 0
1 0.857527 0
1 0.858305 0
1 0.858869 0
1 0.859586 0
1 0.860166 0
1 0.860319 0
1 0.860807 0
1 0.861799 0
1 0.861952 0
1 0.862119 0
1 0.862348 0
1 0.862638 0
0 0.673884 0
0 0.664332 0
0 0.679683 0
0 0.692851 0
0 0.707225 0
0 0.733883 0
0 0.773892 0
0.108202 0.803876 0
0.404044 0.823697 0
0.560189 0.836561 0
0.689937 0.845029 0
0.797864 0.852064 0
0.887114 0.857466 0
0.952026 0.861463 0
0.991424 0.863752 0
1 0.86569 0
1 0.866575 0
1 0.868299 0
1 0.869505 0
1 0.870924 0
1 0.872236 0
1 0.873152 0
1 0.873716 0
1 0.873732 0
1 0.873854 0
1 0.874205 0
1 0.87425 0
1 0.874281 0
1 0.874891 0
1 0.874998 0
1 0.874937 0
1 0.874998 0
1 0.875029 0
0 0.694499 0
0 0.687373 0
0 0.698924 0
0 0.71046 0
0 0.725536 0
0 0.750744 0
0 0.789303 0
0 0.819867 0
0.395331 0.84036 0
0.55816 0.852415 0
0.689586 0.859449 0
0.798611 0.864378 0
0.888548 0.86923 0
0.953094 0.873274 0
0.991241 0.875746 0
1 0.877852 0
1 0.879271 0
1 0.880446 0
1 0.881437 0
1 0.881788 0
1 0.882185 0
1 0.882597 0
1 0.883146 0
1 0.883635 0
1 0.883909 0
1 0.884153 0
1 0.884245 0
1 0.884367 0
1 0.884749 0
1 0.884749 0
1 0.884855 0
1 0.884855 0
1 0.884871 0
0 0.711192 0
0 0.703807 0
0 0.715404 0
0 0.725139 0
0 0.738933 0
0 0.7635 0
0 0.803906 0
0 0.832731 0
0.392523 0.851118 0
0.559426 0.863737 0
0.692576 0.870619 0
0.802197 0.875364 0
0.891035 0.879988 0
0.954498 0.883101 0
0.991104 0.884749 0
1 0.886152 0
1 0.887221 0
1 0.888075 0
1 0.888853 0
1 0.889708 0
1 0.889921 0
1 0.890288 0
1 0.890761 0
1 0.891203 0
1 0.891768 0
1 0.892241 0
1 0.892668 0
1 0.89308 0
1 0.893217 0
1 0.893126 0
1 0.89305 0
1 0.893034 0
1 0.892912 0
0 0.724132 0
0 0.718639 0
0 0.727932 0
0 0.736446 0
0 0.749172 0
0 0.775845 0
0 0.814115 0
0 0.842786 0
0.396338 0.861036 0
0.564279 0.873304 0
0.697444 0.87953 0
0.80734 0.883574 0
0.893996 0.887144 0
0.954589 0.88983 0
0.991653 0.891096 0
1 0.892363 0
1 0.893339 0
1 0.894392 0
1 0.894987 0
1 0.895766 0
1 0.896574 0
1 0.897017 0
1 0.897215 0
1 0.897292 0
1 0.897414 0
1 0.897597 0
1 0.89778 0
1 0.897932 0
1 0.89807 0
1 0.89807 0
1 0.898085 0
1 0.898085 0
1 0.898177 0
0 0.734417 0
0 0.729107 0
0 0.737926 0
0 0.746197 0
0 0.758862 0
0 0.783871 0
0 0.823941 0
0 0.851942 0
0.400076 0.868498 0
0.569223 0.879835 0
0.703471 0.886122 0
0.811841 0.890394 0
0.897017 0.893645 0
0.955764 0.895689 0
0.991287 0.896788 0
1 0.897734 0
1 0.89865 0
1 0.899535 0
1 0.899962 0
1 0.900343 0
1 0.90074 0
1 0.901183 0
1 0.90164 0
1 0.90164 0
1 0.901686 0
1 0.901778 0
1 0.901961 0
1 0.902052 0
1 0.902144 0
1 0.902174 0
1 0.90222 0
1 0.902266 0
1 0.902312 0
0 0.743053 0
0 0.738262 0
0 0.74609 0
0 0.753353 0
0 0.764141 0
0 0.789654 0
0 0.831312 0
0.078294 0.858686 0
0.41181 0.874922 0
0.577249 0.885695 0
0.710719 0.892241 0
0.819028 0.896223 0
0.902708 0.898939 0
0.958541 0.900282 0
0.991943 0.900938 0
1 0.901427 0
1 0.902052 0
1 0.902754 0
1 0.903365 0
1 0.903716 0
1 0.904082 0
1 0.904433 0
1 0.904799 0
1 0.90518 0
1 0.905379 0
1 0.90547 0
1 0.905516 0
1 0.905592 0
1 0.905745 0
1 0.905745 0
1 0.905745 0
1 0.905776 0
1 0.905837 0
0 0.749538 0
0 0.745708 0
0 0.752361 0
0 0.758022 0
0 0.766369 0
0 0.792584 0
0 0.837308 0
0.123415 0.86508 0
0.425528 0.88101 0
0.58703 0.891203 0
0.720195 0.896941 0
0.828061 0.900343 0
0.91107 0.90248 0
0.96347 0.903456 0
0.993896 0.903899 0
1 0.904372 0
1 0.904921 0
1 0.90547 0
1 0.906142 0
1 0.906661 0
1 0.906935 0
1 0.907256 0
1 0.907576 0
1 0.907912 0
1 0.908217 0
1 0.908522 0
1 0.908751 0
1 0.908812 0
1 0.908888 0
1 0.908873 0
1 0.908919 0
1 0.908919 0
1 0.908919 0
0 0.754665 0
0 0.751522 0
0 0.757275 0
0 0.763027 0
0 0.768246 0
0 0.792416 0
0 0.837903 0
0.0954147 0.869184 0
0.42768 0.884962 0
