apps/lut-action/luts/IPP2_Med_Contrast.cube
TITLE "RWG_Log3G10 to REC709_BT1886 with MEDIUM_CONTRAST and ROLLOFF_4 size_33 for IPP2 by RED"
LUT_3D_SIZE 9
DOMAIN_MIN 0.000000 0.000000 0.000000
DOMAIN_MAX 1.000000 1.000000 1.000000
0.000000 0.000000 0.000000
0.098135 0.003505 0.003505
0.345718 0.020700 0.030062
0.672632 0.061618 0.087100
0.903565 0.152849 0.217408
1.000001 0.428028 0.506498
1.000001 0.678599 0.719701
1.000001 0.834203 0.855991
1.000001 0.932964 0.943729
0.003505 0.083852 0.003505
0.067248 0.078083 0.003505
0.337608 0.043870 0.022851
0.668444 0.070547 0.082785
0.902155 0.156780 0.214066
1.000001 0.427121 0.503874
1.000001 0.677777 0.718734
1.000001 0.833556 0.855380
1.000001 0.932562 0.943364
0.003505 0.302317 0.004326
0.003663 0.300626 0.004250
0.258723 0.285709 0.003793
0.639764 0.234172 0.052202
0.893386 0.218141 0.189000
1.000001 0.440437 0.493446
1.000001 0.676794 0.714887
1.000001 0.831228 0.852855
1.000001 0.931389 0.942253
0.003793 0.573931 0.011482
0.003917 0.573415 0.011325
0.019205 0.568376 0.009979
0.511549 0.549261 0.007569
0.853732 0.504449 0.111527
0.996143 0.527711 0.444771
1.000001 0.682850 0.699065
1.000001 0.826604 0.845326
1.000001 0.927632 0.938416
0.006125 0.781050 0.046410
0.006368 0.780924 0.046304
0.011357 0.779572 0.045214
0.216825 0.772945 0.041234
0.719598 0.755903 0.041816
0.966243 0.722474 0.296193
1.000001 0.742296 0.653593
1.000001 0.830003 0.828040
1.000001 0.922039 0.930342
0.030219 0.908831 0.174874
0.030647 0.908805 0.174802
0.035859 0.908505 0.174001
0.086552 0.906739 0.169838
0.566206 0.900549 0.163052
0.859257 0.888029 0.202468
1.000001 0.865831 0.564804
1.000001 0.873772 0.790484
1.000001 0.923892 0.915929
0.134579 0.975594 0.493905
0.135067 0.975589 0.493887
0.140758 0.975522 0.493686
0.183521 0.975096 0.492457
0.474446 0.973231 0.488203
0.780878 0.968162 0.488527
0.939375 0.960140 0.534102
1.000001 0.945874 0.737128
1.000001 0.949310 0.889878
0.475881 1.000001 0.691549
0.476158 1.000001 0.691545
0.479325 1.000001 0.691506
0.499085 1.000001 0.691257
0.578981 1.000001 0.690141
0.745863 1.000001 0.687761
0.899333 1.000001 0.691826
0.982494 0.997008 0.720011
1.000001 0.987220 0.856755
0.702205 1.000001 0.813797
0.702254 1.000001 0.813796
0.702823 1.000001 0.813787
0.706522 1.000001 0.813726
0.724425 1.000001 0.813428
0.783280 1.000001 0.812443
0.880305 1.000001 0.811518
0.960435 1.000001 0.816031
1.000001 1.000001 0.834186
0.003505 0.003505 0.085049
0.095135 0.003505 0.082380
0.344937 0.017267 0.064447
0.670573 0.059318 0.100355
0.902555 0.150919 0.223580
1.000001 0.425837 0.506377
1.000001 0.677496 0.718985
1.000001 0.833514 0.855420
1.000001 0.932963 0.943733
0.003505 0.069754 0.065996
0.062239 0.062240 0.062244
0.336800 0.037008 0.051509
0.666354 0.068011 0.095555
0.901134 0.154833 0.220179
1.000001 0.424940 0.503769
1.000001 0.676673 0.718016
1.000001 0.832865 0.854807
1.000001 0.932561 0.943369
0.003505 0.298898 0.006862
0.003663 0.297189 0.006532
0.257672 0.282126 0.004791
0.637972 0.230933 0.061042
0.892289 0.215959 0.194379
1.000001 0.438498 0.493359
1.000001 0.675706 0.714162
1.000001 0.831220 0.852888
1.000001 0.931388 0.942257
0.003761 0.572989 0.014133
0.003917 0.572471 0.013946
0.018808 0.567425 0.012343
0.511261 0.548309 0.009081
0.853003 0.503811 0.115224
0.995722 0.526793 0.444689
1.000001 0.681909 0.698291
1.000001 0.825922 0.844728
1.000001 0.927212 0.938041
0.006100 0.780831 0.048450
0.006339 0.780706 0.048340
0.011288 0.779352 0.047209
0.216355 0.772724 0.043067
0.719534 0.755691 0.043577
0.965562 0.722457 0.296227
1.000001 0.741907 0.652626
1.000001 0.829455 0.827378
1.000001 0.921622 0.929939
0.030182 0.908786 0.176735
0.030610 0.908759 0.176662
0.035817 0.908460 0.175853
0.086477 0.906694 0.171640
0.566149 0.900503 0.164754
0.859244 0.887986 0.204456
1.000001 0.865871 0.563641
1.000001 0.873598 0.789658
1.000001 0.923572 0.915462
0.134547 0.975584 0.494428
0.135035 0.975578 0.494411
0.140725 0.975512 0.494210
0.183480 0.975087 0.492981
0.474414 0.973221 0.488730
0.780869 0.968152 0.489025
0.939372 0.960131 0.534462
1.000001 0.945890 0.736737
1.000001 0.949215 0.889292
0.475866 1.000001 0.691650
0.476144 1.000001 0.691646
0.479310 1.000001 0.691607
0.499072 1.000001 0.691358
0.578972 1.000001 0.690243
0.745859 1.000001 0.687862
0.899332 1.000001 0.691918
0.982493 0.997005 0.720081
1.000001 0.987245 0.856156
0.702202 1.000001 0.813821
0.702251 1.000001 0.813820
0.702820 1.000001 0.813811
0.706519 1.000001 0.813750
0.724423 1.000001 0.813453
0.783279 1.000001 0.812467
0.880304 1.000001 0.811542
0.960434 1.000001 0.816053
1.000001 1.000001 0.834203
0.018611 0.005135 0.310569
0.062068 0.004899 0.309621
0.337827 0.004624 0.301579
0.663184 0.042247 0.278825
0.898748 0.137188 0.310412
1.000001 0.413975 0.516164
1.000001 0.673739 0.718549
1.000001 0.831370 0.853973
1.000001 0.931726 0.942691
0.010240 0.010492 0.305235
0.038069 0.009373 0.304271
0.329436 0.006844 0.296151
0.659326 0.048797 0.273976
0.896777 0.140344 0.306984
1.000001 0.414028 0.514465
1.000001 0.672908 0.717595
1.000001 0.830717 0.853360
1.000001 0.931320 0.942323
0.003505 0.265900 0.256949
0.003505 0.264017 0.255958
0.247793 0.247799 0.247818
0.630090 0.195943 0.228965
0.887600 0.197097 0.278679
1.000001 0.428566 0.504754
1.000001 0.671453 0.713322
1.000001 0.828375 0.850824
1.000001 0.930137 0.941203
0.003663 0.563583 0.093727
0.003721 0.563052 0.092871
0.015086 0.557895 0.085365
0.508345 0.538611 0.068506
0.847667 0.496372 0.168814
0.994183 0.521279 0.458874
1.000001 0.678166 0.697522
1.000001 0.823794 0.843250
1.000001 0.925931 0.936953
0.005845 0.778462 0.076643
0.006060 0.778335 0.076480
0.010552 0.776974 0.074793
0.211163 0.770322 0.068498
0.718828 0.753362 0.067970
0.963419 0.721283 0.321154
1.000001 0.740364 0.652412
1.000001 0.827725 0.825783
1.000001 0.920352 0.928777
0.029767 0.908275 0.199371
0.030191 0.908248 0.199287
0.035350 0.907948 0.198362
0.085627 0.906179 0.193532
0.565507 0.899985 0.185415
0.859095 0.887499 0.228639
1.000001 0.865785 0.563851
1.000001 0.873012 0.787713
1.000001 0.922598 0.914123
0.134184 0.975472 0.500331
0.134670 0.975466 0.500314
0.140349 0.975399 0.500115
0.183013 0.974973 0.498897
0.474029 0.973107 0.494659
0.780765 0.968037 0.494648
0.939340 0.960025 0.538549
1.000001 0.945958 0.734850
1.000001 0.948920 0.887629
0.475697 1.000001 0.692806
0.475976 1.000001 0.692802
0.479145 1.000001 0.692763
0.498917 1.000001 0.692514
0.578859 1.000001 0.691398
0.745805 1.000001 0.689005
0.899311 1.000001 0.692971
0.982484 0.996979 0.720878
1.000001 0.987284 0.855106
0.702171 1.000001 0.814099
0.702221 1.000001 0.814098
0.702790 1.000001 0.814088
0.706489 1.000001 0.814028
0.724396 1.000001 0.813730
0.783259 1.000001 0.812744
0.880294 1.000001 0.811812
0.960429 1.000001 0.816298
1.000001 1.000001 0.834392
0.042062 0.008736 0.597371
0.056993 0.008508 0.596954
0.310807 0.006926 0.593075
0.630610 0.007981 0.580087
0.884740 0.086862 0.551514
1.000001 0.357758 0.586298
1.000001 0.657024 0.723984
1.000001 0.823763 0.850511
1.000001 0.927470 0.939356
0.036716 0.011306 0.595232
0.050066 0.010974 0.594813
0.301435 0.008552 0.590917
0.627667 0.009533 0.578030
0.882570 0.088847 0.550521
1.000001 0.357943 0.585363
1.000001 0.656146 0.723150
1.000001 0.823090 0.849910
1.000001 0.927051 0.938982
0.009353 0.111500 0.575426
0.013749 0.108746 0.575002
0.206980 0.087992 0.571292
0.600645 0.058291 0.559594
0.872826 0.128142 0.538425
0.998659 0.377451 0.579077
1.000001 0.655350 0.719732
1.000001 0.820700 0.847417
1.000001 0.925834 0.937839
0.003505 0.523931 0.510733
0.003505 0.523311 0.510380
0.005649 0.517369 0.507048
0.495874 0.495885 0.495918
0.830007 0.456305 0.483478
0.988384 0.492043 0.547166
1.000001 0.663768 0.705323
1.000001 0.816207 0.839936
1.000001 0.921962 0.933892
0.004857 0.766531 0.393970
0.004985 0.766399 0.393737
0.007590 0.764976 0.391270
0.183020 0.758101 0.380674
0.715156 0.741101 0.368695
0.955998 0.713107 0.453964
1.000001 0.733137 0.662843
1.000001 0.821528 0.822454
1.000001 0.916416 0.925547
0.027354 0.905238 0.368303
0.027754 0.905210 0.368217
0.032629 0.904906 0.367245
0.080627 0.903115 0.361944
0.561634 0.896884 0.350474
0.858196 0.884543 0.374772
1.000001 0.864556 0.582104
1.000001 0.870789 0.783915
1.000001 0.919598 0.910452
0.131871 0.974754 0.535167
0.132351 0.974748 0.535150
0.137955 0.974680 0.534962
0.180051 0.974253 0.533808
0.471559 0.972379 0.529667
0.780107 0.967304 0.528036
0.939130 0.959345 0.563389
1.000001 0.945940 0.733298
1.000001 0.948008 0.883135
0.474596 1.000001 0.700194
0.474874 1.000001 0.700190
0.478057 1.000001 0.700152
0.497910 1.000001 0.699903
0.578127 1.000001 0.698787
0.745457 1.000001 0.696318
0.899175 1.000001 0.699719
0.982431 0.996807 0.726013
1.000001 0.987440 0.850829
0.701973 1.000001 0.815911
0.702023 1.000001 0.815910
0.702593 1.000001 0.815900
0.706296 1.000001 0.815840
0.724217 1.000001 0.815541
0.783129 1.000001 0.814549
0.880224 1.000001 0.813575
0.960396 1.000001 0.817899
1.000001 1.000001 0.835632
0.050967 0.009772 0.820238
0.057824 0.009649 0.820056
0.222669 0.008491 0.818067
0.622897 0.006893 0.811391
0.843437 0.016125 0.794590
0.992042 0.198811 0.760919
1.000001 0.609539 0.777153
1.000001 0.806047 0.854092
1.000001 0.919528 0.935178
0.048171 0.010906 0.819337
0.054710 0.010767 0.819155
0.210899 0.009391 0.817160
0.619602 0.007487 0.810461
0.842519 0.017175 0.793902
0.991525 0.198765 0.760808
1.000001 0.608444 0.776794
1.000001 0.805310 0.853607
1.000001 0.919081 0.934809
0.025368 0.034161 0.809460
0.029220 0.033764 0.809275
0.118274 0.029852 0.807308
0.584754 0.022553 0.801006
0.833455 0.031626 0.787180
0.988720 0.213872 0.758661
1.000001 0.607003 0.774922
1.000001 0.802741 0.851579
1.000001 0.917793 0.933682
0.005814 0.414000 0.779257
0.006411 0.412827 0.779073
0.024298 0.402417 0.777432
0.462085 0.368307 0.771889
0.796416 0.316506 0.760992
0.976097 0.379322 0.744548
1.000001 0.619603 0.766739
1.000001 0.798259 0.845405
1.000001 0.913729 0.929792
0.003721 0.733283 0.720155
0.003721 0.733123 0.720061
0.004220 0.731415 0.719063
0.108984 0.723387 0.714475
0.704565 0.704576 0.704613
0.939679 0.680714 0.697851
1.000001 0.708818 0.738565
1.000001 0.806490 0.830300
1.000001 0.908228 0.921530
0.019386 0.894323 0.649486
0.019701 0.894293 0.649444
0.023561 0.893968 0.648970
0.063330 0.892061 0.646278
0.546775 0.885544 0.638402
0.854827 0.873249 0.632993
1.000001 0.857170 0.680023
1.000001 0.864550 0.795893
1.000001 0.913039 0.905797
0.121699 0.971569 0.650402
0.122151 0.971563 0.650389
0.127426 0.971494 0.650237
0.167029 0.971055 0.649296
0.460120 0.969138 0.645638
0.777137 0.964014 0.640661
0.938178 0.956225 0.653988
1.000001 0.944649 0.751472
1.000001 0.945959 0.878491
0.469086 1.000001 0.733179
0.469371 1.000001 0.733176
0.472621 1.000001 0.733138
0.492881 1.000001 0.732896
0.574481 1.000001 0.731789
0.743737 1.000001 0.729065
0.898507 1.000001 0.730236
0.982164 0.995951 0.749832
1.000001 0.987403 0.848825
0.700959 1.000001 0.824848
0.701008 1.000001 0.824847
0.701582 1.000001 0.824838
0.705303 1.000001 0.824776
0.723309 1.000001 0.824475
0.782464 1.000001 0.823455
0.879865 1.000001 0.822288
0.960225 1.000001 0.825845
1.000001 1.000001 0.841835
0.034025 0.006001 0.959420
0.036533 0.005978 0.959344
0.080235 0.005705 0.958473
0.629691 0.004950 0.954481
0.858307 0.005218 0.945976
0.963274 0.033423 0.925324
1.000001 0.465343 0.893278
1.000001 0.766645 0.894795
1.000001 0.905345 0.937644
0.032916 0.006210 0.959049
0.035355 0.006180 0.958973
0.077919 0.005884 0.958099
0.626516 0.005066 0.954098
0.857075 0.005367 0.945565
0.963043 0.034093 0.925135
1.000001 0.463353 0.893333
1.000001 0.765704 0.894654
1.000001 0.904836 0.937363
0.022097 0.010774 0.954706
0.023846 0.010697 0.954626
0.054999 0.009838 0.953717
0.587208 0.007569 0.949601
0.842325 0.008701 0.940738
0.960551 0.042137 0.923114
1.000001 0.461466 0.893218
1.000001 0.763509 0.894135
1.000001 0.903376 0.936504
0.005273 0.150679 0.935311
0.005502 0.149684 0.935228
0.012627 0.138716 0.934261
0.362090 0.106250 0.930533
0.788496 0.084055 0.924389
0.948211 0.115757 0.913385
1.000001 0.489504 0.890994
1.000001 0.757372 0.891739
1.000001 0.898826 0.933551
0.005052 0.670388 0.904864
0.005188 0.670070 0.904802
0.007648 0.666878 0.904183
0.080165 0.654090 0.901684
0.682983 0.627999 0.896261
0.913513 0.602111 0.888171
1.000001 0.640620 0.877591
1.000001 0.771330 0.884332
1.000001 0.893138 0.927228
0.006998 0.871251 0.860556
0.007101 0.871216 0.860534
0.008540 0.870814 0.860295
0.030389 0.868497 0.858925
0.507505 0.860867 0.854528
0.847370 0.847381 0.847416
0.988868 0.834365 0.843599
1.000001 0.846671 0.862258
1.000001 0.901109 0.914416
0.093727 0.962744 0.820855
0.094101 0.962738 0.820847
0.098466 0.962662 0.820751
0.131222 0.962180 0.820147
0.422329 0.960094 0.817638
0.768405 0.954664 0.812177
0.935420 0.946927 0.809389
1.000001 0.938188 0.829360
1.000001 0.940947 0.890789
0.447939 1.000001 0.818766
0.448248 1.000001 0.818763
0.451777 1.000001 0.818731
0.473699 1.000001 0.818521
0.560829 1.000001 0.817535
0.737510 1.000001 0.814675
0.896140 0.997402 0.812179
0.981210 0.992827 0.818450
1.000001 0.985972 0.866734
0.696817 1.000001 0.856211
0.696868 1.000001 0.856210
0.697452 1.000001 0.856201
0.701250 1.000001 0.856140
0.719608 1.000001 0.855838
0.779772 1.000001 0.854768
0.878430 1.000001 0.853080
0.959545 1.000001 0.854357
1.000001 1.000001 0.864814
0.007625 0.003721 1.000001
0.007939 0.003721 1.000001
0.013799 0.003663 1.000001
0.395555 0.003663 1.000001
0.918957 0.003505 1.000001
0.991739 0.003936 1.000001
1.000001 0.070095 0.990927
1.000001 0.678041 0.964722
1.000001 0.878688 0.961958
0.007475 0.003721 1.000001
0.007777 0.003721 1.000001
0.013467 0.003721 1.000001
0.389263 0.003663 1.000001
0.918114 0.003505 1.000001
0.991312 0.003972 1.000001
1.000001 0.070566 0.990879
1.000001 0.676560 0.964791
1.000001 0.878030 0.961889
0.006110 0.003825 1.000001
0.006298 0.003825 1.000001
0.010091 0.003825 1.000001
0.318461 0.003721 1.000001
0.908078 0.003663 1.000001
0.986239 0.004360 1.000001
1.000001 0.076049 0.990335
1.000001 0.672468 0.964960
1.000001 0.876159 0.961669
0.003663 0.020086 1.000001
0.003663 0.019996 1.000001
0.003850 0.018991 1.000001
0.071740 0.013295 1.000001
0.819727 0.011332 1.000001
0.955351 0.028600 0.999227
1.000001 0.116685 0.987220
1.000001 0.665857 0.965085
1.000001 0.869695 0.960837
0.003505 0.596588 0.996063
0.003505 0.595897 0.996019
0.003505 0.587849 0.995520
0.021851 0.530892 0.992277
0.637553 0.466551 0.988617
0.909713 0.420945 0.983823
1.000001 0.470402 0.976841
1.000001 0.694010 0.962610
1.000001 0.863167 0.958820
0.006789 0.839988 0.969456
0.006883 0.839923 0.969440
0.008158 0.839205 0.969270
0.025081 0.835372 0.968361
0.402075 0.824484 0.965759
0.835799 0.807446 0.961376
0.972318 0.794505 0.956307
1.000001 0.809391 0.950479
1.000001 0.877238 0.952604
0.048188 0.948704 0.940807
0.048425 0.948696 0.940802
0.051198 0.948601 0.940745
0.072313 0.948007 0.940388
0.316944 0.945486 0.938887
0.751465 0.939194 0.935258
0.930799 0.930809 0.930839
1.000001 0.923810 0.928586
1.000001 0.929175 0.937505
0.388103 0.997425 0.918899
0.388498 0.997423 0.918897
0.392990 0.997403 0.918874
0.420527 0.997272 0.918727
0.525176 0.996638 0.918023
0.722859 0.994516 0.915787
0.891056 0.990514 0.912313
0.979188 0.985962 0.910719
1.000001 0.980994 0.919549
0.685028 1.000001 0.914957
0.685083 1.000001 0.914956
0.685703 1.000001 0.914948
0.689731 1.000001 0.914895
0.709161 1.000001 0.914626
0.772348 1.000001 0.913625
0.874621 1.000001 0.911581
0.957779 1.000001 0.910227
1.000001 1.000001 0.913031
0.003505 0.003505 1.000001
0.003505 0.003505 1.000001
0.003663 0.003505 1.000001
0.007008 0.003505 1.000001
1.000001 0.003505 1.000001
1.000001 0.003505 1.000001
1.000001 0.003505 1.000001
1.000001 0.146444 1.000001
1.000001 0.827988 0.999391
0.003505 0.003505 1.000001
0.003505 0.003505 1.000001
0.003663 0.003505 1.000001
0.006924 0.003505 1.000001
1.000001 0.003505 1.000001
1.000001 0.003505 1.000001
1.000001 0.003663 1.000001
1.000001 0.146835 1.000001
1.000001 0.827026 0.999446
0.003505 0.003505 1.000001
0.003505 0.003505 1.000001
0.003505 0.003505 1.000001
0.006097 0.003505 1.000001
1.000001 0.003505 1.000001
1.000001 0.003505 1.000001
1.000001 0.003663 1.000001
1.000001 0.151360 1.000001
1.000001 0.824323 0.999595
0.003505 0.003505 1.000001
0.003505 0.003505 1.000001
0.003505 0.003505 1.000001
0.003897 0.003505 1.000001
0.966966 0.003505 1.000001
1.000001 0.003505 1.000001
1.000001 0.007517 1.000001
1.000001 0.183247 1.000001
1.000001 0.816160 1.000001
0.003505 0.465783 1.000001
0.003505 0.464716 1.000001
0.003505 0.452184 1.000001
0.003505 0.357901 1.000001
0.456946 0.123302 1.000001
0.915405 0.106081 1.000001
1.000001 0.153713 1.000001
1.000001 0.412395 1.000001
1.000001 0.808567 1.000001
0.003505 0.845846 1.000001
0.003505 0.845598 1.000001
0.003505 0.842735 1.000001
0.003505 0.822692 1.000001
0.135095 0.777518 1.000001
0.817300 0.750589 1.000001
0.970141 0.734200 1.000001
1.000001 0.745761 1.000001
1.000001 0.835554 0.997494
0.023508 0.933668 1.000001
0.023640 0.933654 1.000001
0.025187 0.933503 1.000001
0.036863 0.932570 1.000001
0.147994 0.928899 0.999632
0.719991 0.920744 0.997316
0.924958 0.910838 0.994276
1.000001 0.904237 0.991353
1.000001 0.909733 0.988173
0.238699 0.989398 0.983772
0.239095 0.989396 0.983771
0.243672 0.989371 0.983756
0.276094 0.989210 0.983658
0.438702 0.988438 0.983191
0.694968 0.985919 0.981688
0.883350 0.981365 0.979074
0.976486 0.976494 0.976520
1.000001 0.972519 0.975187
0.659935 1.000001 0.971020
0.659997 1.000001 0.971020
0.660706 1.000001 0.971013
0.665307 1.000001 0.970973
0.687364 1.000001 0.970771
0.757680 1.000001 0.970002
0.867805 1.000001 0.968259
0.954871 1.000001 0.966206
1.000001 1.000001 0.965271
0.003505 0.003505 1.000001
0.003505 0.003505 1.000001
0.003505 0.003505 1.000001
0.003505 0.003505 1.000001
0.098037 0.003505 1.000001
1.000001 0.003505 1.000001
1.000001 0.003505 1.000001
1.000001 0.003505 1.000001
1.000001 0.330136 1.000001
0.003505 0.003505 1.000001
0.003505 0.003505 1.000001
0.003505 0.003505 1.000001
0.003505 0.003505 1.000001
0.097278 0.003505 1.000001
1.000001 0.003505 1.000001
1.000001 0.003505 1.000001
1.000001 0.003505 1.000001
1.000001 0.330530 1.000001
0.003505 0.003505 1.000001
0.003505 0.003505 1.000001
0.003505 0.003505 1.000001
0.003505 0.003505 1.000001
0.088930 0.003505 1.000001
1.000001 0.003505 1.000001
1.000001 0.003505 1.000001
1.000001 0.003505 1.000001
1.000001 0.335040 1.000001
0.003505 0.003505 1.000001
0.003505 0.003505 1.000001
0.003505 0.003505 1.000001
0.003505 0.003505 1.000001
0.047346 0.003505 1.000001
1.000001 0.003505 1.000001
1.000001 0.003505 1.000001
1.000001 0.004021 1.000001
1.000001 0.364971 1.000001
0.003505 0.003505 1.000001
0.003505 0.003505 1.000001
0.003505 0.003505 1.000001
0.003505 0.003505 1.000001
0.003505 0.003505 1.000001
1.000001 0.003505 1.000001
1.000001 0.003505 1.000001
1.000001 0.080448 1.000001
1.000001 0.505835 1.000001
0.003505 0.916735 1.000001
0.003505 0.916575 1.000001
0.003505 0.914715 1.000001
0.003505 0.901810 1.000001
0.003505 0.810963 1.000001
0.773359 0.633145 1.000001
0.970899 0.606774 1.000001
1.000001 0.641227 1.000001
1.000001 0.725726 1.000001
0.003505 0.953858 1.000001
0.003505 0.953737 1.000001
0.003505 0.952341 1.000001
0.003505 0.942674 1.000001
0.021074 0.914514 1.000001
0.634472 0.899581 1.000001
0.916762 0.886398 1.000001
0.999484 0.878794 1.000001
1.000001 0.881633 1.000001
0.094391 0.981608 1.000001
0.094551 0.981605 1.000001
0.096407 0.981568 1.000001
0.109244 0.981326 1.000001
0.196698 0.980205 1.000001
0.629247 0.976819 1.000001
0.871083 0.971250 1.000001
0.973319 0.965707 1.000001
1.000001 0.962086 1.000001
0.602881 1.000001 1.000001
0.602966 1.000001 1.000001
0.603935 1.000001 1.000001
0.610196 1.000001 1.000001
0.639682 1.000001 1.000001
0.728639 1.000001 1.000001
0.856546 1.000001 1.000001
0.950905 1.000001 1.000001
1.000001 1.000001 1.000001
