apps/lut-action/luts/IPP2_Med_Contrast.cube
TITLE "RWG_Log3G10 to REC709_BT1886 with MEDIUM_CONTRAST and ROLLOFF_4 size_33 for IPP2 by RED"
LUT_3D_SIZE 5
DOMAIN_MIN 0.000000 0.000000 0.000000
DOMAIN_MAX 1.000000 1.000000 1.000000
0.000000 0.000000 0.000000
0.345718 0.020700 0.030062
0.903565 0.152849 0.217408
1.000001 0.678599 0.719701
1.000001 0.932964 0.943729
0.003505 0.302317 0.004326
0.258723 0.285709 0.003793
0.893386 0.218141 0.189000
1.000001 0.676794 0.714887
1.000001 0.931389 0.942253
0.006125 0.781050 0.046410
0.011357 0.779572 0.045214
0.719598 0.755903 0.041816
1.000001 0.742296 0.653593
1.000001 0.922039 0.930342
0.134579 0.975594 0.493905
0.140758 0.975522 0.493686
0.474446 0.973231 0.488203
0.939375 0.960140 0.534102
1.000001 0.949310 0.889878
0.702205 1.000001 0.813797
0.702823 1.000001 0.813787
0.724425 1.000001 0.813428
0.880305 1.000001 0.811518
1.000001 1.000001 0.834186
0.018611 0.005135 0.310569
0.337827 0.004624 0.301579
0.898748 0.137188 0.310412
1.000001 0.673739 0.718549
1.000001 0.931726 0.942691
0.003505 0.265900 0.256949
0.247793 0.247799 0.247818
0.887600 0.197097 0.278679
1.000001 0.671453 0.713322
1.000001 0.930137 0.941203
0.005845 0.778462 0.076643
0.010552 0.776974 0.074793
0.718828 0.753362 0.067970
1.000001 0.740364 0.652412
1.000001 0.920352 0.928777
0.134184 0.975472 0.500331
0.140349 0.975399 0.500115
0.474029 0.973107 0.494659
0.939340 0.960025 0.538549
1.000001 0.948920 0.887629
0.702171 1.000001 0.814099
0.702790 1.000001 0.814088
0.724396 1.000001 0.813730
0.880294 1.000001 0.811812
1.000001 1.000001 0.834392
0.050967 0.009772 0.820238
0.222669 0.008491 0.818067
0.843437 0.016125 0.794590
1.000001 0.609539 0.777153
1.000001 0.919528 0.935178
0.025368 0.034161 0.809460
0.118274 0.029852 0.807308
0.833455 0.031626 0.787180
1.000001 0.607003 0.774922
1.000001 0.917793 0.933682
0.003721 0.733283 0.720155
0.004220 0.731415 0.719063
0.704565 0.704576 0.704613
1.000001 0.708818 0.738565
1.000001 0.908228 0.921530
0.121699 0.971569 0.650402
0.127426 0.971494 0.650237
0.460120 0.969138 0.645638
0.938178 0.956225 0.653988
1.000001 0.945959 0.878491
0.700959 1.000001 0.824848
0.701582 1.000001 0.824838
0.723309 1.000001 0.824475
0.879865 1.000001 0.822288
1.000001 1.000001 0.841835
0.007625 0.003721 1.000001
0.013799 0.003663 1.000001
0.918957 0.003505 1.000001
1.000001 0.070095 0.990927
1.000001 0.878688 0.961958
0.006110 0.003825 1.000001
0.010091 0.003825 1.000001
0.908078 0.003663 1.000001
1.000001 0.076049 0.990335
1.000001 0.876159 0.961669
0.003505 0.596588 0.996063
0.003505 0.587849 0.995520
0.637553 0.466551 0.988617
1.000001 0.470402 0.976841
1.000001 0.863167 0.958820
0.048188 0.948704 0.940807
0.051198 0.948601 0.940745
0.316944 0.945486 0.938887
0.930799 0.930809 0.930839
1.000001 0.929175 0.937505
0.685028 1.000001 0.914957
0.685703 1.000001 0.914948
0.709161 1.000001 0.914626
0.874621 1.000001 0.911581
1.000001 1.000001 0.913031
0.003505 0.003505 1.000001
0.003505 0.003505 1.000001
0.098037 0.003505 1.000001
1.000001 0.003505 1.000001
1.000001 0.330136 1.000001
0.003505 0.003505 1.000001
0.003505 0.003505 1.000001
0.088930 0.003505 1.000001
1.000001 0.003505 1.000001
1.000001 0.335040 1.000001
0.003505 0.003505 1.000001
0.003505 0.003505 1.000001
0.003505 0.003505 1.000001
1.000001 0.003505 1.000001
1.000001 0.505835 1.000001
0.003505 0.953858 1.000001
0.003505 0.952341 1.000001
0.021074 0.914514 1.000001
0.916762 0.886398 1.000001
1.000001 0.881633 1.000001
0.602881 1.000001 1.000001
0.603935 1.000001 1.000001
0.639682 1.000001 1.000001
0.856546 1.000001 1.000001
1.000001 1.000001 1.000001
