apps/lut-action/luts/IPP2_Med_Contrast.cube
TITLE "RWG_Log3G10 to REC709_BT1886 with MEDIUM_CONTRAST and ROLLOFF_4 size_33 for IPP2 by RED"
LUT_3D_SIZE 33
DOMAIN_MIN 0.000000 0.000000 0.000000
DOMAIN_MAX 1.000000 1.000000 1.000000
0.000000 0.000000 0.000000
0.000001 0.000000 0.000000
0.019254 0.003505 0.003505
0.066558 0.003505 0.003505
0.098135 0.003505 0.003505
0.143250 0.004092 0.004558
0.199526 0.006937 0.009838
0.268326 0.013287 0.019647
0.345718 0.020700 0.030062
0.424222 0.028547 0.041029
0.509467 0.037902 0.054075
0.595026 0.048963 0.069479
0.672632 0.061618 0.087100
0.742629 0.076854 0.108371
0.805054 0.096025 0.135335
0.858433 0.120420 0.170129
0.903565 0.152849 0.217408
0.940504 0.197300 0.284154
0.969138 0.258686 0.361955
0.991134 0.343113 0.437046
1.000001 0.428028 0.506498
1.000001 0.502661 0.568969
1.000001 0.569533 0.625766
1.000001 0.627842 0.675804
1.000001 0.678599 0.719701
1.000001 0.723537 0.758806
1.000001 0.764029 0.794223
1.000001 0.801024 0.826726
1.000001 0.834203 0.855991
1.000001 0.863757 0.882148
1.000001 0.889906 0.905362
1.000001 0.912891 0.925820
1.000001 0.932964 0.943729
0.000000 0.000000 0.000000
0.000000 0.000000 0.000000
0.000071 0.000000 0.000000
0.060547 0.003505 0.003505
0.094591 0.003505 0.003505
0.140936 0.004763 0.004220
0.197787 0.008862 0.008730
0.266871 0.015795 0.018436
0.344590 0.022997 0.028973
0.423357 0.030567 0.040087
0.508830 0.039617 0.053286
0.594570 0.050406 0.068825
0.671842 0.062752 0.086432
0.741991 0.077783 0.107764
0.804548 0.096772 0.134762
0.858339 0.121174 0.169803
0.903506 0.153506 0.217126
0.940084 0.197281 0.282990
0.969117 0.259235 0.361808
0.991121 0.343555 0.436961
1.000001 0.427370 0.505697
1.000001 0.502804 0.568939
1.000001 0.568924 0.625154
1.000001 0.627289 0.675271
1.000001 0.678631 0.719694
1.000001 0.723557 0.758801
1.000001 0.764041 0.794220
1.000001 0.801031 0.826724
1.000001 0.834208 0.855990
1.000001 0.863760 0.882147
1.000001 0.889908 0.905361
1.000001 0.912892 0.925820
1.000001 0.932965 0.943729
0.000000 0.000039 0.000000
0.000000 0.000026 0.000000
0.000004 0.000015 0.000000
0.050642 0.003505 0.003505
0.089419 0.004220 0.003505
0.137681 0.007595 0.003917
0.195371 0.013634 0.007508
0.264857 0.020048 0.016842
0.343032 0.026582 0.027514
0.422174 0.033557 0.038825
0.507415 0.042026 0.052133
0.593433 0.052376 0.067835
0.670930 0.064378 0.085567
0.741688 0.079224 0.107141
0.803986 0.097861 0.134049
0.857605 0.121881 0.168867
0.902935 0.153969 0.216079
0.940035 0.198095 0.282650
0.968794 0.259143 0.360711
0.990888 0.343140 0.436014
1.000001 0.427711 0.505628
1.000001 0.503000 0.568897
1.000001 0.569041 0.625129
1.000001 0.627359 0.675255
1.000001 0.678674 0.719684
1.000001 0.723584 0.758795
1.000001 0.764059 0.794216
1.000001 0.800279 0.826050
1.000001 0.833532 0.855386
1.000001 0.863158 0.881610
1.000001 0.889911 0.905360
1.000001 0.912894 0.925820
1.000001 0.932966 0.943729
0.003505 0.051890 0.003505
0.003505 0.050430 0.003505
0.003505 0.048319 0.003505
0.029440 0.045194 0.003505
0.081630 0.039670 0.003505
0.133073 0.026502 0.003663
0.192016 0.024860 0.006266
0.262094 0.027780 0.014804
0.340907 0.032362 0.025612
0.420011 0.038043 0.037075
0.506230 0.045628 0.050715
0.592068 0.055218 0.066542
0.669856 0.066702 0.084442
0.740435 0.081031 0.105997
0.803348 0.099427 0.133147
0.857426 0.123327 0.168258
0.902823 0.155225 0.215551
0.939581 0.198614 0.281267
0.968753 0.260187 0.360432
0.990864 0.343978 0.435851
1.000001 0.427279 0.504780
1.000001 0.502478 0.568168
1.000001 0.568507 0.624500
1.000001 0.626852 0.674712
1.000001 0.678208 0.719213
1.000001 0.723155 0.758379
1.000001 0.763659 0.793839
1.000001 0.800294 0.826046
1.000001 0.833542 0.855383
1.000001 0.863164 0.881608
1.000001 0.889380 0.904885
1.000001 0.912896 0.925819
1.000001 0.932967 0.943728
0.003505 0.083852 0.003505
0.003505 0.083081 0.003505
0.003505 0.082002 0.003505
0.003825 0.080491 0.003505
0.067248 0.078083 0.003505
0.125603 0.072319 0.003505
0.186753 0.060485 0.005019
0.257812 0.046026 0.011987
0.337608 0.043870 0.022851
0.417513 0.046301 0.034597
0.503843 0.051777 0.048488
0.590230 0.059996 0.064628
0.668444 0.070547 0.082785
0.739366 0.084172 0.104545
0.802189 0.101886 0.131662
0.856539 0.125299 0.166820
0.902155 0.156780 0.214066
0.939085 0.199794 0.279617
0.968394 0.260996 0.359094
0.990610 0.344280 0.434763
1.000001 0.427121 0.503874
1.000001 0.502114 0.567404
1.000001 0.568761 0.624444
1.000001 0.627006 0.674678
1.000001 0.677777 0.718734
1.000001 0.722748 0.757957
1.000001 0.763696 0.793830
1.000001 0.800317 0.826040
1.000001 0.833556 0.855380
1.000001 0.863173 0.881606
1.000001 0.889385 0.904884
1.000001 0.912431 0.925402
1.000001 0.932562 0.943364
0.003505 0.125619 0.003505
0.003505 0.125135 0.003505
0.003505 0.124465 0.003505
0.003505 0.123541 0.003505
0.011524 0.122103 0.003505
0.106797 0.118814 0.003505
0.174500 0.112800 0.003825
0.248064 0.102885 0.007368
0.330055 0.087296 0.017358
0.411817 0.072450 0.029416
0.499091 0.069243 0.043798
0.586688 0.072670 0.060560
0.665335 0.080315 0.079125
0.737022 0.091970 0.101316
0.800451 0.108227 0.128769
0.855273 0.130517 0.164156
0.901247 0.161118 0.211500
0.938442 0.203442 0.276989
0.967946 0.264084 0.357154
0.990083 0.345371 0.432485
1.000001 0.427971 0.502759
1.000001 0.502333 0.566514
1.000001 0.567976 0.623120
1.000001 0.626764 0.674073
1.000001 0.677475 0.718224
1.000001 0.722422 0.757516
1.000001 0.763360 0.793438
1.000001 0.799608 0.825354
1.000001 0.832906 0.854768
1.000001 0.862587 0.881063
1.000001 0.888863 0.904405
1.000001 0.912439 0.925400
1.000001 0.932566 0.943363
0.003505 0.175392 0.003505
0.003505 0.175036 0.003505
0.003505 0.174544 0.003505
0.003505 0.173875 0.003505
0.004079 0.172841 0.003505
0.056545 0.170503 0.003505
0.150956 0.166326 0.003505
0.230360 0.159751 0.004343
0.316223 0.150347 0.009896
0.401464 0.137460 0.021525
0.490325 0.118443 0.036168
0.579585 0.103495 0.053575
0.659926 0.102256 0.072867
0.732963 0.108631 0.095703
0.797459 0.121397 0.123682
0.852799 0.141055 0.159201
0.899460 0.169762 0.206653
0.937170 0.210637 0.271945
0.967056 0.270118 0.353333
0.989691 0.350262 0.430476
1.000001 0.430415 0.501308
1.000001 0.502708 0.564742
1.000001 0.568439 0.622268
1.000001 0.626258 0.672866
1.000001 0.677382 0.717665
1.000001 0.722227 0.757044
1.000001 0.762683 0.792652
1.000001 0.799714 0.825329
1.000001 0.832972 0.854752
1.000001 0.862627 0.881053
1.000001 0.888887 0.904399
1.000001 0.911985 0.924978
1.000001 0.932167 0.942996
0.003505 0.234223 0.003850
0.003505 0.233930 0.003850
0.003505 0.233532 0.003825
0.003505 0.232992 0.003825
0.003721 0.232159 0.003793
0.007151 0.230279 0.003721
0.105266 0.226936 0.003721
0.201333 0.221721 0.003663
0.293467 0.214391 0.004930
0.384694 0.204651 0.012259
0.476803 0.191315 0.026148
0.569562 0.173543 0.043973
0.651977 0.153762 0.063847
0.726631 0.144107 0.087252
0.792801 0.147845 0.115850
0.849439 0.161835 0.151837
0.897092 0.186683 0.199540
0.935528 0.224882 0.264753
0.965940 0.282448 0.347984
0.988942 0.358382 0.426728
1.000001 0.434452 0.498562
1.000001 0.504559 0.562643
1.000001 0.569097 0.620616
1.000001 0.626293 0.671533
1.000001 0.677096 0.716568
1.000001 0.721775 0.756113
1.000001 0.762136 0.791834
1.000001 0.799137 0.824609
1.000001 0.832404 0.854119
1.000001 0.862091 0.880496
1.000001 0.888395 0.903911
1.000001 0.911541 0.924552
1.000001 0.932183 0.942992
0.003505 0.302317 0.004326
0.003505 0.302078 0.004316
0.003505 0.301752 0.004298
0.003505 0.301310 0.004279
0.003663 0.300626 0.004250
0.004449 0.299077 0.004176
0.023151 0.296304 0.004064
0.154982 0.291933 0.003917
0.258723 0.285709 0.003793
0.359625 0.277316 0.005649
0.457258 0.265938 0.015458
0.554045 0.250913 0.032297
0.639764 0.234172 0.052202
0.717000 0.216982 0.075887
0.785645 0.202943 0.104922
0.844225 0.202160 0.141223
0.893386 0.218141 0.189000
0.932947 0.250692 0.253887
0.964182 0.303772 0.339423
0.987765 0.371388 0.420771
1.000001 0.440437 0.493446
1.000001 0.507830 0.559360
1.000001 0.570404 0.618055
1.000001 0.626545 0.669479
1.000001 0.676794 0.714887
1.000001 0.721178 0.754693
1.000001 0.761368 0.790592
1.000001 0.797921 0.823178
1.000001 0.831228 0.852855
1.000001 0.861600 0.879926
1.000001 0.887929 0.903415
1.000001 0.911114 0.924121
1.000001 0.931389 0.942253
0.003505 0.373263 0.005047
0.003505 0.373083 0.005033
0.003505 0.372837 0.005014
0.003663 0.372503 0.004985
0.003721 0.371986 0.004945
0.004037 0.370813 0.004862
0.007317 0.368700 0.004729
0.062034 0.365348 0.004537
0.208438 0.360540 0.004326
0.322954 0.354008 0.004118
0.426893 0.345395 0.006762
0.532114 0.333028 0.020119
0.622154 0.318750 0.038765
0.703685 0.302595 0.062198
0.775323 0.286999 0.091014
0.836645 0.276597 0.127201
0.887407 0.278087 0.173971
0.929150 0.297985 0.238702
0.961266 0.336900 0.325359
0.985795 0.390775 0.410924
1.000001 0.451685 0.487036
1.000001 0.513669 0.554596
1.000001 0.573101 0.614395
1.000001 0.627489 0.666582
1.000001 0.676773 0.712542
1.000001 0.720628 0.752735
1.000001 0.760917 0.789269
1.000001 0.797665 0.822376
1.000001 0.830857 0.852168
1.000001 0.860575 0.878792
1.000001 0.886970 0.902423
1.000001 0.910240 0.923258
1.000001 0.931021 0.941874
0.003663 0.442679 0.006168
0.003663 0.442543 0.006150
0.003663 0.442359 0.006125
0.003663 0.442108 0.006097
0.003721 0.441719 0.006051
0.003955 0.440832 0.005952
0.005166 0.439223 0.005784
0.018434 0.436645 0.005543
0.129362 0.432909 0.005260
0.269826 0.427775 0.004950
0.387066 0.421145 0.004668
0.494676 0.412128 0.008840
0.598576 0.399822 0.025322
0.684875 0.386192 0.047065
0.760734 0.371633 0.074820
0.825449 0.358901 0.109897
0.879818 0.352516 0.156078
0.923367 0.358432 0.218305
0.957256 0.380624 0.305102
0.983090 0.419045 0.397040
1.000001 0.469024 0.477943
1.000001 0.523402 0.547949
1.000001 0.577529 0.608741
1.000001 0.629748 0.662675
1.000001 0.677443 0.709425
1.000001 0.720390 0.750168
1.000001 0.760112 0.787066
1.000001 0.796192 0.820126
1.000001 0.829305 0.850202
1.000001 0.859052 0.877074
1.000001 0.886078 0.901410
1.000001 0.909406 0.922379
1.000001 0.929850 0.940744
0.003663 0.510287 0.008079
0.003721 0.510187 0.008059
0.003721 0.510051 0.008032
0.003721 0.509865 0.007997
0.003793 0.509577 0.007941
0.003990 0.508916 0.007817
0.004674 0.507708 0.007606
0.008875 0.505750 0.007296
0.041103 0.502872 0.006906
0.193620 0.498864 0.006468
0.334956 0.493615 0.006035
0.450602 0.486922 0.005663
0.554400 0.478180 0.011679
0.657826 0.465907 0.031505
0.740677 0.452816 0.057376
0.810434 0.439710 0.090651
0.868201 0.429335 0.134052
0.915016 0.425987 0.193104
0.951774 0.434579 0.277356
0.979384 0.457678 0.377523
0.999464 0.493597 0.463374
1.000001 0.537891 0.537227
1.000001 0.585865 0.601251
1.000001 0.633324 0.656338
1.000001 0.679020 0.704859
1.000001 0.720490 0.746440
1.000001 0.759270 0.783892
1.000001 0.795215 0.817738
1.000001 0.828059 0.848146
1.000001 0.857714 0.875294
1.000001 0.884757 0.899872
1.000001 0.908160 0.921048
1.000001 0.928713 0.939594
0.003793 0.573931 0.011482
0.003825 0.573860 0.011460
0.003825 0.573760 0.011429
0.003850 0.573625 0.011388
0.003917 0.573415 0.011325
0.004092 0.572929 0.011180
0.004598 0.572035 0.010925
0.006639 0.570567 0.010526
0.019205 0.568376 0.009979
0.082627 0.565277 0.009324
0.260685 0.561153 0.008647
0.401071 0.555812 0.008026
0.511549 0.549261 0.007569
0.612311 0.540673 0.016139
0.713518 0.528495 0.040293
0.790857 0.516128 0.071171
0.853732 0.504449 0.111527
0.904568 0.496115 0.166498
0.944445 0.495171 0.244922
0.974386 0.505336 0.350781
0.996143 0.527711 0.444771
1.000001 0.560316 0.523855
1.000001 0.599501 0.591386
1.000001 0.641013 0.648857
1.000001 0.682850 0.699065
1.000001 0.721970 0.741802
1.000001 0.759207 0.780012
1.000001 0.794241 0.814445
1.000001 0.826604 0.845326
1.000001 0.856661 0.873429
1.000001 0.883063 0.897782
1.000001 0.907015 0.919678
1.000001 0.927632 0.938416
0.003990 0.633073 0.016462
0.004021 0.633021 0.016441
0.004037 0.632951 0.016414
0.004079 0.632854 0.016376
0.004141 0.632702 0.016318
0.004307 0.632352 0.016184
0.004752 0.631701 0.015941
0.006122 0.630618 0.015555
0.012385 0.628977 0.015009
0.038305 0.626615 0.014301
0.153884 0.623416 0.013482
0.334059 0.619202 0.012630
0.464879 0.613945 0.011900
0.569299 0.607613 0.011502
0.666074 0.599245 0.022528
0.763770 0.587267 0.052160
0.835044 0.575661 0.089558
0.890962 0.565329 0.139598
0.934351 0.558852 0.209884
0.967399 0.559535 0.313552
0.991440 0.570000 0.418922
1.000001 0.590570 0.505240
1.000001 0.619448 0.577686
1.000001 0.653628 0.639159
1.000001 0.689657 0.691155
1.000001 0.725667 0.736001
1.000001 0.760522 0.775257
1.000001 0.794408 0.810839
1.000001 0.825873 0.842298
1.000001 0.854843 0.870298
1.000001 0.881640 0.895598
1.000001 0.905072 0.917371
1.000001 0.926225 0.936818
0.004352 0.687483 0.023400
0.004377 0.687447 0.023381
0.004393 0.687397 0.023356
0.004442 0.687328 0.023322
0.004509 0.687221 0.023269
0.004687 0.686972 0.023146
0.005121 0.686506 0.022919
0.006260 0.685723 0.022552
0.010182 0.684518 0.022017
0.023983 0.682750 0.021296
0.070393 0.680310 0.020421
0.239629 0.677034 0.019454
0.404260 0.672875 0.018553
0.525634 0.667777 0.017941
0.623503 0.661714 0.017943
0.715005 0.653681 0.031555
0.808627 0.641953 0.068292
0.872160 0.631384 0.113173
0.921262 0.622310 0.176083
0.958578 0.617213 0.270234
0.985430 0.618892 0.386642
1.000001 0.628909 0.482044
1.000001 0.647270 0.560720
1.000001 0.672409 0.626584
1.000001 0.701554 0.681663
1.000001 0.732641 0.728688
1.000001 0.764032 0.769384
1.000001 0.795574 0.806036
1.000001 0.825597 0.838307
1.000001 0.854324 0.867530
1.000001 0.880107 0.892768
1.000001 0.903864 0.915411
1.000001 0.924967 0.935160
0.004970 0.736749 0.033024
0.004999 0.736724 0.033007
0.005033 0.736689 0.032984
0.005085 0.736641 0.032953
0.005161 0.736567 0.032905
0.005367 0.736393 0.032794
0.005835 0.736064 0.032586
0.006937 0.735507 0.032242
0.010051 0.734638 0.031728
0.018980 0.733340 0.031011
0.043519 0.731513 0.030101
0.125152 0.729010 0.029036
0.324610 0.725769 0.027964
0.471195 0.721722 0.027103
0.583247 0.716824 0.026792
0.673598 0.711105 0.027556
0.759420 0.703441 0.044466
0.847604 0.692128 0.090003
0.903985 0.682509 0.145399
0.946339 0.674628 0.226589
0.977230 0.670691 0.345283
0.998932 0.672685 0.451830
1.000001 0.681673 0.538260
1.000001 0.697550 0.609778
1.000001 0.719026 0.669541
1.000001 0.743918 0.719438
1.000001 0.770665 0.762079
1.000001 0.798534 0.799778
1.000001 0.826941 0.833852
1.000001 0.853685 0.863281
1.000001 0.879234 0.889730
1.000001 0.902577 0.912870
1.000001 0.923524 0.933020
0.006125 0.781050 0.046410
0.006155 0.781032 0.046395
0.006201 0.781009 0.046375
0.006266 0.780976 0.046347
0.006368 0.780924 0.046304
0.006623 0.780804 0.046203
0.007173 0.780577 0.046015
0.008402 0.780187 0.045698
0.011357 0.779572 0.045214
0.018007 0.778638 0.044518
0.033630 0.777298 0.043598
0.076080 0.775424 0.042463
0.216825 0.772945 0.041234
0.403453 0.769787 0.040116
0.534461 0.765893 0.039444
0.636665 0.761263 0.039737
0.719598 0.755903 0.041816
0.799004 0.748689 0.062766
0.880821 0.737939 0.119375
0.930198 0.729283 0.189138
0.966243 0.722474 0.296193
0.991593 0.719331 0.415753
1.000001 0.721221 0.510733
1.000001 0.728916 0.588808
1.000001 0.742296 0.653593
1.000001 0.760152 0.707221
1.000001 0.781410 0.752941
1.000001 0.804841 0.792510
1.000001 0.830003 0.828040
1.000001 0.855161 0.859174
1.000001 0.878849 0.885856
1.000001 0.901446 0.909661
1.000001 0.922039 0.930342
0.008395 0.820052 0.064799
0.008440 0.820040 0.064786
0.008504 0.820024 0.064768
0.008590 0.820001 0.064743
0.008732 0.819966 0.064705
0.009081 0.819884 0.064614
0.009823 0.819728 0.064444
0.011307 0.819458 0.064155
0.014095 0.819028 0.063706
0.019586 0.818367 0.063043
0.031044 0.817402 0.062135
0.057882 0.816023 0.060963
0.129203 0.814159 0.059611
0.320267 0.811734 0.058253
0.477222 0.808683 0.057205
0.593698 0.804988 0.056979
0.686429 0.800633 0.058356
0.760975 0.795706 0.062544
0.833997 0.788948 0.088789
0.908803 0.778867 0.159954
0.951871 0.771088 0.251457
0.981832 0.765287 0.375201
1.000001 0.762661 0.479223
1.000001 0.764290 0.564744
1.000001 0.770718 0.634878
1.000001 0.781703 0.692738
1.000001 0.796696 0.741631
1.000001 0.815053 0.783976
1.000001 0.835560 0.820577
1.000001 0.857694 0.853190
1.000001 0.879884 0.881547
1.000001 0.901231 0.906159
1.000001 0.921123 0.927466
0.012954 0.854236 0.090217
0.013009 0.854228 0.090206
0.013086 0.854217 0.090190
0.013191 0.854202 0.090167
0.013358 0.854178 0.090133
0.013757 0.854122 0.090051
0.014547 0.854016 0.089897
0.016012 0.853831 0.089634
0.018644 0.853535 0.089220
0.023505 0.853073 0.088596
0.032799 0.852390 0.087716
0.052247 0.851394 0.086534
0.096680 0.850020 0.085095
0.219938 0.848192 0.083529
0.411867 0.845842 0.082117
0.545069 0.842938 0.081348
0.648708 0.839452 0.081982
0.731263 0.835437 0.085158
0.798047 0.830927 0.092710
0.863692 0.824754 0.125422
0.931917 0.815353 0.217437
0.968733 0.808501 0.334379
0.993959 0.803445 0.445431
1.000001 0.801135 0.536269
1.000001 0.802341 0.612403
1.000001 0.807490 0.675408
1.000001 0.816478 0.727893
1.000001 0.829145 0.773032
1.000001 0.845169 0.812670
1.000001 0.863443 0.846989
1.000001 0.882837 0.876653
1.000001 0.902310 0.902257
1.000001 0.921040 0.924319
0.019879 0.883414 0.124952
0.019936 0.883409 0.124941
0.020015 0.883401 0.124927
0.020124 0.883391 0.124906
0.020296 0.883375 0.124875
0.020705 0.883337 0.124801
0.021508 0.883264 0.124660
0.022969 0.883138 0.124417
0.025520 0.882934 0.124031
0.030033 0.882613 0.123442
0.038146 0.882133 0.122591
0.053778 0.881422 0.121411
0.085833 0.880422 0.119909
0.160667 0.879062 0.118166
0.342351 0.877274 0.116414
0.493634 0.875018 0.115109
0.608269 0.872257 0.114990
0.698943 0.869021 0.117179
0.772154 0.865323 0.123386
0.830409 0.861294 0.136123
0.890158 0.855566 0.179702
0.950875 0.846982 0.301191
0.982493 0.840904 0.413906
1.000001 0.836518 0.508162
1.000001 0.834429 0.588471
1.000001 0.835251 0.655335
1.000001 0.839331 0.711990
1.000001 0.846761 0.760067
1.000001 0.857563 0.801880
1.000001 0.871716 0.839121
1.000001 0.887649 0.870441
1.000001 0.904618 0.897330
1.000001 0.921681 0.920377
0.030219 0.908831 0.174874
0.030277 0.908827 0.174864
0.030358 0.908822 0.174850
0.030470 0.908815 0.174830
0.030647 0.908805 0.174802
0.031066 0.908779 0.174731
0.031881 0.908730 0.174599
0.033348 0.908644 0.174369
0.035859 0.908505 0.174001
0.040170 0.908285 0.173432
0.047595 0.907953 0.172598
0.061064 0.907454 0.171410
0.086552 0.906739 0.169838
0.139593 0.905748 0.167918
0.273209 0.904416 0.165820
0.441866 0.902698 0.163959
0.566206 0.900549 0.163052
0.664365 0.897982 0.164238
0.743837 0.894999 0.169219
0.807283 0.891694 0.180397
0.859257 0.888029 0.202468
0.912368 0.882851 0.262926
0.966382 0.875049 0.389749
0.993282 0.869710 0.483227
1.000001 0.865831 0.564804
1.000001 0.863904 0.634349
1.000001 0.864344 0.694411
1.000001 0.867523 0.745663
1.000001 0.873772 0.790484
1.000001 0.883078 0.829284
1.000001 0.895009 0.862621
1.000001 0.909114 0.891692
1.000001 0.923892 0.915929
0.045122 0.930361 0.247938
0.045182 0.930358 0.247929
0.045265 0.930355 0.247915
0.045379 0.930350 0.247896
0.045560 0.930343 0.247867
0.045987 0.930326 0.247799
0.046814 0.930292 0.247669
0.048291 0.930234 0.247441
0.050789 0.930139 0.247077
0.054995 0.929989 0.246507
0.062030 0.929760 0.245660
0.074276 0.929412 0.244429
0.096172 0.928907 0.242752
0.138264 0.928194 0.240615
0.231193 0.927215 0.238127
0.397317 0.925924 0.235652
0.527043 0.924275 0.233888
0.630365 0.922263 0.234030
0.714903 0.919881 0.237869
0.783004 0.917201 0.247905
0.839189 0.914181 0.268705
0.884285 0.910930 0.302260
0.931014 0.906304 0.360623
0.978943 0.899245 0.465140
1.000001 0.894549 0.544371
1.000001 0.891125 0.614625
1.000001 0.889291 0.676229
1.000001 0.889427 0.729753
1.000001 0.891967 0.777243
1.000001 0.897192 0.818314
1.000001 0.905123 0.853764
1.000001 0.915638 0.884682
1.000001 0.927622 0.910387
0.065736 0.948144 0.342990
0.065798 0.948142 0.342983
0.065883 0.948140 0.342974
0.065999 0.948136 0.342961
0.066184 0.948131 0.342940
0.066619 0.948120 0.342893
0.067461 0.948097 0.342803
0.068957 0.948057 0.342646
0.071466 0.947992 0.342390
0.075640 0.947888 0.341987
0.082495 0.947728 0.341379
0.094111 0.947485 0.340475
0.114115 0.947128 0.339206
0.150569 0.946616 0.337508
0.224433 0.945900 0.335393
0.368700 0.944937 0.333049
0.496256 0.943680 0.330935
0.600599 0.942114 0.329952
0.687825 0.940223 0.331431
0.759265 0.938059 0.336971
0.818951 0.935586 0.348502
0.867319 0.932884 0.367266
0.905467 0.930067 0.393051
0.946884 0.925900 0.440784
0.989300 0.919514 0.530319
1.000001 0.915376 0.598395
1.000001 0.912324 0.659828
1.000001 0.910623 0.713866
1.000001 0.910579 0.763006
1.000001 0.912691 0.806742
1.000001 0.917164 0.844103
1.000001 0.924201 0.876887
1.000001 0.933392 0.904713
0.094784 0.963218 0.425287
0.094848 0.963217 0.425282
0.094935 0.963216 0.425277
0.095056 0.963213 0.425270
0.095246 0.963210 0.425259
0.095694 0.963202 0.425230
0.096561 0.963186 0.425177
0.098095 0.963159 0.425085
0.100658 0.963114 0.424934
0.104887 0.963042 0.424696
0.111755 0.962932 0.424333
0.123197 0.962762 0.423788
0.142419 0.962511 0.423007
0.176202 0.962146 0.421931
0.240767 0.961629 0.420529
0.361556 0.960920 0.418853
0.477611 0.959974 0.417095
0.577509 0.958771 0.415712
0.664073 0.957290 0.415450
0.736883 0.955563 0.417334
0.798935 0.953556 0.422708
0.849980 0.951333 0.432826
0.890695 0.948985 0.448247
0.923874 0.946487 0.469668
0.960127 0.942788 0.509639
0.997679 0.937028 0.587406
1.000001 0.933375 0.646231
1.000001 0.930649 0.699850
1.000001 0.929023 0.748870
1.000001 0.928875 0.794319
1.000001 0.930649 0.833927
1.000001 0.934617 0.868379
1.000001 0.940634 0.897270
0.134579 0.975594 0.493905
0.134646 0.975593 0.493902
0.134739 0.975592 0.493899
0.134867 0.975591 0.493895
0.135067 0.975589 0.493887
0.135541 0.975583 0.493871
0.136454 0.975572 0.493838
0.138069 0.975553 0.493780
0.140758 0.975522 0.493686
0.145180 0.975471 0.493536
0.152310 0.975394 0.493308
0.164070 0.975275 0.492961
0.183521 0.975096 0.492457
0.216891 0.974836 0.491747
0.278195 0.974461 0.490791
0.376951 0.973940 0.489587
0.474446 0.973231 0.488203
0.564545 0.972312 0.486873
0.646582 0.971157 0.486011
0.718163 0.969784 0.486267
0.780878 0.968162 0.488527
0.833558 0.966340 0.493789
0.876236 0.964390 0.502754
0.911434 0.962290 0.516272
0.939375 0.960140 0.534102
0.971750 0.956780 0.569165
1.000001 0.951580 0.637727
1.000001 0.948344 0.689113
1.000001 0.945874 0.737128
1.000001 0.944361 0.782233
1.000001 0.944201 0.822428
1.000001 0.945788 0.858909
1.000001 0.949310 0.889878
0.192055 0.986080 0.554089
0.192129 0.986079 0.554088
0.192230 0.986079 0.554085
0.192371 0.986077 0.554083
0.192593 0.986076 0.554078
0.193112 0.986072 0.554066
0.194119 0.986064 0.554046
0.195893 0.986051 0.554009
0.198844 0.986029 0.553948
0.203682 0.985994 0.553853
0.211453 0.985940 0.553706
0.224180 0.985856 0.553480
0.245009 0.985730 0.553148
0.280125 0.985544 0.552674
0.338230 0.985275 0.552020
0.410410 0.984894 0.551162
0.486474 0.984370 0.550113
0.562746 0.983676 0.548981
0.636571 0.982786 0.547990
0.704080 0.981708 0.547538
0.765413 0.980411 0.548187
0.818398 0.978931 0.550666
0.862242 0.977325 0.555605
0.898987 0.975577 0.563772
0.928526 0.973766 0.575323
0.952854 0.971861 0.590758
0.981188 0.968880 0.621063
1.000001 0.964191 0.681676
1.000001 0.961248 0.727819
1.000001 0.959009 0.770938
1.000001 0.957617 0.811958
1.000001 0.957470 0.848867
1.000001 0.958905 0.881591
0.275509 0.994688 0.605725
0.275594 0.994688 0.605724
0.275712 0.994688 0.605722
0.275875 0.994687 0.605720
0.276132 0.994686 0.605718
0.276736 0.994683 0.605710
0.277901 0.994677 0.605696
0.279952 0.994668 0.605672
0.283336 0.994653 0.605633
0.288822 0.994628 0.605569
0.297473 0.994589 0.605471
0.311227 0.994530 0.605320
0.332674 0.994440 0.605097
0.364215 0.994306 0.604774
0.404692 0.994111 0.604318
0.453754 0.993833 0.603706
0.510436 0.993444 0.602922
0.571819 0.992922 0.602013
0.635166 0.992239 0.601090
0.696222 0.991396 0.600397
0.754108 0.990364 0.600280
0.805852 0.989165 0.601252
0.849806 0.987846 0.603819
