apps/lut-action/luts/JD_ARRI.cube
TITLE "Generate by Resolve"
LUT_3D_SIZE 33
0 0 0
0 0 0
0 0 0
0 0 0
0 0 0
0 0 0
0.00402838 0.00134279 0.00131228
0.0136873 0.00300603 0.00326543
0.0276341 0.00396735 0.0047303
0.0464942 0.00433356 0.00572213
0.0697795 0.00425727 0.00634775
0.0968338 0.00375372 0.00665293
0.130846 0.00285344 0.00672923
0.175967 0.00163272 0.0069276
0.235782 0.000427253 0.00755322
0.319509 0 0.00933852
0.422858 0 0.0132143
0.532509 0 0.0194553
0.643366 0 0.0299077
0.753048 0 0.0436408
0.859663 0 0.0599527
0.959304 0 0.0762951
1 0 0.089128
1 0 0.0979171
1 0 0.103441
1 0 0.106676
1 0 0.108522
1 0 0.109316
1 0 0.109728
1 0 0.110109
1 0 0.110811
1 0 0.111101
1 0 0.111101
0 0 0
0 0 0
0 0 0
0.00430304 0.00265507 0.00195315
0.0104982 0.00503548 0.00369268
0.0191501 0.00683604 0.00485237
0.0318761 0.00802625 0.00563058
0.0491646 0.00872816 0.00598154
0.0699779 0.00894179 0.00598154
0.0943465 0.00872816 0.00572213
0.124666 0.00787366 0.00521859
0.163363 0.00639353 0.00469978
0.21413 0.00386053 0.00463874
0.283116 0.000793469 0.00538643
0.371206 0 0.00781262
0.470756 0 0.0139925
0.572274 0 0.0222324
0.673503 0 0.033051
0.77322 0 0.0462501
0.86891 0 0.061387
0.9579 0 0.0760662
1 0 0.0878309
1 0 0.0959335
1 0 0.101518
1 0 0.105165
1 0 0.107256
1 0 0.108598
1 0 0.1093
1 0 0.109712
1 0 0.110094
1 0 0.11078
1 0 0.111101
1 0 0.111101
0.00254826 0.00468452 0.00267033
0.00552377 0.0078584 0.0040589
0.00958267 0.0105592 0.00497444
0.0158846 0.0126802 0.00544747
0.0265965 0.0146181 0.0055848
0.0410163 0.0162509 0.00540169
0.0591897 0.0173342 0.00492866
0.0808881 0.0179446 0.00422675
0.106645 0.0178073 0.00332647
0.139422 0.0168002 0.0021973
0.180545 0.0146334 0.00123598
0.233356 0.0104219 0.00143435
0.303624 0.00442512 0.00373846
0.390692 0.000946059 0.00787366
0.484001 0 0.0138094
0.57821 0 0.0215915
0.671382 0 0.0316167
0.761929 0 0.0434577
0.84889 0 0.0567941
0.929702 0 0.0702831
0.986908 0 0.0817578
1 0 0.0903029
1 0 0.0965438
1 0 0.101183
1 0 0.104479
1 0 0.106569
1 0 0.10782
1 0 0.108507
1 0 0.108949
1 0 0.109392
1 0 0.110033
1 0 0.110307
1 0 0.110323
0.00271611 0.0194553 0.0052491
0.00590524 0.0228122 0.00515755
0.0107424 0.0256657 0.00479133
0.022034 0.0280156 0.00422675
0.0369421 0.0298924 0.00344854
0.0555428 0.031342 0.00251774
0.0778515 0.0322881 0.00140383
0.104097 0.0325017 0.000213626
0.136599 0.0314794 0
0.176669 0.0293889 0
0.227192 0.025452 0.000335698
0.293446 0.0184482 0.00204471
0.373709 0.00741588 0.00552377
0.461387 0.00077821 0.0107881
0.548959 0 0.0176089
0.635081 0 0.0259861
0.718318 0 0.0357671
0.797436 0 0.0470741
0.87097 0 0.0589303
0.940826 0 0.0707256
0.988708 0 0.0810407
1 0 0.0892653
1 0 0.0955673
1 0 0.10013
1 0 0.103365
1 0 0.105516
1 0 0.106752
1 0 0.107424
1 0 0.107866
1 0 0.108309
1 0 0.108949
1 0 0.109194
1 0 0.109209
7.62951e-05 0.0408179 0.00343328
0.00180056 0.043946 0.00268559
0.00637827 0.0466773 0.00180056
0.0205844 0.0489052 0.000823987
0.0390631 0.0504311 0
0.0615244 0.0512093 0
0.0875105 0.0513924 0
0.118379 0.0507515 0
0.155489 0.0493324 0
0.200412 0.04654 0
0.258228 0.041474 0.00015259
0.330419 0.0328222 0.00180056
0.410742 0.0198367 0.00575265
0.492515 0.00492866 0.0111543
0.572396 0.000244144 0.0177768
0.649775 0 0.0256046
0.725612 0 0.0348516
0.800214 0 0.0455329
0.872999 0 0.0573281
0.942473 0 0.0692302
0.98938 0 0.0796979
1 0 0.0879988
1 0 0.0943008
1 0 0.0988937
1 0 0.10219
1 0 0.104219
1 0 0.105455
1 0 0.106188
1 0 0.10663
1 0 0.107057
1 0 0.107713
1 0 0.107927
1 0 0.107958
0 0.0672465 0.000320439
6.10361e-05 0.0698253 0
0.00117494 0.0717021 0
0.0131685 0.0730755 0
0.0335241 0.0740368 0
0.0590524 0.0744335 0
0.088777 0.074342 0
0.1234 0.0735332 0
0.163958 0.0719615 0
0.21207 0.0691386 0
0.271489 0.0641642 0
0.34197 0.0560464 0.00077821
0.418463 0.0440528 0.00389105
0.49662 0.0280156 0.00898756
0.574228 0.00784314 0.0154421
0.651423 0.00158694 0.0233158
0.727504 0 0.0326848
0.801846 0 0.0433051
0.874647 0 0.0551919
0.944259 0 0.0673991
0.990112 0 0.0780346
1 0 0.0863661
1 0 0.0927596
1 0 0.0973831
1 0 0.100618
1 0 0.102678
1 0 0.103914
1 0 0.104616
1 0 0.105013
1 0 0.105455
1 0 0.106172
1 0 0.106355
1 0 0.106386
0 0.0961318 0
0 0.0980697 0
0 0.0995804 0
0.00320439 0.100542 0
0.0216831 0.101061 0
0.0488441 0.101183 0
0.0828107 0.100862 0
0.120699 0.100084 0
0.162905 0.0987411 0
0.211551 0.0966354 0
0.271443 0.0928969 0
0.342382 0.0867781 0
0.419196 0.0771038 0.00134279
0.497734 0.0629435 0.0056611
0.575738 0.0439765 0.0121309
0.653086 0.020737 0.0200656
0.728939 0.00653086 0.0294041
0.803647 0 0.0401312
0.876402 0 0.0520943
0.946181 0 0.0645762
0.990951 0 0.0754559
1 0 0.0840009
1 0 0.0904707
1 0 0.0951247
1 0 0.0983291
1 0 0.100328
1 0 0.101579
1 0 0.102296
1 0 0.102708
1 0 0.103151
1 0 0.103883
1 0 0.104051
1 0 0.104082
0 0.130892 0
0 0.13196 0
0 0.132662 0
0 0.133059 0
0.00727855 0.132906 0
0.0315709 0.132692 0
0.0694133 0.132219 0
0.111681 0.131655 0
0.156847 0.130602 0
0.207858 0.128985 0
0.269368 0.126101 0
0.341588 0.121477 0
0.419486 0.114351 0
0.498482 0.104479 0.00178531
0.576837 0.0907759 0.00688182
0.654337 0.0708629 0.0148928
0.730602 0.0454566 0.0243381
0.8056 0.0213474 0.0350652
0.878676 0.00660716 0.0471809
0.948348 0 0.0599374
0.99205 0 0.0712749
1 0 0.0800793
1 0 0.0867018
1 0 0.0914626
1 0 0.094667
1 0 0.0967117
1 0 0.0979324
1 0 0.0986496
1 0 0.0990768
1 0 0.0995041
1 0 0.100237
1 0 0.100389
1 0 0.100435
0 0.170336 0
0 0.170062 0
0 0.169924 0
0 0.169879 0
0 0.169665 0
0.0104067 0.169528 0
0.045716 0.169177 0
0.0957809 0.168765 0
0.146487 0.167941 0
0.200916 0.166781 0
0.265354 0.164675 0
0.339513 0.161044 0
0.418891 0.156008 0
0.498619 0.148898 0
0.577737 0.139315 0.00172427
0.655772 0.12668 0.00697337
0.732525 0.109712 0.0164187
0.80766 0.0866865 0.0272068
0.880781 0.0589303 0.0393225
0.950423 0.0347753 0.0523232
0.993118 0.0134585 0.0642557
1 0.00117494 0.0735943
1 0 0.0805371
1 0 0.0854505
1 0 0.0887617
1 0 0.0908827
1 0 0.092134
1 0 0.0928206
1 0 0.0932784
1 0 0.0937362
1 0 0.0945144
1 0 0.0946517
1 0 0.0947433
0 0.215015 0
0 0.214496 0
0 0.214405 0
0 0.21445 0
0 0.214298 0
0.000534066 0.214252 0
0.0160525 0.213962 0
0.0636149 0.213703 0
0.126894 0.21323 0
0.188632 0.21239 0
0.258015 0.211017 0
0.335576 0.208438 0
0.416617 0.204791 0
0.49781 0.199802 0
0.577661 0.193118 4.57771e-05
0.656443 0.184588 0.00109865
0.733593 0.173892 0.00537118
0.808972 0.160525 0.014374
0.882261 0.143694 0.0264744
0.951888 0.12221 0.0395056
0.994079 0.0990463 0.0517433
1 0.0813153 0.0619669
1 0.0698711 0.0696269
1 0.0601511 0.0748913
1 0.0522621 0.0785077
1 0.0463569 0.0808576
1 0.04271 0.0821851
1 0.0404974 0.0829023
1 0.0391241 0.0834058
1 0.0373236 0.0839399
1 0.0346227 0.0847944
1 0.0338293 0.0849928
1 0.0331273 0.0851606
0 0.27129 0
0 0.270665 0
0 0.270588 0
0 0.27068 0
0 0.270787 0
0 0.270848 0
0.00170901 0.270832 0
0.0209964 0.27097 0
0.0820935 0.27068 0
0.163973 0.270329 0
0.243244 0.26949 0
0.326528 0.267857 0
0.411292 0.265324 0
0.494453 0.261784 0
0.57557 0.257176 0
0.65507 0.251438 0
0.73283 0.244358 0.000396735
0.808652 0.236179 0.0019379
0.882307 0.225925 0.0065919
0.951812 0.214511 0.0174868
0.994873 0.203098 0.0296635
1 0.192706 0.0400854
1 0.183612 0.0482795
1 0.176364 0.0544289
1 0.171084 0.058732
1 0.167605 0.0614786
1 0.165637 0.0631113
1 0.164218 0.0641031
1 0.163287 0.0647288
1 0.162249 0.0653391
1 0.159991 0.0664988
1 0.158267 0.0668193
1 0.156176 0.0671092
0 0.338109 0
0 0.337377 0
0 0.337606 0
0 0.337758 0
0 0.338125 0
0 0.338247 0
0 0.338582 0
0.00158694 0.338842 0
0.0230411 0.338994 0
0.108751 0.338827 0
0.215503 0.338354 0
0.309865 0.337285 0
0.400504 0.335821 0
0.486976 0.33341 0
0.570169 0.330236 0
0.650919 0.326238 0
0.729763 0.321202 0
0.806134 0.315618 0
0.879866 0.309087 0.000167849
0.949783 0.301564 0.000656138
0.9953 0.294316 0.00112917
1 0.288045 0.00547799
1 0.283009 0.0135653
1 0.278813 0.0198978
1 0.275807 0.0243381
1 0.273793 0.0272526
1 0.272526 0.0290532
1 0.271458 0.0301976
1 0.270298 0.0311437
1 0.269429 0.0319982
1 0.267842 0.033463
1 0.266636 0.0339666
1 0.265538 0.0343481
0 0.411139 0
0 0.410361 0
0 0.410544 0
0 0.411032 0
0 0.411444 0
0 0.411841 0
0 0.412238 0
0 0.412604 0
0 0.412833 0
0.0347601 0.413153 0
0.161013 0.412879 0
0.281498 0.412253 0
0.382376 0.411048 0
0.473671 0.409064 0
0.559945 0.406821 0
0.64303 0.403723 0
0.722927 0.400305 0
0.800244 0.396033 0
0.874907 0.391165 0
0.945266 0.385489 0
0.995331 0.380453 0
1 0.37583 0
1 0.371801 0
1 0.368978 0
1 0.366613 0
1 0.364645 0
1 0.3635 0
1 0.362402 0
1 0.361501 0
1 0.360525 0
1 0.359304 0
1 0.358007 0
1 0.357046 0.000244144
0 0.48571 0
0 0.484688 0
0 0.485115 0
0 0.485618 0
0 0.48603 0
0 0.486778 0
0 0.48719 0
0 0.487541 0
0 0.487831 0
0 0.487999 0
0.0817884 0.487587 0
0.233677 0.48716 0
0.353857 0.486137 0
0.453223 0.484871 0
0.544274 0.482902 0
0.630396 0.480278 0
0.712383 0.47747 0
0.791241 0.47393 0
0.866926 0.469917 0
0.937789 0.465324 0
0.993835 0.461234 0
0.999985 0.457191 0
1 0.454078 0
1 0.451362 0
1 0.4495 0
1 0.447898 0
1 0.446387 0
1 0.445441 0
1 0.444358 0
1 0.443198 0
1 0.441932 0
1 0.441001 0
1 0.439841 0
0 0.560159 0
0 0.559136 0
0 0.559655 0
0 0.560082 0
0 0.560555 0
0 0.560998 0
0 0.561471 0
0 0.561578 0
0 0.561883 0
0 0.561852 0
0 0.561624 0
0.146761 0.561074 0
0.311238 0.560235 0
0.424582 0.558816 0
0.522789 0.557031 0
0.612894 0.554849 0
0.697826 0.552392 0
0.778378 0.549279 0
0.855344 0.545525 0
0.927306 0.541817 0
0.987472 0.538064 0
0.999786 0.534661 0
1 0.531884 0
1 0.52961 0
1 0.527504 0
1 0.526101 0
1 0.524758 0
1 0.523369 0
1 0.522332 0
1 0.521004 0
1 0.519615 0
1 0.518441 0
1 0.517327 0
0 0.633753 0
0 0.632731 0
0 0.633234 0
0 0.633494 0
0 0.633921 0
0 0.634379 0
0 0.634577 0
0 0.634714 0
0 0.634806 0
0 0.634562 0
0 0.634409 0
0.0302586 0.633753 0
0.243656 0.632547 0
0.3841 0.631373 0
0.493217 0.629389 0
0.589532 0.627344 0
0.678447 0.62504 0
0.761746 0.622141 0
0.840635 0.618997 0
0.914336 0.615625 0
0.975738 0.612146 0
0.998917 0.609293 0
1 0.606607 0
1 0.604379 0
1 0.602243 0
1 0.600763 0
1 0.599237 0
1 0.59762 0
1 0.596384 0
1 0.594873 0
1 0.593301 0
1 0.592172 0
1 0.591089 0
0 0.70605 0
0 0.705318 0
0 0.705318 0
0 0.705806 0
0 0.706035 0
0 0.705959 0
0 0.706157 0
0 0.70605 0
0 0.705913 0
0 0.705455 0
0 0.705104 0
0 0.704082 0
0.108324 0.702998 0
0.326436 0.701534 0
0.454505 0.699763 0
0.559976 0.697765 0
0.654292 0.695506 0
0.741451 0.692988 0
0.822919 0.689998 0
0.898543 0.686824 0
0.96173 0.683742 0
0.996918 0.680751 0
1 0.678126 0
1 0.675868 0
1 0.67393 0
1 0.672053 0
1 0.670619 0
1 0.669078 0
1 0.667399 0
1 0.665949 0
1 0.664149 0
1 0.66302 0
1 0.661982 0
0 0.776699 0
0 0.775723 0
0 0.775723 0
0 0.775708 0
0 0.775647 0
0 0.775616 0
0 0.775326 0
0 0.774975 0
0 0.774624 0
0 0.774197 0
0 0.773404 0
0 0.772457 0
0.0065919 0.771267 0
0.232639 0.76994 0
0.403021 0.768139 0
0.523064 0.766125 0
0.624979 0.763851 0
0.716945 0.761395 0
0.801968 0.758465 0
0.879759 0.755398 0
0.945006 0.752422 0
0.991806 0.749706 0
0.999863 0.747051 0
1 0.744717 0
1 0.742657 0
1 0.740902 0
1 0.739025 0
1 0.737575 0
1 0.735943 0
1 0.73431 0
1 0.73257 0
1 0.731182 0
1 0.730175 0
0 0.844556 0
0 0.843595 0
0 0.84329 0
0 0.843046 0
0 0.842786 0
0 0.842527 0
0 0.841993 0
0 0.841688 0
0 0.841093 0
0 0.840253 0
0 0.83949 0
0 0.838361 0
0 0.837308 0
0.0849928 0.835584 0
0.331518 0.833936 0
0.476509 0.831891 0
0.58941 0.829602 0
0.687755 0.827176 0
0.776715 0.824277 0
0.857832 0.821469 0
0.925719 0.818509 0
0.978714 0.815564 0
0.998428 0.813092 0
1 0.81091 0
1 0.808713 0
1 0.80679 0
1 0.805051 0
1 0.803388 0
1 0.801801 0
1 0.800229 0
1 0.798367 0
1 0.79704 0
1 0.796307 0
0 0.907881 0
0 0.90721 0
0 0.906737 0
0 0.906294 0
0 0.905852 0
0 0.905364 0
0 0.90486 0
0 0.904128 0
0 0.903578 0
0 0.9028 0
0 0.90164 0
0 0.900618 0
0 0.899199 0
0.00729381 0.897612 0
0.21384 0.895903 0
0.417029 0.893828 0
0.54699 0.891539 0
0.653895 0.889082 0
0.748409 0.886458 0
0.833066 0.883467 0
0.90428 0.880751 0
0.959701 0.878035 0
0.994202 0.875578 0
1 0.873304 0
1 0.871305 0
1 0.869429 0
1 0.867826 0
1 0.866026 0
1 0.864546 0
1 0.863081 0
1 0.861357 0
1 0.860136 0
1 0.859205 0
0 0.961089 0
0 0.960342 0
0 0.959976 0
0 0.959426 0
0 0.959045 0
0 0.958419 0
0 0.957839 0
0 0.957244 0
0 0.956405 0
0 0.95555 0
0 0.954604 0
0 0.953384 0
0 0.952132 0
0 0.950637 0
0.0615396 0.948959 0
0.345769 0.94696 0
0.50013 0.944976 0
0.617639 0.942672 0
0.718593 0.9402 0
0.807614 0.937606 0
0.882246 0.935058 0
0.940078 0.932677 0
0.983276 0.930526 0
0.998718 0.928557 0
1 0.926635 0
1 0.925063 0
1 0.92369 0
1 0.922194 0
1 0.920974 0
1 0.9196 0
1 0.918349 0
1 0.917266 0
1 0.916503 0
0 0.998199 0
0 0.997681 0
0 0.997299 0
0 0.996902 0
0 0.996521 0
0 0.995987 0
0 0.995468 0
0 0.994827 0
0 0.994278 0
0 0.993622 0
0 0.99292 0
0 0.992203 0
0 0.991424 0
0 0.990463 0
0 0.989441 0
0.259586 0.988464 0
0.451942 0.987243 0
0.582559 0.985489 0
0.689906 0.983337 0
0.783383 0.981109 0
0.861616 0.978897 0
0.921904 0.976669 0
0.967605 0.974777 0
0.994522 0.973098 0
1 0.971466 0
1 0.970138 0
1 0.968841 0
1 0.967834 0
1 0.966812 0
1 0.96585 0
1 0.964858 0
1 0.963806 0
1 0.963363 0
0 1 0
0 1 0
0 1 0
0 1 0
0 1 0
0 1 0
0 1 0
0 1 0
0 1 0
0 1 0
0 1 0
0 1 0
0 1 0
0 1 0
0 1 0
0.143847 1 0
0.404593 1 0
0.548852 0.999847 0
0.663188 0.999374 0
0.760723 0.99884 0
0.842588 0.99823 0
0.905623 0.997589 0
0.953185 0.997009 0
0.98706 0.996445 0
0.999176 0.995972 0
1 0.99559 0
1 0.995254 0
1 0.994995 0
1 0.99472 0
1 0.994522 0
1 0.994232 0
1 0.993957 0
1 0.993851 0
0 1 0
0 1 0
0 1 0
0 1 0
0 1 0
0 1 0
0 1 0
0 1 0
0 1 0
0 1 0
0 1 0
0 1 0
0 1 0
0 1 0
0 1 0
0.0284581 1 0
0.354452 1 0
0.517769 1 0
0.638819 1 0
0.740871 1 0
0.826154 1 0
0.891478 1 0
0.940764 1 0
0.977111 1 0
0.996338 1 0
1 1 0
1 1 0
1 1 0
1 1 0
1 1 0
1 1 0
1 1 0
1 1 0
0 1 0
0 1 0
0 1 0
0 1 0
0 1 0
0 1 0
0 1 0
0 1 0
0 1 0
0 1 0
0 1 0
0 1 0
0 1 0
0 1 0
0 1 0
0 1 0
0.297856 1 0
0.489662 1 0
0.61796 1 0
0.723659 1 0
0.811994 1 0
0.879499 1 0
0.930526 1 0
0.968048 1 0
0.992508 1 0
1 1 0
1 1 0
1 1 0
1 1 0
1 1 0
1 1 0
1 1 0
1 1 0
0 1 0
0 1 0
0 1 0
0 1 0
0 1 0
0 1 0
0 1 0
0 1 0
0 1 0
0 1 0
0 1 0
0 1 0
0 1 0
0 1 0
0 1 0
0 1 0
0.251835 1 0
0.462303 1 0
0.600092 1 0
0.709331 1 0
0.800641 1 0
0.870024 1 0
0.922377 1 0
0.961028 1 0
0.988327 1 0
0.999527 1 0
1 1 0
1 1 0
1 1 0
1 1 0
1 1 0
1 1 0
1 1 0
0 1 0
0 1 0
0 1 0
0 1 0
0 1 0
0 1 0
0 1 0
0 1 0
0 1 0
0 1 0
0 1 0
0 1 0
0 1 0
0 1 0
0 1 0
0 1 0
0.216648 1 0
0.439261 1 0
0.584237 1 0
0.69778 1 0
0.791562 1 0
0.862913 1 0
0.916365 1 0
0.955947 1 0
0.984268 1 0
0.998322 1 0
1 1 0
1 1 0
1 1 0
1 1 0
1 1 0
1 1 0
1 1 0
0 1 0
0 1 0
0 1 0
0 1 0
0 1 0
0 1 0
0 1 0
0 1 0
0 1 0
