apps/lut-action/luts/JD_ARRI.cube
TITLE "Generate by Resolve"
LUT_3D_SIZE 9
0 0 0
0 0 0
0.0276341 0.00396735 0.0047303
0.130846 0.00285344 0.00672923
0.422858 0 0.0132143
0.859663 0 0.0599527
1 0 0.103441
1 0 0.109728
1 0 0.111101
7.62951e-05 0.0408179 0.00343328
0.0390631 0.0504311 0
0.155489 0.0493324 0
0.410742 0.0198367 0.00575265
0.725612 0 0.0348516
0.98938 0 0.0796979
1 0 0.10219
1 0 0.10663
1 0 0.107958
0 0.170336 0
0 0.169665 0
0.146487 0.167941 0
0.418891 0.156008 0
0.732525 0.109712 0.0164187
0.993118 0.0134585 0.0642557
1 0 0.0887617
1 0 0.0932784
1 0 0.0947433
0 0.411139 0
0 0.411444 0
0 0.412833 0
0.382376 0.411048 0
0.722927 0.400305 0
0.995331 0.380453 0
1 0.366613 0
1 0.361501 0
1 0.357046 0.000244144
0 0.70605 0
0 0.706035 0
0 0.705913 0
0.108324 0.702998 0
0.654292 0.695506 0
0.96173 0.683742 0
1 0.67393 0
1 0.667399 0
1 0.661982 0
0 0.961089 0
0 0.959045 0
0 0.956405 0
0 0.952132 0
0.50013 0.944976 0
0.882246 0.935058 0
1 0.926635 0
1 0.920974 0
1 0.916503 0
0 1 0
0 1 0
0 1 0
0 1 0
0.297856 1 0
0.811994 1 0
0.992508 1 0
1 1 0
1 1 0
0 1 0
0 1 0
0 1 0
0 1 0
0.167239 1 0
0.778897 1 0
0.979187 1 0
1 1 0
1 1 0
0 1 0
0 1 0
0 1 0
0 1 0
0.106523 1 0
0.774411 1 0
0.9823 1 0
1 1 0
1 1 0.299321
0 0 0
0 0 0
0.0444343 0.00326543 0.0209812
0.163363 0.000198367 0.041001
0.4916 0 0.0653544
0.909346 0 0.10663
1 0 0.133516
1 0 0.137163
1 0 0.137804
0 0.0363012 0.0395056
0.035996 0.0402686 0.0472267
0.159014 0.0368963 0.0499428
0.415427 0.00720226 0.0577859
0.725383 0 0.0820325
0.989288 0 0.11342
1 0 0.130373
1 0 0.133776
1 0 0.134539
0 0.165606 0.0272526
0 0.165011 0.0269932
0.144778 0.163287 0.0278935
0.418448 0.150988 0.0369726
0.732616 0.102174 0.0651408
0.993194 0.00698863 0.10164
1 0 0.119585
1 0 0.12314
1 0 0.124056
0 0.40943 0
0 0.41001 0
0 0.411399 0
0.381933 0.409354 0
0.72256 0.398352 0
0.994842 0.378088 0.00311284
1 0.363775 0.0265812
1 0.358282 0.0332952
1 0.353765 0.0361334
0 0.705196 0
0 0.70486 0
0 0.704555 0
0.107073 0.701396 0
0.652873 0.693629 0
0.960586 0.68162 0
1 0.671427 0
1 0.664897 0
1 0.659236 0
0 0.959823 0
0 0.957519 0
0 0.95494 0
0 0.950317 0
0.49752 0.943145 0
0.880705 0.933227 0
1 0.924788 0
1 0.919158 0
1 0.914733 0
0 1 0
0 1 0
0 1 0
0 1 0
0.2878 1 0
0.81001 1 0
0.992096 1 0
1 1 0
1 1 0
0 1 0
0 1 0
0 1 0
0 1 0
0.159487 1 0
0.77673 1 0
0.978592 1 0
1 1 0
1 1 0
0 1 0
0 1 0
0 1 0
0 1 0
0.102358 1 0
0.786603 1 0
0.986648 1 0
1 1 0
1 1 0.704173
0 0 0
0.0069276 0.00225834 0.00981155
0.0604715 0.00062562 0.0543984
0.196933 0 0.102007
0.551171 0 0.146975
0.947341 0 0.187991
1 0 0.207141
1 0 0.208774
1 0 0.208286
0 0.0189822 0.111635
0.0252689 0.00965896 0.144183
0.157519 0.00289921 0.161196
0.415549 3.0518e-05 0.167803
0.725078 0 0.1776
0.989303 0 0.193408
1 0 0.202991
1 0 0.204883
1 0 0.204822
0 0.147189 0.154757
0 0.146563 0.153658
0.13846 0.144762 0.153216
0.417807 0.13077 0.156527
0.732891 0.0714122 0.168109
0.993393 0.000366217 0.185946
1 0 0.196185
1 0 0.198291
1 0 0.198276
0 0.404517 0.0860304
0 0.404959 0.0848859
0 0.406317 0.0852064
0.380636 0.403952 0.0916457
0.722011 0.392737 0.11107
0.994629 0.371511 0.137118
1 0.356268 0.150637
1 0.350698 0.153185
1 0.345357 0.153384
0 0.702754 0
0 0.70219 0
0 0.701366 0
0.103685 0.698009 0
0.650843 0.689982 0
0.958938 0.677653 0
1 0.667201 0
1 0.660166 0
1 0.654536 0
0 0.95758 0
0 0.955154 0
0 0.952224 0
0 0.947463 0
0.493675 0.940139 0
0.87863 0.93022 0
1 0.921599 0
1 0.915953 0
1 0.911727 0
0 1 0
0 1 0
0 1 0
0 1 0
0.274205 1 0
0.807416 1 0
0.99144 1 0
1 1 0
1 1 0
0 1 0
0 1 0
0 1 0
0 1 0
0.151919 1 0
0.774166 1 0
0.977783 1 0
1 1 0
1 1 0
0 1 0
0 1 0
0 1 0
0 1 0
0.118883 1 0
0.802747 1 0
0.989395 1 0
1 1 0.537438
0.999939 1 0.915724
0 0 0
0.0126345 0.00210575 0.0339818
0.0726329 0 0.116838
0.228122 0 0.222507
0.597986 0 0.32961
0.972778 0 0.395499
1 0 0.41352
1 0 0.412543
1 0 0.41004
0 0 0.259113
0 0 0.349218
0.120775 0 0.392401
0.405158 0 0.398093
0.721004 0 0.399725
0.988266 0 0.403861
1 0 0.406531
1 0 0.406973
1 0 0.405371
0 0.00631724 0.39321
0 0.00593576 0.391043
0.0893416 0.00389105 0.389288
0.40824 0 0.389624
0.729198 0 0.393133
0.993194 0 0.399329
1 0 0.40351
1 0 0.404135
1 0 0.403006
0 0.37116 0.372091
0 0.372137 0.371069
0 0.373709 0.371099
0.369467 0.370764 0.372442
0.717449 0.357427 0.376425
0.993912 0.332876 0.382803
1 0.314839 0.385611
1 0.308263 0.384253
1 0.302235 0.381735
0 0.688289 0.315648
0 0.687587 0.314122
0 0.68629 0.313512
0.0837873 0.682734 0.313771
0.644465 0.674418 0.316274
0.955215 0.661448 0.321004
1 0.650416 0.32192
1 0.643519 0.317723
1 0.638102 0.313603
0 0.948043 0.173098
0 0.94551 0.166003
0 0.942336 0.158022
0 0.937743 0.14873
0.483803 0.930404 0.141573
0.874006 0.920424 0.143557
1 0.912108 0.143282
1 0.906477 0.135698
1 0.902464 0.127764
0 1 0
0 1 0
0 1 0
0 1 0
0.254383 1 0.00343328
0.802426 1 0.0125582
0.989853 1 0.0161593
1 1 0.0125429
1 1 0.00779736
0 1 0
0 1 0
0 1 0
0 1 0
0.138537 1 0
0.769284 1 0
0.975387 1 0
1 1 0
1 1 0.0410925
0 1 0
0 1 0
0 1 0
0 1 0
0.149233 1 0
0.820706 1 0.201129
0.987533 1 0.521004
0.999756 1 0.823636
0.998535 0.999893 0.979141
0 0 0
0.0167544 1.5259e-05 0.0814679
0.0669871 0 0.247074
0.239307 0 0.460914
0.626383 0 0.601114
0.976135 0 0.668132
1 0 0.677516
1 0 0.676051
1 0 0.673655
0 0 0.516304
0 0 0.626657
0.00386053 0 0.669154
0.372763 0 0.66949
0.708095 0 0.669413
0.98526 0 0.670542
1 0 0.671366
1 0 0.671336
1 0 0.66981
0 0 0.667094
0 0 0.664973
0 0 0.663432
0.377447 0 0.663111
0.717205 0 0.664744
0.991791 0 0.667765
1 0 0.669642
1 0 0.670039
1 0 0.668559
0 0.237186 0.655634
0 0.239124 0.654643
0 0.242115 0.654917
0.332982 0.235752 0.655528
0.704082 0.209506 0.656977
0.991226 0.150561 0.659373
1 0.0934615 0.659495
1 0.0885481 0.657633
1 0.0894026 0.654383
0 0.644038 0.632776
0 0.642832 0.631434
0 0.641321 0.630411
0 0.637095 0.629068
0.62742 0.628016 0.628443
0.945602 0.613657 0.627924
1 0.602029 0.62562
1 0.594919 0.621073
1 0.58941 0.616663
0 0.92105 0.588159
0 0.91873 0.584772
0 0.915557 0.58056
0 0.910826 0.576043
0.458198 0.903426 0.572778
0.863233 0.893568 0.57023
1 0.885191 0.566598
1 0.879881 0.561166
1 0.87602 0.556191
0 1 0.542626
0 1 0.537087
0 1 0.5299
0 1 0.522652
0.213596 1 0.5178
0.790753 1 0.515114
0.983688 1 0.512413
1 1 0.508568
1 1 0.504738
0 1 0.508675
0 1 0.502419
0 1 0.495247
0 1 0.490059
0.105165 1 0.487739
0.757092 1 0.48777
0.968048 1 0.48658
1 1 0.505318
1 1 0.593194
0 1 0.48452
0 1 0.479484
0 1 0.474922
0 1 0.471992
0.147601 1 0.518898
0.836072 1 0.637736
0.981994 1 0.81268
0.994583 1 0.950561
0.998505 0.999023 0.991592
0.00242618 0.00183108 0.0221714
0.0114443 0 0.176242
0.00283818 0 0.48954
0.208927 0 0.733272
0.635065 0 0.869474
0.975708 0 0.913664
1 0 0.915084
1 0 0.914
1 0 0.912352
0 0 0.789868
0 0 0.887984
0 0 0.911238
0.310918 0 0.910018
0.686687 0 0.90956
0.980438 0 0.910231
1 0 0.910887
1 0 0.910826
1 0 0.909712
0 0 0.908461
0 0 0.906889
0 0 0.905898
0.318349 0 0.90573
0.696727 0 0.90692
0.988998 0 0.908782
1 0 0.909941
1 0 0.910048
1 0 0.908766
0 0 0.901427
0 0 0.900725
0 0.000366217 0.900725
0.258946 0.000579843 0.901045
0.6813 0.000259403 0.90193
0.977844 0 0.902998
1 0 0.902785
1 0 0.90103
1 0 0.898604
0 0.56202 0.887495
0 0.560021 0.886351
0 0.557931 0.885451
0 0.55256 0.88423
0.599298 0.541238 0.883284
0.930632 0.523156 0.882277
1 0.50811 0.879957
1 0.499565 0.876524
1 0.492668 0.873014
0 0.875853 0.860395
0 0.873228 0.857862
0 0.869749 0.854749
0 0.864591 0.851286
0.411383 0.856718 0.848463
0.845869 0.846143 0.846326
0.999435 0.837156 0.843427
1 0.831815 0.839826
1 0.827817 0.836454
0 0.999222 0.832731
0 0.998581 0.82887
0 0.99794 0.824308
0 0.997116 0.819883
0.135088 0.995468 0.816632
0.771099 0.992279 0.814878
0.970779 0.989425 0.812741
1 0.987961 0.809766
1 0.987137 0.806714
0 1 0.812604
0 1 0.808927
0 1 0.804944
0 1 0.801434
0.00563058 1 0.799268
0.73611 1 0.797864
0.955001 1 0.796765
0.999939 1 0.814343
1 1 0.862745
0 1 0.798383
0 1 0.79501
0 1 0.791684
0 1 0.792538
0.107561 1 0.822583
0.848981 1 0.882521
0.978866 1 0.947112
0.993118 0.99939 0.985168
0.999115 0.999313 0.995941
0.00260929 0.000122072 0.0734874
0 0 0.388678
0 0 0.764248
0.108125 0 0.959136
0.642756 0 0.999542
0.971405 0 1
1 0 1
1 0 1
1 0 1
0 0 0.98381
0 0 1
0 0 1
0.262974 0 1
0.673823 0 1
0.974426 0 1
1 0 1
1 0 1
1 0 1
0 0 1
0 0 1
0 0 1
0.273259 0 1
0.68394 0 1
0.981781 0 1
1 0 1
1 0 1
1 0 1
0 0 1
0 0 1
0 0 1
0.19649 0 1
0.66656 0 1
0.968994 0 1
1 0 1
1 0 1
1 0 1
0 0.501076 0.997009
0 0.497856 0.996963
0 0.494667 0.996994
0 0.487251 0.997208
0.579538 0.471931 0.998077
0.92015 0.448142 0.999329
1 0.427329 0.999115
1 0.41471 0.998047
1 0.403235 0.997024
0 0.845014 0.979385
0 0.841596 0.978927
0 0.836881 0.978485
0 0.830777 0.977829
0.373922 0.821668 0.977676
0.832746 0.809689 0.978119
0.99823 0.799344 0.978088
1 0.79295 0.977325
1 0.788556 0.976562
0 0.981247 0.963973
0 0.979934 0.962783
0 0.978393 0.961395
0 0.976013 0.960281
0.0376287 0.971847 0.959915
0.755245 0.965545 0.960418
0.960632 0.960678 0.960693
0.999985 0.958724 0.960204
1 0.95758 0.959518
0 1 0.955581
0 1 0.954452
0 1 0.953246
0 1 0.95256
0 1 0.95259
0.718227 0.999969 0.953323
0.944488 0.999344 0.954147
0.993606 0.998001 0.958144
1 0.996094 0.968765
0 1 0.950851
0 1 0.94995
0 1 0.949111
0 1 0.949859
0.259403 1 0.957198
0.87303 1 0.971222
0.98172 0.999588 0.985077
0.993988 0.998718 0.992401
1 1 1
0 0 0.181994
0 0 0.671473
0 0 0.977813
0.139971 0 1
0.657282 0 1
0.970123 0 1
1 0 1
1 0 1
1 0 1
0 0 1
0 0 1
0 0 1
0.25124 0 1
0.671611 0 1
0.973266 0 1
1 0 1
1 0 1
1 0 1
0 0 1
0 0 1
0 0 1
0.263569 0 1
0.681743 0 1
0.980407 0 1
1 0 1
1 0 1
1 0 1
0 0 1
0 0 1
0 0 1
0.178485 0 1
0.662547 0 1
0.96643 0 1
1 0 1
1 0 1
1 0 1
0 0.485374 1
0 0.481407 1
0 0.477058 1
0 0.46862 1
0.573526 0.451698 1
0.916487 0.424903 1
1 0.40177 1
1 0.386709 1
1 0.369787 1
0 0.836545 1
0 0.832639 1
0 0.827451 1
0 0.820935 1
0.358419 0.811063 1
0.828031 0.798489 1
0.997345 0.787747 1
1 0.781048 1
1 0.775982 1
0 0.974365 0.99144
0 0.972869 0.991424
0 0.970916 0.991409
0 0.968353 0.991699
0.0206455 0.963867 0.992493
0.749081 0.957321 0.993988
0.957534 0.952163 0.995132
0.999817 0.950057 0.995438
1 0.948821 0.995453
0 1 0.987839
0 1 0.987686
0 1 0.987518
0 1 0.987701
0 0.999802 0.988403
0.711864 0.996445 0.989853
0.942351 0.992325 0.990921
0.991211 0.991196 0.991211
0.999908 0.991333 0.99173
0 1 0.986267
0 1 0.98613
0 1 0.986084
0 1 0.986221
0.391424 1 0.987671
0.902785 0.999847 0.990539
0.985168 0.998657 0.992798
0.995254 0.998734 0.995987
1 1 1
0 0 0.42855
0 0 0.933654
0 0 1
0.170886 0 1
0.6645 0 1
0.969131 0 1
1 0 1
1 0 1
1 0 1
0 0 1
0 0 1
0 0 1
0.245563 0 1
0.669993 0 1
0.972503 0 1
1 0 1
1 0 1
1 0 1
0 0 1
0 0 1
0 0 1
0.258732 0 1
0.680461 0 1
0.979477 0 1
1 0 1
1 0 1
1 0 1
0 0 1
0 0 1
0 0 1
0.171511 0 1
0.660105 0 1
0.96492 0 1
1 0 1
1 0 1
1 0 1
0 0.478233 1
0 0.474205 1
0 0.469718 1
0 0.460624 1
0.570321 0.442908 1
0.914382 0.415335 1
1 0.390845 1
1 0.372992 1
1 0.353704 1
0 0.832746 1
0 0.828748 1
0 0.823529 1
0 0.816495 1
0.347616 0.80676 1
0.825589 0.793774 1
0.997024 0.783032 1
1 0.776226 1
1 0.771191 1
0 0.971893 0.999359
0 0.970352 0.999466
0 0.968368 0.999557
0 0.965682 0.999771
0.0140688 0.961196 1
0.745983 0.954726 1
0.956436 0.949554 1
0.999756 0.947356 1
1 0.946059 1
0 1 0.996628
0 1 0.996658
0 1 0.996674
0 1 0.996963
0 0.998962 0.997833
0.708751 0.994232 0.999329
0.943023 0.990021 1
0.990524 0.98909 1
0.999527 0.989868 0.999344
0 1 0.995605
0 1 0.995697
0 1 0.995697
0 1 0.996124
0.517937 1 0.997665
0.928939 0.999023 0.998245
0.987945 0.998047 0.998016
0.997665 0.999191 0.999283
1 1 1
