apps/lut-action/luts/JD_ARRI.cube
TITLE "Generate by Resolve"
LUT_3D_SIZE 5
0 0 0
0.0276341 0.00396735 0.0047303
0.422858 0 0.0132143
1 0 0.103441
1 0 0.111101
0 0.170336 0
0.146487 0.167941 0
0.732525 0.109712 0.0164187
1 0 0.0887617
1 0 0.0947433
0 0.70605 0
0 0.705913 0
0.654292 0.695506 0
1 0.67393 0
1 0.661982 0
0 1 0
0 1 0
0.297856 1 0
0.992508 1 0
1 1 0
0 1 0
0 1 0
0.106523 1 0
0.9823 1 0
1 1 0.299321
0 0 0
0.0604715 0.00062562 0.0543984
0.551171 0 0.146975
1 0 0.207141
1 0 0.208286
0 0.147189 0.154757
0.13846 0.144762 0.153216
0.732891 0.0714122 0.168109
1 0 0.196185
1 0 0.198276
0 0.702754 0
0 0.701366 0
0.650843 0.689982 0
1 0.667201 0
1 0.654536 0
0 1 0
0 1 0
0.274205 1 0
0.99144 1 0
1 1 0
0 1 0
0 1 0
0.118883 1 0
0.989395 1 0
0.999939 1 0.915724
0 0 0
0.0669871 0 0.247074
0.626383 0 0.601114
1 0 0.677516
1 0 0.673655
0 0 0.667094
0 0 0.663432
0.717205 0 0.664744
1 0 0.669642
1 0 0.668559
0 0.644038 0.632776
0 0.641321 0.630411
0.62742 0.628016 0.628443
1 0.602029 0.62562
1 0.58941 0.616663
0 1 0.542626
0 1 0.5299
0.213596 1 0.5178
0.983688 1 0.512413
1 1 0.504738
0 1 0.48452
0 1 0.474922
0.147601 1 0.518898
0.981994 1 0.81268
0.998505 0.999023 0.991592
0.00260929 0.000122072 0.0734874
0 0 0.764248
0.642756 0 0.999542
1 0 1
1 0 1
0 0 1
0 0 1
0.68394 0 1
1 0 1
1 0 1
0 0.501076 0.997009
0 0.494667 0.996994
0.579538 0.471931 0.998077
1 0.427329 0.999115
1 0.403235 0.997024
0 0.981247 0.963973
0 0.978393 0.961395
0.0376287 0.971847 0.959915
0.960632 0.960678 0.960693
1 0.95758 0.959518
0 1 0.950851
0 1 0.949111
0.259403 1 0.957198
0.98172 0.999588 0.985077
1 1 1
0 0 0.42855
0 0 1
0.6645 0 1
1 0 1
1 0 1
0 0 1
0 0 1
0.680461 0 1
1 0 1
1 0 1
0 0.478233 1
0 0.469718 1
0.570321 0.442908 1
1 0.390845 1
1 0.353704 1
0 0.971893 0.999359
0 0.968368 0.999557
0.0140688 0.961196 1
0.956436 0.949554 1
1 0.946059 1
0 1 0.995605
0 1 0.995697
0.517937 1 0.997665
0.987945 0.998047 0.998016
1 1 1
