apps/lut-action/luts/Kodak_D55_modified.cube
# Pomfort LiveGrade
# Created by LiveGrade 2.1 on 2014-08-08 13:46:39 +0000
LUT_3D_SIZE 5
0.027455 0.027940 0.030632
0.092628 0.043534 0.032215
0.403245 0.027620 0.000000
0.629133 0.000000 0.000000
0.683616 0.000000 0.000000
0.000000 0.089219 0.050214
0.121374 0.115772 0.043915
0.529133 0.165801 0.000000
0.749382 0.159935 0.000000
0.795942 0.187861 0.000000
0.000000 0.308439 0.004513
0.014100 0.399769 0.000000
0.694121 0.555951 0.000000
0.942402 0.589076 0.000000
0.984550 0.618821 0.000000
0.000000 0.441399 0.000000
0.002685 0.574730 0.000000
0.757513 0.789717 0.000000
1.000000 0.844337 0.000000
1.000000 0.843008 0.000000
0.000000 0.489475 0.000000
0.048392 0.638174 0.000000
0.777398 0.825098 0.000000
1.000000 0.879035 0.000000
1.000000 0.875223 0.000000
0.015844 0.028973 0.096588
0.096890 0.043384 0.107415
0.422938 0.000000 0.110749
0.650766 0.000000 0.111250
0.704192 0.000000 0.122600
0.000000 0.108056 0.140354
0.115957 0.136175 0.146765
0.538835 0.156891 0.132538
0.749783 0.090927 0.098064
0.793894 0.138547 0.107251
0.000000 0.359510 0.193335
0.000571 0.443164 0.183211
0.685064 0.571154 0.036207
0.937595 0.599036 0.004701
0.975104 0.626131 0.006307
0.000000 0.488236 0.230367
0.000000 0.605884 0.210386
0.724634 0.789718 0.025617
0.999735 0.849210 0.002993
1.000000 0.845024 0.002661
0.000000 0.549138 0.349600
0.000000 0.675548 0.349100
0.718670 0.824303 0.306182
0.989674 0.874200 0.265601
1.000000 0.870695 0.261154
0.000000 0.000000 0.310922
0.100913 0.000000 0.336990
0.460182 0.000000 0.386136
0.685895 0.000000 0.412203
0.737396 0.000000 0.427211
0.000000 0.070589 0.385493
0.048252 0.151605 0.424049
0.555292 0.166550 0.468889
0.769997 0.099409 0.474473
0.813115 0.159504 0.490442
0.000000 0.423798 0.521648
0.000000 0.510821 0.556448
0.662619 0.630290 0.575380
0.922492 0.645490 0.576056
0.959930 0.672827 0.584432
0.000000 0.559944 0.574963
0.000000 0.679221 0.610288
0.672960 0.847731 0.619015
0.972080 0.895584 0.616676
1.000000 0.899687 0.617640
0.000000 0.604302 0.638781
0.000000 0.733423 0.673074
0.677284 0.876520 0.686616
0.966848 0.926201 0.688769
1.000000 0.928411 0.686534
0.000000 0.000000 0.450066
0.081129 0.000000 0.480428
0.486468 0.000000 0.549984
0.715601 0.000000 0.584196
0.767819 0.000000 0.600012
0.000000 0.002910 0.537881
0.018561 0.145022 0.586949
0.564325 0.163762 0.656078
0.786167 0.056917 0.672066
0.830075 0.161314 0.687921
0.000000 0.436435 0.695865
0.000000 0.527139 0.743704
0.642421 0.647771 0.787851
0.917248 0.662276 0.802040
0.957112 0.689115 0.808427
0.000000 0.583031 0.743907
0.000000 0.703939 0.794397
0.638569 0.871434 0.828119
0.958452 0.920627 0.844029
0.999608 0.927668 0.845459
0.000000 0.624791 0.770965
0.000000 0.751828 0.812620
0.648816 0.894080 0.842354
0.955379 0.945909 0.858190
1.000000 0.951748 0.858903
0.000000 0.000000 0.518862
0.102892 0.000000 0.555644
0.528576 0.000000 0.631057
0.762215 0.000000 0.664456
0.803766 0.000000 0.677536
0.000000 0.125082 0.598612
0.001748 0.236108 0.656852
0.587805 0.295918 0.724777
0.821759 0.276205 0.743301
0.866856 0.319700 0.757264
0.000000 0.455029 0.728227
0.000000 0.550611 0.778653
0.633737 0.670761 0.824030
0.918235 0.687917 0.842483
0.960522 0.711074 0.847800
0.000000 0.589134 0.772558
0.000000 0.709300 0.819911
0.626433 0.872401 0.858262
0.952910 0.922400 0.878225
0.996970 0.928970 0.879462
0.000000 0.630622 0.788811
0.000000 0.755204 0.832148
0.634418 0.894239 0.863672
0.948887 0.947475 0.882890
0.999996 0.954591 0.884855
