apps/lut-action/luts/Kodak_D55_modified.cube
# Pomfort LiveGrade
# Created by LiveGrade 2.1 on 2014-08-08 13:46:39 +0000
LUT_3D_SIZE 9
0.027455 0.027940 0.030632
0.040124 0.032079 0.033647
0.092628 0.043534 0.032215
0.218358 0.052774 0.000597
0.403245 0.027620 0.000000
0.549928 0.000000 0.000000
0.629133 0.000000 0.000000
0.666757 0.000000 0.000000
0.683616 0.000000 0.000000
0.024447 0.043029 0.037250
0.040208 0.047222 0.039482
0.106338 0.061535 0.036990
0.256700 0.075901 0.000081
0.459568 0.073106 0.000000
0.606908 0.000087 0.000000
0.681069 0.000000 0.000000
0.713177 0.000000 0.000000
0.727031 0.000000 0.000000
0.000000 0.089219 0.050214
0.001406 0.095042 0.051058
0.121374 0.115772 0.043915
0.303070 0.144361 0.000000
0.529133 0.165801 0.000000
0.680819 0.163508 0.000000
0.749382 0.159935 0.000000
0.780361 0.171054 0.000000
0.795942 0.187861 0.000000
0.000000 0.186491 0.057699
0.000000 0.200063 0.054453
0.107826 0.236085 0.001791
0.360558 0.294824 0.000000
0.615152 0.336892 0.000000
0.776345 0.350635 0.000000
0.845741 0.355095 0.000000
0.875674 0.369604 0.000000
0.891198 0.389625 0.000000
0.000000 0.308439 0.004513
0.000000 0.335254 0.000000
0.014100 0.399769 0.000000
0.402052 0.488479 0.000000
0.694121 0.555951 0.000000
0.869996 0.583615 0.000000
0.942402 0.589076 0.000000
0.971636 0.602737 0.000000
0.984550 0.618821 0.000000
0.000000 0.401711 0.000000
0.000000 0.440633 0.000000
0.003687 0.521535 0.000000
0.419590 0.631884 0.000000
0.739762 0.720503 0.000000
0.929593 0.761697 0.000000
0.999824 0.770745 0.000000
1.000000 0.769664 0.000000
1.000000 0.773486 0.000000
0.000000 0.441399 0.000000
0.000000 0.489567 0.000000
0.002685 0.574730 0.000000
0.428550 0.691898 0.000000
0.757513 0.789717 0.000000
0.952256 0.838258 0.000000
1.000000 0.844337 0.000000
1.000000 0.842064 0.000000
1.000000 0.843008 0.000000
0.000000 0.462726 0.000000
0.000000 0.523433 0.000000
0.005297 0.606248 0.000000
0.451530 0.719295 0.000000
0.767513 0.814844 0.000000
0.959760 0.864762 0.000000
1.000000 0.870564 0.000000
1.000000 0.867979 0.000000
1.000000 0.867852 0.000000
0.000000 0.489475 0.000000
0.000000 0.562612 0.000000
0.048392 0.638174 0.000000
0.492095 0.739708 0.000000
0.777398 0.825098 0.000000
0.960803 0.872919 0.000000
1.000000 0.879035 0.000000
1.000000 0.876546 0.000000
1.000000 0.875223 0.000000
0.026457 0.030024 0.043807
0.037092 0.033823 0.047697
0.096480 0.045206 0.047909
0.227987 0.049247 0.032902
0.415199 0.000000 0.000000
0.564621 0.000000 0.000000
0.642991 0.000000 0.000000
0.680203 0.000000 0.000000
0.696630 0.000000 0.000000
0.019689 0.046260 0.052211
0.039741 0.051167 0.055024
0.110743 0.064942 0.054903
0.265293 0.074256 0.033809
0.469777 0.047990 0.000002
0.621786 0.000000 0.000000
0.695623 0.000000 0.000000
0.727071 0.000000 0.000000
0.740331 0.000000 0.000000
0.000000 0.097144 0.069543
0.000000 0.103262 0.069900
0.125421 0.124552 0.066333
0.312095 0.148692 0.025813
0.541194 0.164846 0.000002
0.693735 0.159304 0.000000
0.761932 0.153750 0.000000
0.792126 0.165975 0.000000
0.807566 0.185026 0.000000
0.000000 0.201917 0.083755
0.000000 0.216198 0.082498
0.095440 0.252579 0.056219
0.369836 0.308406 0.000000
0.629685 0.349901 0.000000
0.792427 0.363283 0.000000
0.860934 0.366526 0.000000
0.890412 0.382156 0.000000
0.905384 0.402580 0.000000
0.000000 0.329421 0.075292
0.000000 0.355703 0.061043
0.005172 0.419393 0.000000
0.408485 0.511089 0.000000
0.709696 0.580144 0.000000
0.886931 0.606764 0.000000
0.959416 0.612767 0.000000
0.986984 0.625841 0.000000
0.996336 0.640530 0.000000
0.000000 0.418024 0.043384
0.000000 0.457197 0.000219
0.000175 0.540612 0.000000
0.419968 0.652664 0.000000
0.752794 0.743920 0.000000
0.944508 0.784888 0.000000
1.000000 0.789187 0.000000
1.000000 0.786499 0.000000
1.000000 0.791259 0.000000
0.000000 0.454224 0.053976
0.000000 0.501476 0.000457
0.000000 0.588230 0.000000
0.423593 0.706424 0.000000
0.764325 0.805294 0.000000
0.962015 0.853772 0.000000
1.000000 0.856934 0.000000
1.000000 0.854155 0.000000
1.000000 0.854447 0.000000
0.000000 0.478855 0.113841
0.000000 0.532405 0.066379
0.000153 0.611785 0.000003
0.432809 0.724553 0.000004
0.762171 0.820471 0.000000
0.959001 0.870456 0.000000
1.000000 0.875974 0.000000
1.000000 0.873467 0.000000
1.000000 0.871942 0.000000
0.000000 0.514794 0.193327
0.000000 0.578701 0.178119
0.005388 0.642221 0.134277
0.450163 0.731208 0.003540
0.750691 0.815388 0.000000
0.938335 0.862438 0.000000
1.000000 0.874075 0.000000
1.000000 0.870446 0.000000
1.000000 0.867344 0.000000
0.015844 0.028973 0.096588
0.034914 0.032425 0.100899
0.096890 0.043384 0.107415
0.232708 0.044098 0.110474
0.422938 0.000000 0.110749
0.572628 0.000000 0.112177
0.650766 0.000000 0.111250
0.687763 0.000000 0.114866
0.704192 0.000000 0.122600
0.000010 0.048782 0.111117
0.026591 0.054976 0.114347
0.110154 0.067763 0.121534
0.270236 0.076667 0.124222
0.473113 0.002287 0.116736
0.628070 0.000000 0.115993
0.701830 0.000000 0.114981
0.732387 0.000000 0.117587
0.745175 0.000000 0.124225
0.000000 0.108056 0.140354
0.000000 0.115922 0.143917
0.115957 0.136175 0.146765
0.315735 0.159897 0.146972
0.538835 0.156891 0.132538
0.684905 0.122503 0.110665
0.749783 0.090927 0.098064
0.778871 0.107071 0.098097
0.793894 0.138547 0.107251
0.000000 0.224190 0.172476
0.000000 0.238032 0.174922
0.029397 0.273844 0.171222
0.361015 0.320802 0.161453
0.618000 0.345941 0.131707
0.775701 0.346622 0.088065
0.841606 0.343718 0.054657
0.869698 0.358032 0.038810
0.883751 0.379835 0.060087
0.000000 0.359510 0.193335
0.000000 0.385794 0.195250
0.000571 0.443164 0.183211
0.378135 0.516266 0.142802
0.685064 0.571154 0.036207
0.864475 0.594060 0.009752
0.937595 0.599036 0.004701
0.964713 0.610742 0.004735
0.975104 0.626131 0.006307
0.000000 0.451131 0.205771
0.000000 0.487699 0.204897
0.000001 0.558551 0.184164
0.371159 0.649897 0.090164
0.721247 0.733687 0.007680
0.917823 0.773747 0.002940
0.995558 0.784531 0.000000
0.999996 0.782679 0.000000
1.000000 0.785797 0.000220
0.000000 0.488236 0.230367
0.000000 0.532422 0.230085
0.000000 0.605884 0.210386
0.363818 0.701642 0.137327
0.724634 0.789718 0.025617
0.927308 0.836510 0.004712
0.999735 0.849210 0.002993
1.000000 0.845731 0.000653
1.000000 0.845024 0.002661
0.000000 0.514666 0.281053
0.000000 0.568150 0.284241
0.000001 0.637891 0.271434
0.369748 0.728667 0.231556
0.717391 0.806092 0.160473
0.914389 0.846892 0.066062
0.997322 0.862570 0.040519
1.000000 0.859254 0.032766
1.000000 0.857613 0.035672
0.000000 0.549138 0.349600
0.000000 0.612284 0.356029
0.000000 0.675548 0.349100
0.401841 0.755604 0.329332
0.718670 0.824303 0.306182
0.904847 0.860303 0.280491
0.989674 0.874200 0.265601
1.000000 0.871843 0.254618
1.000000 0.870695 0.261154
0.000000 0.000000 0.199182
0.023889 0.000000 0.204993
0.101794 0.000096 0.220930
0.244998 0.000002 0.237179
0.440312 0.000000 0.253226
0.589967 0.000000 0.266103
0.667536 0.000000 0.272044
0.704227 0.000000 0.279588
0.719528 0.000000 0.286478
0.000000 0.007098 0.219557
0.000180 0.036232 0.227728
0.110352 0.055383 0.245634
0.277357 0.058398 0.261752
0.489105 0.000000 0.274703
0.644022 0.000000 0.286298
0.717021 0.000000 0.291750
0.746877 0.000000 0.297380
0.759583 0.000000 0.304510
0.000000 0.111047 0.268121
0.000000 0.120853 0.277350
0.089499 0.148356 0.287886
0.318241 0.170802 0.304897
0.547990 0.166981 0.310539
0.695901 0.134535 0.308370
0.760619 0.106873 0.307533
0.789333 0.124806 0.312244
0.804056 0.155892 0.321199
0.000000 0.250032 0.322247
0.000000 0.265441 0.332518
0.003762 0.302926 0.341081
0.349950 0.347553 0.349612
0.620766 0.372118 0.352686
0.781522 0.372771 0.348217
0.847651 0.368678 0.345345
0.875421 0.383409 0.349257
0.888990 0.405958 0.356367
0.000000 0.397129 0.362660
0.000000 0.424352 0.374386
0.000000 0.482418 0.382631
0.341848 0.552248 0.378911
0.674689 0.603610 0.375814
0.853687 0.618242 0.366227
0.926314 0.619433 0.362250
0.952987 0.630479 0.364308
0.963284 0.646854 0.370364
0.000000 0.492931 0.388030
0.000000 0.529837 0.398702
0.000000 0.601052 0.405972
0.302598 0.688649 0.393708
0.695767 0.760544 0.383863
0.891769 0.789433 0.369881
0.971277 0.796550 0.363534
0.997131 0.802026 0.364227
0.999998 0.807175 0.369192
0.000000 0.529814 0.414124
0.000000 0.574224 0.426557
0.000000 0.647325 0.431962
0.276280 0.739817 0.418942
0.696788 0.818735 0.409142
0.900265 0.854660 0.394239
0.984147 0.866393 0.386459
1.000000 0.866545 0.382725
1.000000 0.866732 0.385463
0.000000 0.552981 0.455771
0.000000 0.606038 0.470986
0.000000 0.676310 0.477294
0.283700 0.763551 0.466852
0.693647 0.840581 0.463164
0.896337 0.878059 0.451560
0.983014 0.891359 0.445248
1.000000 0.891448 0.439968
1.000000 0.890070 0.442665
0.000000 0.581153 0.504962
0.000000 0.645781 0.523325
0.000000 0.708554 0.526946
0.342780 0.785648 0.521225
0.696372 0.853746 0.522843
0.890022 0.889443 0.517268
0.977206 0.903230 0.512503
1.000000 0.905051 0.509265
1.000000 0.903619 0.510606
0.000000 0.000000 0.310922
0.000000 0.000000 0.318796
0.100913 0.000000 0.336990
0.262220 0.000000 0.362497
0.460182 0.000000 0.386136
0.608932 0.000000 0.403360
0.685895 0.000000 0.412203
0.721099 0.000000 0.419178
0.737396 0.000000 0.427211
0.000000 0.000000 0.339918
0.000000 0.000003 0.348721
0.111242 0.000066 0.369268
0.290161 0.000044 0.396632
0.507192 0.000001 0.419905
0.661144 0.000000 0.435567
0.733526 0.000000 0.442862
0.763267 0.000000 0.449838
0.775293 0.000000 0.457348
0.000000 0.070589 0.385493
0.000000 0.094364 0.400958
0.048252 0.151605 0.424049
0.320655 0.172988 0.453002
0.555292 0.166550 0.468889
0.704541 0.129560 0.472930
0.769997 0.099409 0.474473
0.798572 0.122561 0.480642
0.813115 0.159504 0.490442
0.000000 0.260243 0.465916
0.000000 0.277823 0.481095
0.000000 0.321198 0.499139
0.335677 0.367513 0.515291
0.620584 0.391792 0.531099
0.784127 0.391791 0.533827
0.851934 0.387818 0.534130
0.879381 0.402382 0.538473
0.892965 0.426652 0.546792
0.000000 0.423798 0.521648
0.000000 0.450941 0.537764
0.000000 0.510821 0.556448
0.292882 0.579851 0.561836
0.662619 0.630290 0.575380
0.847517 0.644534 0.576489
0.922492 0.645490 0.576056
0.949640 0.656419 0.578973
0.959930 0.672827 0.584432
0.000000 0.524201 0.552320
0.000000 0.561782 0.570046
0.000000 0.632838 0.587469
0.210031 0.718809 0.586814
0.674978 0.789972 0.598004
0.878946 0.818949 0.598439
0.961051 0.825783 0.596891
0.988881 0.831174 0.598204
0.996463 0.837790 0.601991
0.000000 0.559944 0.574963
0.000000 0.605228 0.593848
0.000000 0.679221 0.610288
0.143854 0.769203 0.607871
0.672960 0.847731 0.619015
0.885111 0.883788 0.618594
0.972080 0.895584 0.616676
0.999305 0.899375 0.617254
1.000000 0.899687 0.617640
0.000000 0.579850 0.605021
0.000000 0.633909 0.627226
0.000000 0.704866 0.641944
0.175768 0.790478 0.639820
0.671000 0.867007 0.652704
0.881543 0.904307 0.653309
0.971080 0.917974 0.651894
0.999588 0.921673 0.651211
1.000000 0.920119 0.650785
0.000000 0.604302 0.638781
0.000000 0.670115 0.662587
0.000000 0.733423 0.673074
0.269063 0.808723 0.672786
0.677284 0.876520 0.686616
0.876801 0.912120 0.689151
0.966848 0.926201 0.688769
0.998651 0.930500 0.687614
1.000000 0.928411 0.686534
0.000000 0.000000 0.398177
0.000000 0.000000 0.407939
0.090882 0.000000 0.427294
0.270779 0.000000 0.459599
0.475055 0.000000 0.489215
0.624379 0.000000 0.508866
0.701777 0.000000 0.519341
0.738297 0.000000 0.528541
0.753277 0.000000 0.535026
0.000000 0.000000 0.435496
0.000000 0.000000 0.446508
0.101724 0.000000 0.468521
0.299624 0.000000 0.503648
0.521210 0.000000 0.533199
0.676965 0.000000 0.551861
0.749483 0.000000 0.560443
0.778638 0.000000 0.566891
0.791295 0.000000 0.574942
0.000000 0.012513 0.480943
0.000000 0.030627 0.495095
0.024710 0.144285 0.527564
0.320713 0.167960 0.564102
0.559580 0.156798 0.587730
0.711488 0.110986 0.596580
0.778154 0.041587 0.599602
0.807093 0.101543 0.606172
0.821460 0.150557 0.615369
0.000000 0.254328 0.569681
0.000000 0.273876 0.587610
0.000000 0.325911 0.614253
0.321185 0.376365 0.635859
0.617427 0.400165 0.660563
0.784826 0.399634 0.668353
0.854826 0.395756 0.670292
0.882686 0.409918 0.674660
0.896196 0.435082 0.682196
0.000000 0.432371 0.635831
0.000000 0.461449 0.655427
0.000000 0.524408 0.681838
0.242227 0.593138 0.691282
0.650704 0.643398 0.715739
0.841516 0.657512 0.722752
0.919304 0.658210 0.724151
0.947547 0.668748 0.726933
0.957856 0.685377 0.731206
0.000000 0.541405 0.672251
0.000000 0.578185 0.691602
0.000000 0.649861 0.715813
0.096850 0.735639 0.721600
0.655955 0.806233 0.743621
0.868127 0.835408 0.750959
0.953649 0.842072 0.751745
0.982987 0.847881 0.753236
0.991360 0.854551 0.755303
0.000000 0.577413 0.688187
0.000000 0.622459 0.710295
0.000000 0.696516 0.733239
0.083135 0.787320 0.739066
0.651961 0.864920 0.758848
0.873005 0.901469 0.766782
0.963400 0.913415 0.767999
0.994332 0.917801 0.768681
0.999997 0.919707 0.769152
0.000000 0.596032 0.707557
0.000000 0.648832 0.731754
0.000000 0.719710 0.751621
0.090651 0.805942 0.756343
0.651171 0.882005 0.777154
0.870017 0.920265 0.785106
0.963079 0.934405 0.786962
0.995822 0.939205 0.787318
1.000000 0.939055 0.786617
0.000000 0.619403 0.728705
0.000000 0.682554 0.753728
0.000000 0.746217 0.768405
0.206485 0.821409 0.772174
0.660246 0.889420 0.793022
0.866575 0.925443 0.801440
0.959783 0.940047 0.803609
0.994533 0.945178 0.803919
1.000000 0.945011 0.803122
0.000000 0.000000 0.450066
0.000000 0.000000 0.460539
0.081129 0.000000 0.480428
0.277056 0.000000 0.516948
0.486468 0.000000 0.549984
0.637901 0.000000 0.571857
0.715601 0.000000 0.584196
0.750782 0.000000 0.592491
0.767819 0.000000 0.600012
0.000000 0.000000 0.493334
0.000000 0.000000 0.505742
0.092959 0.000000 0.527838
0.305334 0.000000 0.567896
0.531273 0.000000 0.601004
0.688523 0.000000 0.621006
0.761823 0.000000 0.630805
0.791891 0.000000 0.638380
0.802785 0.000000 0.644786
0.000000 0.002910 0.537881
0.000000 0.018600 0.552474
0.018561 0.145022 0.586949
0.320902 0.173453 0.627245
0.564325 0.163762 0.656078
0.717889 0.117724 0.667499
0.786167 0.056917 0.672066
0.815405 0.110234 0.678800
0.830075 0.161314 0.687921
0.000000 0.251050 0.624785
0.000000 0.271864 0.643736
0.000004 0.328625 0.675122
0.311027 0.382865 0.700059
0.614971 0.406651 0.730294
0.785333 0.406496 0.741680
0.857273 0.401577 0.744725
0.885685 0.415126 0.749091
0.899248 0.441528 0.756181
0.000000 0.436435 0.695865
0.000000 0.464816 0.715937
0.000000 0.527139 0.743704
0.213548 0.598085 0.757583
0.642421 0.647771 0.787851
0.837448 0.662426 0.799270
0.917248 0.662276 0.802040
0.946503 0.672433 0.804891
0.957112 0.689115 0.808427
0.000000 0.546044 0.731152
0.000000 0.583330 0.752139
0.000000 0.655542 0.780138
0.082105 0.741735 0.790247
0.643511 0.811554 0.817029
0.860850 0.841169 0.828950
0.949248 0.847847 0.831805
0.979958 0.853292 0.833143
0.988235 0.859604 0.833762
0.000000 0.583031 0.743907
0.000000 0.629863 0.769637
0.000000 0.703939 0.794397
0.059824 0.793919 0.803493
0.638569 0.871434 0.828119
0.864910 0.908470 0.840399
0.958452 0.920627 0.844029
0.990806 0.925249 0.844969
0.999608 0.927668 0.845459
0.000000 0.601620 0.756452
0.000000 0.655153 0.781714
0.000000 0.725594 0.804001
0.071982 0.811695 0.811724
0.637604 0.887661 0.836148
0.862389 0.926676 0.848506
0.958384 0.941162 0.852337
0.992570 0.946180 0.853154
1.000000 0.946799 0.852787
0.000000 0.624791 0.770965
0.000000 0.687244 0.795697
0.000000 0.751828 0.812620
0.121540 0.825846 0.817636
0.648816 0.894080 0.842354
0.859484 0.930889 0.854099
0.955379 0.945909 0.858190
0.991780 0.951143 0.859397
1.000000 0.951748 0.858903
0.000000 0.000000 0.482854
0.000000 0.000000 0.494299
0.086255 0.000000 0.515318
0.289004 0.000000 0.554192
0.505634 0.000000 0.589125
0.659183 0.000000 0.612130
0.735924 0.000000 0.623543
0.768648 0.000000 0.631637
0.783267 0.000000 0.638677
0.000000 0.000000 0.527611
0.000000 0.000000 0.541331
0.095390 0.006309 0.563999
0.310802 0.004345 0.605644
0.539756 0.000003 0.639768
0.698754 0.000009 0.660064
0.772723 0.000000 0.669478
0.801985 0.000003 0.676377
0.812274 0.000013 0.682391
0.000000 0.016322 0.566579
0.000000 0.066902 0.585150
0.004700 0.173489 0.621894
0.321739 0.211375 0.662179
0.572869 0.210314 0.693101
0.729637 0.184440 0.705982
0.799330 0.165976 0.710929
0.829117 0.183627 0.717541
0.843778 0.219515 0.725877
0.000000 0.264101 0.651565
0.000000 0.288651 0.672845
0.000001 0.345823 0.703107
0.304228 0.402988 0.728088
0.615411 0.428428 0.760279
0.788350 0.428864 0.773112
0.862412 0.424332 0.777010
0.891791 0.437457 0.781661
0.905143 0.461688 0.787977
0.000000 0.442849 0.717749
0.000000 0.471573 0.738883
0.000000 0.534320 0.768095
0.195020 0.604509 0.781457
0.637152 0.653889 0.813900
0.834867 0.669092 0.827113
0.916420 0.668827 0.830974
0.946917 0.678666 0.834017
0.957750 0.694269 0.836824
0.000000 0.548723 0.753126
0.000000 0.586595 0.774836
0.000000 0.658401 0.802581
0.074700 0.743654 0.813634
0.636369 0.812931 0.841824
0.855989 0.842441 0.855962
0.946308 0.849078 0.859912
0.978713 0.854586 0.861868
0.988293 0.862132 0.862969
0.000000 0.588098 0.765502
0.000000 0.631464 0.786716
0.000000 0.706348 0.814087
0.045244 0.795500 0.825343
0.630995 0.872422 0.851640
0.859498 0.909736 0.865746
0.955496 0.922274 0.870610
0.988877 0.926832 0.871916
0.998261 0.929514 0.872228
0.000000 0.603623 0.771861
0.000000 0.658503 0.800328
0.000000 0.728428 0.821929
0.062260 0.813281 0.830268
0.630098 0.888887 0.856071
0.856905 0.928057 0.870132
0.955323 0.943074 0.875146
0.990889 0.948048 0.876373
0.999991 0.949242 0.876190
0.000000 0.626733 0.783803
0.000000 0.691155 0.811124
0.000000 0.753036 0.827494
0.101716 0.826627 0.833372
0.640214 0.894650 0.858961
0.853984 0.932122 0.872262
0.952150 0.947447 0.877374
0.990097 0.952862 0.878890
1.000000 0.954105 0.878681
0.000000 0.000000 0.518862
0.000000 0.000000 0.532199
0.102892 0.000000 0.555644
0.305798 0.000000 0.595824
0.528576 0.000000 0.631057
0.685602 0.000000 0.652905
0.762215 0.000000 0.664456
0.792966 0.000000 0.671445
0.803766 0.000000 0.677536
0.000000 0.000000 0.555608
0.000000 0.000000 0.570281
0.026940 0.138379 0.603554
0.320164 0.160902 0.645538
0.554926 0.149222 0.676301
0.708143 0.097072 0.690126
0.779131 0.005038 0.696364
0.809233 0.065976 0.703334
0.824416 0.137789 0.712179
0.000000 0.125082 0.598612
0.000000 0.169385 0.624985
0.001748 0.236108 0.656852
0.321732 0.283986 0.692699
0.587805 0.295918 0.724777
0.749616 0.285010 0.738214
0.821759 0.276205 0.743301
0.852242 0.290197 0.749533
0.866856 0.319700 0.757264
0.000000 0.302715 0.671933
0.000000 0.329027 0.693168
0.000003 0.386660 0.724451
0.294745 0.444668 0.746274
0.618532 0.474581 0.778884
0.796470 0.479034 0.792763
0.872983 0.474888 0.796938
0.903423 0.487323 0.801344
0.916436 0.510395 0.806865
0.000000 0.455029 0.728227
0.000000 0.486619 0.750213
0.000000 0.550611 0.778653
0.180611 0.620825 0.791752
0.633737 0.670761 0.824030
0.834145 0.687891 0.838287
0.918235 0.687917 0.842483
0.949567 0.696069 0.845183
0.960522 0.711074 0.847800
0.000000 0.552226 0.758960
0.000000 0.594044 0.783124
0.000000 0.663699 0.809304
0.073798 0.747260 0.820799
0.632353 0.815988 0.849408
0.851863 0.845268 0.863770
0.944549 0.852792 0.868631
0.977868 0.857557 0.870446
0.988240 0.864967 0.871689
0.000000 0.589134 0.772558
0.000000 0.638341 0.795948
0.000000 0.709300 0.819911
0.046568 0.796766 0.831490
0.626433 0.872401 0.858262
0.854845 0.909585 0.872943
0.952910 0.922400 0.878225
0.987893 0.926818 0.879867
0.996970 0.928970 0.879462
0.000000 0.606885 0.778115
0.000000 0.662054 0.804933
0.000000 0.731633 0.827584
0.061637 0.814182 0.835645
0.624776 0.888553 0.861566
0.852268 0.927883 0.876223
0.952696 0.943247 0.881955
0.989502 0.948374 0.883317
0.999059 0.948992 0.882609
0.000000 0.630622 0.788811
0.000000 0.696041 0.816832
0.000000 0.755204 0.832148
0.099746 0.826984 0.838041
0.634418 0.894239 0.863672
0.849119 0.931775 0.877508
0.948887 0.947475 0.882890
0.988187 0.952740 0.884441
0.999996 0.954591 0.884855
