apps/lut-action/luts/Kodak_D55_modified.cube
# Pomfort LiveGrade
# Created by LiveGrade 2.1 on 2014-08-08 13:46:39 +0000
LUT_3D_SIZE 33
0.027455 0.027940 0.030632
0.029151 0.028884 0.031966
0.031965 0.029653 0.032894
0.037671 0.030669 0.033320
0.040124 0.032079 0.033647
0.046683 0.033676 0.033708
0.062345 0.035668 0.033570
0.076736 0.039623 0.033391
0.092628 0.043534 0.032215
0.118824 0.045809 0.029829
0.150934 0.048242 0.023507
0.182406 0.050809 0.010262
0.218358 0.052774 0.000597
0.262141 0.052988 0.000000
0.310882 0.050079 0.000000
0.359218 0.043825 0.000000
0.403245 0.027620 0.000000
0.443405 0.003683 0.000000
0.482901 0.000000 0.000000
0.519245 0.000000 0.000000
0.549928 0.000000 0.000000
0.574809 0.000000 0.000000
0.595935 0.000000 0.000000
0.613999 0.000000 0.000000
0.629133 0.000000 0.000000
0.641374 0.000000 0.000000
0.651309 0.000000 0.000000
0.659648 0.000000 0.000000
0.666757 0.000000 0.000000
0.672376 0.000000 0.000000
0.676898 0.000000 0.000000
0.681133 0.000000 0.000000
0.683616 0.000000 0.000000
0.027161 0.030708 0.032087
0.028934 0.031504 0.033233
0.031656 0.032214 0.034072
0.037672 0.033199 0.034432
0.040245 0.034674 0.034795
0.047909 0.036227 0.034762
0.064432 0.038584 0.034785
0.079748 0.042909 0.034366
0.096302 0.047101 0.033071
0.123786 0.050057 0.030553
0.157648 0.052229 0.023000
0.191034 0.054161 0.009155
0.228823 0.056063 0.000454
0.273975 0.056772 0.000000
0.323894 0.054731 0.000000
0.373363 0.049699 0.000000
0.418279 0.039017 0.000000
0.458903 0.019918 0.000000
0.498477 0.000011 0.000000
0.535165 0.000033 0.000000
0.565951 0.000000 0.000000
0.590666 0.000000 0.000000
0.611410 0.000000 0.000000
0.629002 0.000000 0.000000
0.643674 0.000000 0.000000
0.655424 0.000000 0.000000
0.664823 0.000000 0.000000
0.672658 0.000000 0.000000
0.679359 0.000000 0.000000
0.684660 0.000000 0.000000
0.688914 0.000000 0.000000
0.692894 0.000000 0.000000
0.695229 0.000000 0.000000
0.026934 0.033708 0.033361
0.028637 0.034470 0.034417
0.031284 0.035125 0.035177
0.037425 0.036094 0.035501
0.040141 0.037622 0.035880
0.048468 0.039292 0.035867
0.066450 0.042016 0.035886
0.082386 0.046498 0.035249
0.099450 0.050795 0.033827
0.127946 0.053771 0.031016
0.163260 0.055597 0.022521
0.198407 0.057871 0.007800
0.237763 0.060120 0.000254
0.284065 0.060915 0.000000
0.335044 0.059476 0.000000
0.385523 0.055595 0.000000
0.431243 0.047253 0.000000
0.472246 0.029525 0.000000
0.511763 0.006195 0.000000
0.548669 0.000036 0.000000
0.579574 0.000028 0.000000
0.604171 0.000000 0.000000
0.624610 0.000000 0.000000
0.641819 0.000000 0.000000
0.656120 0.000000 0.000000
0.667478 0.000000 0.000000
0.676445 0.000000 0.000000
0.683874 0.000000 0.000000
0.690248 0.000000 0.000000
0.695290 0.000000 0.000000
0.699321 0.000000 0.000000
0.703089 0.000000 0.000000
0.705302 0.000000 0.000000
0.024892 0.038955 0.035056
0.027609 0.039729 0.036052
0.030466 0.040417 0.036778
0.036749 0.041422 0.037084
0.039581 0.043030 0.037456
0.048602 0.044997 0.037505
0.068966 0.048341 0.037332
0.085053 0.052456 0.036368
0.102638 0.056722 0.035093
0.132374 0.059739 0.031819
0.169255 0.061803 0.022773
0.206188 0.064900 0.006780
0.247161 0.068473 0.000074
0.294695 0.070026 0.000000
0.346844 0.069198 0.000000
0.398475 0.066626 0.000000
0.445078 0.061219 0.000000
0.486490 0.049714 0.000000
0.525706 0.027823 0.000000
0.562007 0.003452 0.000000
0.592991 0.000008 0.000000
0.617467 0.000000 0.000000
0.637598 0.000000 0.000000
0.654429 0.000000 0.000000
0.668395 0.000000 0.000000
0.679439 0.000000 0.000000
0.688079 0.000000 0.000000
0.695198 0.000000 0.000000
0.701313 0.000000 0.000000
0.706140 0.000000 0.000000
0.709982 0.000000 0.000000
0.713569 0.000000 0.000000
0.715678 0.000000 0.000000
0.024447 0.043029 0.037250
0.027553 0.043742 0.038170
0.030660 0.044426 0.038852
0.037177 0.045484 0.039124
0.040208 0.047222 0.039482
0.050359 0.049764 0.039774
0.071247 0.053033 0.039164
0.087853 0.056969 0.038042
0.106338 0.061535 0.036990
0.137329 0.064859 0.033230
0.175778 0.067412 0.024198
0.214211 0.071061 0.007329
0.256700 0.075901 0.000081
0.305575 0.078445 0.000000
0.359062 0.078515 0.000000
0.412000 0.077070 0.000000
0.459568 0.073106 0.000000
0.501521 0.065146 0.000000
0.540813 0.048850 0.000000
0.576549 0.020939 0.000000
0.606908 0.000087 0.000000
0.631216 0.000000 0.000000
0.650990 0.000000 0.000000
0.667422 0.000000 0.000000
0.681069 0.000000 0.000000
0.691884 0.000000 0.000000
0.700309 0.000000 0.000000
0.707234 0.000000 0.000000
0.713177 0.000000 0.000000
0.717850 0.000000 0.000000
0.721551 0.000000 0.000000
0.725001 0.000000 0.000000
0.727031 0.000000 0.000000
0.017865 0.049860 0.039627
0.024652 0.050511 0.040311
0.029221 0.051237 0.040911
0.036789 0.052612 0.041381
0.040533 0.054677 0.041903
0.050536 0.057154 0.042214
0.072264 0.060279 0.041036
0.090703 0.064695 0.040088
0.110245 0.069631 0.038765
0.142607 0.073582 0.034511
0.182700 0.077139 0.024563
0.222685 0.081359 0.006898
0.266635 0.086027 0.000000
0.316944 0.089263 0.000000
0.371918 0.090630 0.000000
0.426277 0.090685 0.000000
0.474902 0.089083 0.000000
0.517445 0.084558 0.000000
0.557014 0.076097 0.000000
0.592690 0.064251 0.000000
0.622235 0.046699 0.000000
0.645559 0.022604 0.000000
0.664688 0.017223 0.000000
0.680516 0.014069 0.000000
0.693754 0.011000 0.000000
0.704357 0.010396 0.000000
0.712666 0.011483 0.000000
0.719526 0.013472 0.000000
0.725426 0.015667 0.000000
0.730091 0.017473 0.000000
0.733811 0.019320 0.000000
0.737288 0.021274 0.000000
0.739332 0.022375 0.000000
0.002945 0.062875 0.042845
0.007082 0.063516 0.043262
0.013757 0.064203 0.043386
0.029323 0.065756 0.043588
0.035110 0.067961 0.044101
0.047125 0.070806 0.044397
0.072580 0.074500 0.043391
0.092605 0.079361 0.041912
0.113883 0.084757 0.039530
0.147953 0.089539 0.035572
0.189997 0.093849 0.023567
0.232193 0.099226 0.005478
0.277955 0.105229 0.000000
0.329790 0.109968 0.000000
0.386264 0.113012 0.000000
0.442084 0.114897 0.000000
0.491799 0.115173 0.000000
0.534976 0.113175 0.000000
0.574884 0.108786 0.000000
0.610752 0.103254 0.000000
0.640393 0.097820 0.000000
0.663376 0.093043 0.000000
0.681628 0.086434 0.000000
0.696656 0.079505 0.000000
0.709383 0.074129 0.000000
0.719783 0.073764 0.000000
0.728058 0.076747 0.000000
0.734987 0.081535 0.000000
0.741032 0.086741 0.000000
0.745926 0.091582 0.000000
0.749941 0.096709 0.000000
0.753725 0.102025 0.000000
0.755941 0.105020 0.000000
0.000000 0.075646 0.046559
0.000000 0.076337 0.047123
0.000131 0.077039 0.047283
0.015394 0.078576 0.047173
0.023952 0.080930 0.047512
0.041774 0.084024 0.047462
0.072709 0.088183 0.046476
0.094494 0.093549 0.044506
0.117915 0.099571 0.041697
0.154091 0.105123 0.036456
0.198243 0.110380 0.023718
0.242542 0.116800 0.005410
0.290213 0.124037 0.000000
0.343668 0.130122 0.000000
0.401713 0.134498 0.000000
0.459066 0.137795 0.000000
0.509967 0.139654 0.000000
0.553880 0.139810 0.000000
0.594170 0.137886 0.000000
0.630249 0.134575 0.000000
0.660024 0.131672 0.000000
0.683045 0.129278 0.000000
0.701217 0.126530 0.000000
0.716118 0.124218 0.000000
0.728732 0.123466 0.000000
0.739032 0.124855 0.000000
0.747192 0.127466 0.000000
0.754041 0.130427 0.000000
0.760054 0.133655 0.000000
0.764982 0.137561 0.000000
0.769078 0.142009 0.000000
0.772954 0.146524 0.000000
0.775221 0.149069 0.000000
0.000000 0.089219 0.050214
0.000000 0.090030 0.050870
0.000000 0.090883 0.051232
0.000208 0.092525 0.050945
0.001406 0.095042 0.051058
0.031103 0.098415 0.050984
0.070707 0.103067 0.049714
0.096886 0.109158 0.047564
0.121374 0.115772 0.043915
0.160100 0.122124 0.036544
0.206732 0.128389 0.021705
0.253409 0.136013 0.004200
0.303070 0.144361 0.000000
0.358213 0.151544 0.000000
0.417965 0.157426 0.000000
0.476967 0.162358 0.000000
0.529133 0.165801 0.000000
0.573804 0.167319 0.000000
0.614516 0.166730 0.000000
0.650876 0.165056 0.000000
0.680819 0.163508 0.000000
0.703899 0.162150 0.000000
0.722052 0.160708 0.000000
0.736858 0.159727 0.000000
0.749382 0.159935 0.000000
0.759568 0.161681 0.000000
0.767615 0.164385 0.000000
0.774361 0.167497 0.000000
0.780361 0.171054 0.000000
0.785362 0.175318 0.000000
0.789584 0.180169 0.000000
0.793598 0.185095 0.000000
0.795942 0.187861 0.000000
0.000000 0.109764 0.054263
0.000000 0.110836 0.054642
0.000000 0.111937 0.054787
0.000000 0.113944 0.054332
0.000003 0.116810 0.054034
0.008105 0.120460 0.053109
0.058017 0.125585 0.050827
0.094911 0.132549 0.047438
0.123164 0.140221 0.042120
0.164892 0.147727 0.031556
0.214785 0.155585 0.013086
0.264785 0.165230 0.000836
0.316851 0.175138 0.000002
0.373778 0.183536 0.000000
0.435265 0.190763 0.000000
0.495931 0.197217 0.000000
0.549381 0.202100 0.000000
0.594867 0.204837 0.000000
0.636066 0.205477 0.000000
0.672784 0.205290 0.000000
0.702956 0.204823 0.000000
0.726178 0.204502 0.000000
0.744347 0.204095 0.000000
0.759087 0.203840 0.000000
0.771534 0.204552 0.000000
0.781639 0.206625 0.000000
0.789552 0.209391 0.000000
0.796212 0.212734 0.000000
0.802190 0.216563 0.000000
0.807242 0.221129 0.000000
0.811563 0.226187 0.000000
0.815676 0.231134 0.000000
0.818067 0.233851 0.000000
0.000000 0.134774 0.056229
0.000000 0.136277 0.056506
0.000000 0.137789 0.056549
0.000000 0.140345 0.055912
0.000008 0.143826 0.055325
0.001403 0.148217 0.054030
0.033670 0.153768 0.049724
0.085977 0.161714 0.043759
0.121551 0.170712 0.034801
0.168282 0.179938 0.017952
0.222812 0.190328 0.003603
0.276595 0.202169 0.000012
0.331255 0.213515 0.000004
0.390340 0.223378 0.000000
0.453703 0.232037 0.000000
0.516020 0.239717 0.000000
0.570784 0.245804 0.000000
0.617180 0.249753 0.000000
0.658970 0.251601 0.000000
0.696090 0.252409 0.000000
0.726564 0.252875 0.000000
0.749975 0.253319 0.000000
0.768175 0.253431 0.000000
0.782847 0.253571 0.000000
0.795266 0.254755 0.000000
0.805321 0.257086 0.000000
0.813151 0.260078 0.000000
0.819721 0.263586 0.000000
0.825648 0.267590 0.000000
0.830706 0.272353 0.000000
0.835049 0.277560 0.000000
0.839186 0.282740 0.000000
0.841596 0.285656 0.000000
0.000000 0.159989 0.057613
0.000000 0.161930 0.057820
0.000000 0.163864 0.057760
0.000000 0.167004 0.056802
0.000000 0.171295 0.055880
0.000445 0.176406 0.053733
0.015529 0.182626 0.046911
0.069617 0.191465 0.036759
0.117172 0.202030 0.018926
0.170950 0.213675 0.002964
0.231097 0.226587 0.000015
0.288680 0.240134 0.000022
0.346229 0.252992 0.000000
0.407522 0.264231 0.000000
0.472784 0.274061 0.000000
0.536898 0.282901 0.000000
0.593052 0.290029 0.000000
0.640417 0.294949 0.000000
0.682884 0.297720 0.000000
0.720493 0.299273 0.000000
0.751340 0.300455 0.000000
0.774993 0.301478 0.000000
0.793252 0.301895 0.000000
0.807898 0.302337 0.000000
0.820325 0.303927 0.000000
0.830345 0.306462 0.000000
0.838094 0.309627 0.000000
0.844563 0.313323 0.000000
0.850464 0.317742 0.000000
0.855507 0.322915 0.000000
0.859814 0.328480 0.000000
0.863916 0.334015 0.000000
0.866310 0.337141 0.000000
0.000000 0.186491 0.057699
0.000000 0.188898 0.057797
0.000000 0.191276 0.057558
0.000000 0.195043 0.056102
0.000000 0.200063 0.054453
0.000002 0.206020 0.050373
0.004022 0.213312 0.039342
0.042012 0.223315 0.020244
0.107826 0.236085 0.001791
0.171888 0.250342 0.000004
0.237941 0.265076 0.000009
0.299832 0.280316 0.000000
0.360558 0.294824 0.000000
0.424227 0.307506 0.000000
0.491566 0.318655 0.000000
0.557537 0.328705 0.000000
0.615152 0.336892 0.000000
0.663579 0.342768 0.000000
0.706853 0.346485 0.000000
0.745039 0.348813 0.000000
0.776345 0.350635 0.000000
0.800257 0.352035 0.000000
0.818612 0.352687 0.000000
0.833333 0.353462 0.000000
0.845741 0.355095 0.000000
0.855720 0.357740 0.000000
0.863379 0.361016 0.000000
0.869815 0.364968 0.000000
0.875674 0.369604 0.000000
0.880648 0.374941 0.000000
0.884862 0.380664 0.000000
0.888862 0.386383 0.000000
0.891198 0.389625 0.000000
0.000000 0.215902 0.054707
0.000000 0.218807 0.054446
0.000000 0.221661 0.053650
0.000000 0.226118 0.050772
0.000000 0.232018 0.046990
0.000003 0.239044 0.037993
0.000055 0.248028 0.022126
0.012834 0.260189 0.002352
0.084661 0.275300 0.000000
0.169376 0.291392 0.000000
0.242441 0.307946 0.000000
0.308888 0.325082 0.000000
0.373221 0.341472 0.000000
0.439673 0.355888 0.000000
0.509237 0.368561 0.000000
0.577147 0.380000 0.000000
0.636348 0.389442 0.000000
0.685931 0.396390 0.000000
0.730100 0.401060 0.000000
0.768984 0.404221 0.000000
0.800811 0.406688 0.000000
0.825048 0.408463 0.000000
0.843598 0.409318 0.000000
0.858358 0.410059 0.000000
0.870785 0.411713 0.000000
0.880773 0.414467 0.000000
0.888420 0.417834 0.000000
0.894774 0.421730 0.000000
0.900501 0.426218 0.000000
0.905359 0.431460 0.000000
0.909467 0.437134 0.000000
0.913346 0.442760 0.000000
0.915606 0.445922 0.000000
0.000000 0.247647 0.046222
0.000000 0.251054 0.045453
0.000000 0.254395 0.042597
0.000000 0.259667 0.035325
0.000000 0.266724 0.028625
0.000000 0.275418 0.015357
0.000010 0.286843 0.004023
0.004347 0.301546 0.000011
0.050169 0.318169 0.000000
0.160208 0.335975 0.000000
0.244007 0.354528 0.000000
0.316034 0.373762 0.000000
0.384181 0.392183 0.000000
0.453571 0.408453 0.000000
0.525791 0.422861 0.000000
0.595905 0.435910 0.000000
0.656909 0.446782 0.000000
0.707760 0.454891 0.000000
0.752913 0.460560 0.000000
0.792586 0.464571 0.000000
0.824975 0.467584 0.000000
0.849587 0.469601 0.000000
0.868328 0.470448 0.000000
0.883148 0.471051 0.000000
0.895658 0.472676 0.000000
0.905669 0.475429 0.000000
0.913265 0.478762 0.000000
0.919536 0.482601 0.000000
0.925144 0.486928 0.000000
0.929843 0.491891 0.000000
0.933776 0.497258 0.000000
0.937458 0.502582 0.000000
0.939594 0.505569 0.000000
0.000000 0.279255 0.027121
0.000000 0.283267 0.026049
0.000000 0.287195 0.021409
0.000000 0.293561 0.012325
0.000000 0.302118 0.007792
0.000000 0.312725 0.000018
0.000019 0.326321 0.000004
0.000112 0.342747 0.000021
0.026754 0.360952 0.000000
0.138197 0.380282 0.000000
0.243770 0.400851 0.000000
0.321457 0.422185 0.000000
0.393898 0.442669 0.000000
0.466540 0.460835 0.000000
0.541377 0.476966 0.000000
0.613756 0.491619 0.000000
0.676636 0.503910 0.000000
0.728940 0.513241 0.000000
0.775086 0.519842 0.000000
0.815581 0.524604 0.000000
0.848610 0.528164 0.000000
0.873634 0.530437 0.000000
0.892591 0.531248 0.000000
0.907513 0.531693 0.000000
0.920076 0.533216 0.000000
0.930143 0.535966 0.000000
0.937729 0.539329 0.000000
0.943944 0.543148 0.000000
0.949445 0.547327 0.000000
0.953936 0.551979 0.000000
0.957617 0.556974 0.000000
0.961062 0.561964 0.000000
0.963069 0.564779 0.000000
0.000000 0.308439 0.004513
0.000000 0.313182 0.004249
0.000000 0.317865 0.002676
0.000000 0.325383 0.000335
0.000000 0.335254 0.000000
0.000000 0.347276 0.000036
0.000000 0.362161 0.000000
0.000000 0.380063 0.000000
0.014100 0.399769 0.000000
0.102527 0.420503 0.000000
0.242850 0.442863 0.000000
0.325634 0.466118 0.000000
0.402052 0.488479 0.000000
0.477667 0.508381 0.000000
0.554982 0.526133 0.000000
0.629529 0.542322 0.000000
0.694121 0.555951 0.000000
0.747718 0.566386 0.000000
0.794994 0.573960 0.000000
0.836349 0.579495 0.000000
0.869996 0.583615 0.000000
0.895462 0.586222 0.000000
0.914673 0.587164 0.000000
0.929739 0.587599 0.000000
0.942402 0.589076 0.000000
0.952567 0.591838 0.000000
0.960155 0.595154 0.000000
0.966253 0.598798 0.000000
0.971636 0.602737 0.000000
0.975970 0.607057 0.000000
0.979429 0.611634 0.000000
0.982654 0.616218 0.000000
0.984550 0.618821 0.000000
0.000000 0.335130 0.000000
0.000000 0.340637 0.000000
0.000000 0.346033 0.000000
0.000000 0.354397 0.000000
0.000000 0.365141 0.000000
0.000000 0.378137 0.000000
0.000000 0.394190 0.000000
0.000000 0.413401 0.000000
0.005836 0.434482 0.000000
0.077840 0.456570 0.000000
0.238903 0.480391 0.000000
0.328274 0.505372 0.000000
0.408421 0.529431 0.000000
0.486835 0.550928 0.000000
0.566209 0.570184 0.000000
0.642680 0.587823 0.000000
0.708731 0.602734 0.000000
0.763521 0.614253 0.000000
0.811861 0.622780 0.000000
0.854072 0.629129 0.000000
0.888368 0.633897 0.000000
0.914390 0.637032 0.000000
0.933880 0.638305 0.000000
0.949172 0.638967 0.000000
0.962077 0.640576 0.000000
0.972261 0.643238 0.000000
0.979619 0.646248 0.000000
0.985429 0.649507 0.000000
0.989824 0.652813 0.000000
0.992940 0.656242 0.000000
0.995292 0.659873 0.000000
0.997476 0.663543 0.000000
0.998767 0.665628 0.000000
0.000000 0.360419 0.000000
0.000000 0.366739 0.000000
0.000000 0.372855 0.000000
0.000000 0.382006 0.000000
0.000000 0.393566 0.000000
0.000000 0.407466 0.000000
0.000000 0.424598 0.000000
0.000000 0.445037 0.000000
0.005056 0.467434 0.000000
0.072123 0.490839 0.000000
0.230584 0.516006 0.000000
0.329202 0.542631 0.000000
0.412969 0.568313 0.000000
0.494018 0.591350 0.000000
0.575367 0.612084 0.000000
0.653587 0.631160 0.000000
0.721059 0.647369 0.000000
0.776998 0.660013 0.000000
0.826283 0.669505 0.000000
0.869414 0.676704 0.000000
0.904432 0.682189 0.000000
0.931011 0.685968 0.000000
0.950929 0.687785 0.000000
0.966641 0.688860 0.000000
0.979548 0.690548 0.000000
0.989113 0.692856 0.000000
0.994403 0.694838 0.000000
0.998305 0.696962 0.000000
0.999760 0.698743 0.000000
0.999999 0.700517 0.000000
1.000000 0.702583 0.000000
1.000000 0.704748 0.000000
1.000000 0.705961 0.000000
0.000000 0.383213 0.000000
0.000000 0.390363 0.000000
0.000000 0.397202 0.000000
0.000000 0.407102 0.000000
0.000000 0.419392 0.000000
0.000000 0.434079 0.000000
0.000000 0.452161 0.000000
0.000000 0.473683 0.000000
0.004365 0.497247 0.000000
0.065997 0.521827 0.000000
0.220610 0.548202 0.000000
0.329589 0.576302 0.000000
0.416633 0.603436 0.000000
0.499916 0.627874 0.000000
0.583114 0.649970 0.000000
0.662704 0.670354 0.000000
0.731384 0.687763 0.000000
0.788399 0.701448 0.000000
0.838683 0.711864 0.000000
0.882570 0.719860 0.000000
0.918261 0.726041 0.000000
0.945403 0.730425 0.000000
0.965758 0.732801 0.000000
0.981743 0.734277 0.000000
0.993462 0.735647 0.000000
0.999456 0.736568 0.000000
1.000000 0.736624 0.000000
1.000000 0.736869 0.000000
0.999992 0.737504 0.000000
0.999996 0.738733 0.000000
1.000000 0.740326 0.000000
1.000000 0.741966 0.000000
1.000000 0.742887 0.000000
0.000000 0.401711 0.000000
0.000000 0.409673 0.000000
0.000000 0.417200 0.000000
0.000000 0.427755 0.000000
0.000000 0.440633 0.000000
0.000000 0.455921 0.000000
0.000000 0.474726 0.000000
0.000000 0.497077 0.000000
0.003687 0.521535 0.000000
0.060087 0.547029 0.000000
0.211100 0.574351 0.000000
0.329852 0.603599 0.000000
0.419590 0.631884 0.000000
0.504800 0.657442 0.000000
0.589455 0.680645 0.000000
0.670162 0.702116 0.000000
0.739762 0.720503 0.000000
0.797647 0.735045 0.000000
0.848717 0.746224 0.000000
0.893281 0.754898 0.000000
0.929593 0.761697 0.000000
0.957190 0.766625 0.000000
0.977972 0.769507 0.000000
0.993430 0.771110 0.000000
0.999824 0.770745 0.000000
1.000000 0.769552 0.000000
0.999999 0.769127 0.000000
1.000000 0.769245 0.000000
1.000000 0.769664 0.000000
1.000000 0.770499 0.000000
1.000000 0.771633 0.000000
1.000000 0.772821 0.000000
1.000000 0.773486 0.000000
0.000000 0.415422 0.000000
0.000000 0.424156 0.000000
0.000000 0.432325 0.000000
0.000000 0.443419 0.000000
0.000000 0.456720 0.000000
0.000000 0.472396 0.000000
0.000000 0.491674 0.000000
0.000000 0.514570 0.000000
0.003131 0.539619 0.000000
0.055322 0.565733 0.000000
0.203596 0.593722 0.000000
0.330255 0.623773 0.000000
0.421843 0.652880 0.000000
0.508459 0.679267 0.000000
0.594195 0.703314 0.000000
0.675818 0.725634 0.000000
0.746258 0.744819 0.000000
0.804739 0.760042 0.000000
0.856286 0.771822 0.000000
0.901367 0.781059 0.000000
0.938119 0.788356 0.000000
0.966068 0.793746 0.000000
0.987010 0.796997 0.000000
1.000000 0.798140 0.000000
1.000000 0.795751 0.000000
0.999998 0.794345 0.000000
1.000000 0.793765 0.000000
1.000000 0.793680 0.000000
1.000000 0.793961 0.000000
1.000000 0.794757 0.000000
1.000000 0.795700 0.000000
1.000000 0.796588 0.000000
1.000000 0.797089 0.000000
0.000000 0.425771 0.000000
0.000000 0.435271 0.000000
0.000000 0.444059 0.000000
0.000000 0.455620 0.000000
0.000000 0.469220 0.000000
0.000000 0.485133 0.000000
0.000000 0.504702 0.000000
0.000000 0.527935 0.000000
0.002645 0.553360 0.000000
0.051271 0.579887 0.000000
0.197451 0.608340 0.000000
0.330902 0.638953 0.000000
0.423521 0.668651 0.000000
0.510880 0.695667 0.000000
0.597464 0.720404 0.000000
0.679907 0.743436 0.000000
0.750842 0.763273 0.000000
0.809741 0.779075 0.000000
0.861591 0.791357 0.000000
0.907063 0.801091 0.000000
0.944126 0.808855 0.000000
0.972376 0.814667 0.000000
0.993023 0.818161 0.000000
1.000000 0.817629 0.000000
1.000000 0.815312 0.000000
1.000000 0.814139 0.000000
1.000000 0.813570 0.000000
1.000000 0.813369 0.000000
1.000000 0.813408 0.000000
1.000000 0.813767 0.000000
1.000000 0.814374 0.000000
1.000000 0.815038 0.000000
1.000000 0.815407 0.000000
0.000000 0.434119 0.000000
0.000000 0.444450 0.000000
0.000000 0.453904 0.000000
0.000000 0.465924 0.000000
0.000000 0.479772 0.000000
0.000000 0.495835 0.000000
0.000000 0.515563 0.000000
0.000000 0.538990 0.000000
0.002443 0.564613 0.000000
0.049730 0.591387 0.000000
0.195578 0.620139 0.000000
0.332281 0.651104 0.000000
0.425505 0.681201 0.000000
0.513410 0.708666 0.000000
0.600274 0.733899 0.000000
0.683049 0.757470 0.000000
0.754369 0.777826 0.000000
0.813495 0.794096 0.000000
0.865676 0.806835 0.000000
0.911337 0.816972 0.000000
0.948613 0.825119 0.000000
0.977081 0.831327 0.000000
0.997431 0.835032 0.000000
1.000000 0.833340 0.000000
1.000000 0.831415 0.000000
1.000000 0.830334 0.000000
1.000000 0.829719 0.000000
1.000000 0.829414 0.000000
1.000000 0.829341 0.000000
1.000000 0.829565 0.000000
1.000000 0.830008 0.000000
1.000000 0.830500 0.000000
1.000000 0.830772 0.000000
0.000000 0.441399 0.000000
0.000000 0.452705 0.000000
0.000000 0.462933 0.000000
0.000000 0.475462 0.000000
0.000000 0.489567 0.000000
0.000000 0.505737 0.000000
0.000000 0.525551 0.000000
0.000000 0.549046 0.000000
0.002685 0.574730 0.000000
0.052021 0.601611 0.000000
0.200199 0.630507 0.000000
0.335134 0.661617 0.000000
0.428550 0.691898 0.000000
0.516557 0.719605 0.000000
0.603487 0.745141 0.000000
0.686247 0.769038 0.000000
0.757513 0.789717 0.000000
0.816712 0.806301 0.000000
0.869022 0.819346 0.000000
0.914762 0.829802 0.000000
0.952256 0.838258 0.000000
0.980818 0.844731 0.000000
0.999931 0.848363 0.000000
0.999999 0.846023 0.000000
1.000000 0.844337 0.000000
1.000000 0.843299 0.000000
1.000000 0.842634 0.000000
1.000000 0.842236 0.000000
1.000000 0.842064 0.000000
1.000000 0.842167 0.000000
1.000000 0.842471 0.000000
1.000000 0.842819 0.000000
1.000000 0.843008 0.000000
0.000000 0.447228 0.000000
0.000000 0.459658 0.000000
0.000000 0.470764 0.000000
0.000000 0.483868 0.000000
0.000000 0.498255 0.000000
0.000000 0.514532 0.000000
0.000000 0.534376 0.000000
0.000000 0.557842 0.000000
0.003216 0.583458 0.000000
0.056885 0.610313 0.000000
0.209374 0.639217 0.000000
0.339309 0.670284 0.000000
0.432457 0.700557 0.000000
0.520085 0.728312 0.000000
0.606714 0.753946 0.000000
0.689202 0.777969 0.000000
0.760307 0.798797 0.000000
0.819514 0.815549 0.000000
0.871879 0.828806 0.000000
0.917585 0.839459 0.000000
0.955204 0.848152 0.000000
0.983712 0.854786 0.000000
1.000000 0.857722 0.000000
0.999999 0.855627 0.000000
1.000000 0.854114 0.000000
1.000000 0.853150 0.000000
1.000000 0.852487 0.000000
1.000000 0.852055 0.000000
1.000000 0.851835 0.000000
1.000000 0.851870 0.000000
1.000000 0.852084 0.000000
1.000000 0.852338 0.000000
1.000000 0.852475 0.000000
0.000000 0.451885 0.000000
0.000000 0.465551 0.000000
0.000000 0.477619 0.000000
0.000000 0.491325 0.000000
0.000000 0.505992 0.000000
0.000000 0.522332 0.000000
0.000000 0.542130 0.000000
0.000000 0.565456 0.000000
0.003917 0.590881 0.000000
0.063458 0.617579 0.000000
0.221898 0.646356 0.000000
0.344805 0.677200 0.000000
0.437063 0.707289 0.000000
0.523951 0.734920 0.000000
0.609897 0.760482 0.000000
0.691888 0.784468 0.000000
0.762637 0.805299 0.000000
0.821777 0.822131 0.000000
0.873960 0.835500 0.000000
0.919640 0.846288 0.000000
0.957191 0.855119 0.000000
0.985615 0.861866 0.000000
1.000000 0.864337 0.000000
1.000000 0.862390 0.000000
1.000000 0.860965 0.000000
1.000000 0.860027 0.000000
1.000000 0.859351 0.000000
