apps/lut-action/luts/LiColor2_FILM_RWG_3G10_SDR_709_24_100_33pt(1).cube
TITLE "Generate by Resolve"
LUT_3D_SIZE 5
0.0096740000 0.0000000000 0.0000000000
0.6507060000 0.0006260000 0.0398870000
0.8347450000 0.0000000000 0.0671400000
0.8564580000 0.0000000000 0.8033570000
0.8576030000 0.0061950000 0.8078130000
0.0068970000 0.4233010000 0.0996110000
0.4584270000 0.3374530000 0.0292820000
0.8885790000 0.3233230000 0.0032350000
0.8515910000 0.0050350000 0.6852830000
0.8576030000 0.0061950000 0.8078130000
0.0104980000 0.6166320000 0.1211410000
0.1576870000 0.6606850000 0.0592970000
0.9158920000 0.7613030000 0.0091550000
0.9916230000 0.7229420000 0.0109710000
0.8576030000 0.0061950000 0.8078130000
0.8350350000 0.8560010000 0.0130920000
0.8516210000 0.8584120000 0.0110170000
0.9340050000 0.8688640000 0.0028080000
0.9911960000 0.8573430000 0.0567940000
0.9962920000 0.8765390000 0.4177000000
0.9968260000 0.8681160000 0.0764930000
0.9968260000 0.8681160000 0.0764780000
0.9967650000 0.8681010000 0.0763710000
0.9966580000 0.8680860000 0.0760810000
0.9970700000 0.8704660000 0.1171890000
0.0445870000 0.0161440000 0.2504620000
0.5972530000 0.0000000000 0.5676050000
0.8517430000 0.0000000000 0.6326390000
0.8576030000 0.0061950000 0.8078130000
0.8576030000 0.0061950000 0.8078130000
0.0069120000 0.3807430000 0.4134580000
0.3409630000 0.3467310000 0.3638510000
0.8944380000 0.3367820000 0.3438010000
0.8547490000 0.0000000000 0.7629210000
0.8576030000 0.0061950000 0.8078130000
0.0066830000 0.6063780000 0.1201190000
0.1450980000 0.6467840000 0.0663160000
0.9260090000 0.7705960000 0.0980540000
0.9969480000 0.7415730000 0.2047910000
0.8576030000 0.0061950000 0.8078130000
0.3551380000 0.7772640000 0.0108490000
0.3828790000 0.7817650000 0.0141450000
0.7102310000 0.8334020000 0.0087130000
0.9888760000 0.8554210000 0.0919810000
0.9959560000 0.8812090000 0.4634160000
0.9968570000 0.8681470000 0.0768290000
0.9968570000 0.8681470000 0.0768290000
0.9969020000 0.8681320000 0.0767830000
0.9966580000 0.8680860000 0.0760810000
0.9972080000 0.8732590000 0.1409780000
0.0088500000 0.4880140000 0.7577330000
0.0067440000 0.4382390000 0.7663840000
0.8829480000 0.1840240000 0.8482030000
0.8576030000 0.0061950000 0.8078130000
0.8576030000 0.0061950000 0.8078130000
0.0258180000 0.6419170000 0.8122220000
0.0183260000 0.5863280000 0.7898990000
0.8980390000 0.4895550000 0.8697640000
0.8576180000 0.0062100000 0.8078130000
0.8576030000 0.0061950000 0.8078130000
0.0241090000 0.7067220000 0.7758140000
0.0113830000 0.6679640000 0.7292440000
0.8859850000 0.8459140000 0.8478070000
0.9970400000 0.8101780000 0.8212100000
0.8576030000 0.0061950000 0.8078130000
0.3089490000 0.8159910000 0.2834210000
0.3682000000 0.8229040000 0.2803850000
0.7698180000 0.8896620000 0.3049520000
0.9853360000 0.9178910000 0.6862440000
0.9974360000 0.9102310000 0.7312120000
0.8724650000 0.8879840000 0.1212940000
0.8731670000 0.8881970000 0.1221330000
0.8822610000 0.8910050000 0.1321740000
0.9563590000 0.9007100000 0.2200810000
0.9962920000 0.9126420000 0.4800490000
0.0066990000 0.7403070000 0.8223700000
0.0066990000 0.7405360000 0.8221870000
0.0067140000 0.7356830000 0.8201570000
0.9949340000 0.7330890000 0.9842830000
0.8576030000 0.0061950000 0.8078130000
0.0066990000 0.7402150000 0.8224160000
0.0066990000 0.7404290000 0.8223240000
0.0067140000 0.7362780000 0.8202180000
0.9958800000 0.7556110000 0.9851830000
0.8576030000 0.0061950000 0.8078130000
0.0066990000 0.7400930000 0.8224770000
0.0066990000 0.7400930000 0.8224770000
0.0176390000 0.7391930000 0.8202940000
0.9946140000 0.8554820000 0.9862520000
0.8576330000 0.0063320000 0.8078430000
0.0250550000 0.7405660000 0.8213930000
0.0279090000 0.7406420000 0.8212250000
0.0835890000 0.8242010000 0.8827500000
0.9801170000 0.9445330000 0.9646450000
0.9960330000 0.9285270000 0.9525750000
0.8588540000 0.9570920000 0.7722590000
0.8602430000 0.9572900000 0.7721980000
0.8771650000 0.9596860000 0.7720450000
0.9630580000 0.9589380000 0.7909670000
0.9979250000 0.9561760000 0.9100630000
0.0067140000 0.7400930000 0.8224770000
0.0067140000 0.7400930000 0.8224770000
0.0067140000 0.7400930000 0.8224770000
0.0067140000 0.7400930000 0.8224770000
0.9966740000 0.9021440000 0.9884180000
0.0067140000 0.7400930000 0.8224770000
0.0067140000 0.7400930000 0.8224770000
0.0067140000 0.7400930000 0.8224770000
0.0067140000 0.7400930000 0.8224770000
0.9966280000 0.9026170000 0.9883730000
0.0067140000 0.7400930000 0.8224770000
0.0067140000 0.7400930000 0.8224770000
0.0067140000 0.7400930000 0.8224770000
0.0067140000 0.7400930000 0.8224770000
0.9960480000 0.9079580000 0.9879760000
0.0067140000 0.7400930000 0.8224770000
0.0067140000 0.7400930000 0.8224770000
0.0067140000 0.7400930000 0.8224770000
0.0067140000 0.7400930000 0.8224770000
0.9958650000 0.9387660000 0.9879760000
0.0067140000 0.7400930000 0.8224770000
0.0067140000 0.7400930000 0.8224770000
0.0067140000 0.7400930000 0.8224770000
0.8104220000 0.9677420000 0.9999850000
0.9965360000 0.9599600000 0.9889070000
