apps/lut-action/luts/LiColor2_FILM_RWG_3G10_SDR_709_24_100_33pt(1).cube
TITLE "Generate by Resolve"
LUT_3D_SIZE 33
0.0096740000 0.0000000000 0.0000000000
0.0162970000 0.0015870000 0.0045010000
0.0285500000 0.0107580000 0.0129550000
0.0558790000 0.0244140000 0.0221410000
0.1411760000 0.0437170000 0.0272680000
0.2853130000 0.0518350000 0.0252080000
0.4435800000 0.0385750000 0.0242010000
0.5636380000 0.0065920000 0.0292210000
0.6507060000 0.0006260000 0.0398870000
0.7045090000 0.0000000000 0.0442210000
0.7403980000 0.0000000000 0.0501110000
0.7664150000 0.0000000000 0.0539250000
0.7861750000 0.0000000000 0.0561840000
0.8030210000 0.0000000000 0.0577250000
0.8168920000 0.0000000000 0.0610970000
0.8293740000 0.0000000000 0.0635230000
0.8347450000 0.0000000000 0.0671400000
0.8364840000 0.0000000000 0.0770730000
0.8387580000 0.0000000000 0.1021590000
0.8410930000 0.0000000000 0.1382930000
0.8445720000 0.0000000000 0.2339820000
0.8485540000 0.0000000000 0.4377050000
0.8506750000 0.0000000000 0.6231170000
0.8525370000 0.0000920000 0.7351190000
0.8564580000 0.0000000000 0.8033570000
0.8576030000 0.0061950000 0.8078130000
0.8576030000 0.0061950000 0.8078130000
0.8576030000 0.0061950000 0.8078130000
0.8576030000 0.0061950000 0.8078130000
0.8576030000 0.0061950000 0.8078130000
0.8576030000 0.0061950000 0.8078130000
0.8576030000 0.0061950000 0.8078130000
0.8576030000 0.0061950000 0.8078130000
0.0177310000 0.0085450000 0.0100250000
0.0191200000 0.0072940000 0.0094150000
0.0291450000 0.0136720000 0.0153960000
0.0504160000 0.0241550000 0.0228890000
0.1192950000 0.0420540000 0.0290230000
0.2465400000 0.0538640000 0.0265200000
0.4007780000 0.0493630000 0.0235290000
0.5372550000 0.0222480000 0.0237280000
0.6282290000 0.0023650000 0.0350960000
0.6913250000 0.0000000000 0.0432750000
0.7319600000 0.0000000000 0.0490420000
0.7609220000 0.0000000000 0.0523540000
0.7820550000 0.0000000000 0.0558180000
0.7987490000 0.0000000000 0.0569310000
0.8134130000 0.0000000000 0.0594340000
0.8265810000 0.0000000000 0.0623330000
0.8341040000 0.0000000000 0.0658730000
0.8362100000 0.0000000000 0.0725110000
0.8384070000 0.0000000000 0.0979630000
0.8409090000 0.0000000000 0.1335320000
0.8444340000 0.0000000000 0.2222480000
0.8483710000 0.0000000000 0.4224150000
0.8505530000 0.0000000000 0.6139470000
0.8525370000 0.0000000000 0.7306940000
0.8563520000 0.0000000000 0.8028840000
0.8576030000 0.0061950000 0.8078130000
0.8576030000 0.0061950000 0.8078130000
0.8576030000 0.0061950000 0.8078130000
0.8576030000 0.0061950000 0.8078130000
0.8576030000 0.0061950000 0.8078130000
0.8576030000 0.0061950000 0.8078130000
0.8576030000 0.0061950000 0.8078130000
0.8576030000 0.0061950000 0.8078130000
0.0269630000 0.0280770000 0.0251160000
0.0255130000 0.0211490000 0.0205390000
0.0327920000 0.0208740000 0.0207980000
0.0511020000 0.0287790000 0.0269470000
0.1089650000 0.0437630000 0.0318460000
0.2224000000 0.0568090000 0.0294650000
0.3645990000 0.0577860000 0.0257570000
0.5085070000 0.0472110000 0.0240940000
0.6089110000 0.0111700000 0.0266880000
0.6778820000 0.0000000000 0.0361640000
0.7239800000 0.0000000000 0.0441750000
0.7547880000 0.0000000000 0.0503700000
0.7758910000 0.0000000000 0.0530400000
0.7922480000 0.0000000000 0.0560460000
0.8077820000 0.0000000000 0.0566260000
0.8242160000 0.0000000000 0.0626540000
0.8329440000 0.0000000000 0.0638130000
0.8356600000 0.0000000000 0.0698250000
0.8377660000 0.0000000000 0.0915240000
0.8413210000 0.0000000000 0.1368890000
0.8442660000 0.0000000000 0.2097050000
0.8480960000 0.0000000000 0.3988400000
0.8503550000 0.0000000000 0.6009920000
0.8525670000 0.0000000000 0.7244680000
0.8561840000 0.0000000000 0.8001220000
0.8576030000 0.0061950000 0.8078130000
0.8576030000 0.0061950000 0.8078130000
0.8576030000 0.0061950000 0.8078130000
0.8576030000 0.0061950000 0.8078130000
0.8576030000 0.0061950000 0.8078130000
0.8576030000 0.0061950000 0.8078130000
0.8576030000 0.0061950000 0.8078130000
0.8576030000 0.0061950000 0.8078130000
0.0307620000 0.0613870000 0.0394290000
0.0308840000 0.0512860000 0.0362100000
0.0366830000 0.0431070000 0.0340580000
0.0588240000 0.0447390000 0.0345770000
0.1104300000 0.0559550000 0.0364390000
0.2109560000 0.0690170000 0.0319370000
0.3376820000 0.0734260000 0.0271460000
0.4766610000 0.0692760000 0.0246280000
0.5871670000 0.0574040000 0.0265050000
0.6654760000 0.0335390000 0.0296480000
0.7206380000 0.0000000000 0.0348210000
0.7567250000 0.0000000000 0.0440680000
0.7812470000 0.0000000000 0.0483860000
0.7982300000 0.0000000000 0.0518200000
0.8081790000 0.0000000000 0.0551770000
0.8152130000 0.0000000000 0.0571450000
0.8259400000 0.0000000000 0.0573740000
0.8360270000 0.0000000000 0.0709240000
0.8367740000 0.0000000000 0.0806900000
0.8408330000 0.0000000000 0.1274590000
0.8439760000 0.0000000000 0.1939420000
0.8476540000 0.0000000000 0.3671320000
0.8501110000 0.0000000000 0.5818720000
0.8522620000 0.0000000000 0.7150990000
0.8559400000 0.0000000000 0.7956210000
0.8576030000 0.0061950000 0.8078130000
0.8576030000 0.0061950000 0.8078130000
0.8576030000 0.0061950000 0.8078130000
0.8576030000 0.0061950000 0.8078130000
0.8576030000 0.0061950000 0.8078130000
0.8576030000 0.0061950000 0.8078130000
0.8576030000 0.0061950000 0.8078130000
0.8576030000 0.0061950000 0.8078130000
0.0188300000 0.1288620000 0.0481420000
0.0219880000 0.1155720000 0.0467230000
0.0271000000 0.0922560000 0.0441750000
0.0555280000 0.0790720000 0.0426640000
0.1116350000 0.0851610000 0.0393220000
0.1979100000 0.0968950000 0.0339970000
0.3125510000 0.1063860000 0.0287170000
0.4426340000 0.1111160000 0.0264440000
0.5618680000 0.1090100000 0.0276190000
0.6504920000 0.0991990000 0.0297700000
0.7154800000 0.0830400000 0.0321510000
0.7599450000 0.0569470000 0.0344550000
0.7877470000 0.0403750000 0.0383150000
0.8063170000 0.0167540000 0.0412910000
0.8184480000 0.0003810000 0.0471200000
0.8275730000 0.0000000000 0.0517590000
0.8314340000 0.0000000000 0.0559090000
0.8271000000 0.0000000000 0.0573890000
0.8392000000 0.0000000000 0.1055310000
0.8400850000 0.0000000000 0.1154960000
0.8438540000 0.0000000000 0.1932400000
0.8470890000 0.0000000000 0.3297470000
0.8497440000 0.0000000000 0.5533680000
0.8517280000 0.0052490000 0.7010760000
0.8554670000 0.0000000000 0.7879150000
0.8576030000 0.0061950000 0.8078130000
0.8576030000 0.0061950000 0.8078130000
0.8576030000 0.0061950000 0.8078130000
0.8576030000 0.0061950000 0.8078130000
0.8576030000 0.0061950000 0.8078130000
0.8576030000 0.0061950000 0.8078130000
0.8576030000 0.0061950000 0.8078130000
0.8576030000 0.0061950000 0.8078130000
0.0073400000 0.2123140000 0.0599830000
0.0074620000 0.1971010000 0.0558630000
0.0103460000 0.1677270000 0.0495000000
0.0137640000 0.1508350000 0.0466620000
0.1040210000 0.1291070000 0.0391700000
0.1839630000 0.1409630000 0.0345920000
0.2834210000 0.1521930000 0.0319680000
0.4016790000 0.1626610000 0.0301820000
0.5257650000 0.1682460000 0.0289160000
0.6296330000 0.1677730000 0.0291600000
0.7035170000 0.1611200000 0.0304420000
0.7571370000 0.1508050000 0.0320590000
0.7946590000 0.1364610000 0.0337380000
0.8181730000 0.1147630000 0.0346070000
0.8339360000 0.0930500000 0.0368200000
0.8438540000 0.0702370000 0.0393680000
0.8477150000 0.0306550000 0.0420840000
0.8490270000 0.0000150000 0.0511790000
0.8330970000 0.0000000000 0.0571300000
0.8437630000 0.0000000000 0.1932400000
0.8448770000 0.0000000000 0.2155790000
0.8465100000 0.0000000000 0.2888080000
0.8491800000 0.0012360000 0.5123060000
0.8514840000 0.0000000000 0.6798810000
0.8548100000 0.0000000000 0.7770200000
0.8576030000 0.0061950000 0.8078130000
0.8576030000 0.0061950000 0.8078130000
0.8576030000 0.0061950000 0.8078130000
0.8576030000 0.0061950000 0.8078130000
0.8576030000 0.0061950000 0.8078130000
0.8576030000 0.0061950000 0.8078130000
0.8576030000 0.0061950000 0.8078130000
0.8576030000 0.0061950000 0.8078130000
0.0071560000 0.2916910000 0.0792250000
0.0072020000 0.2734260000 0.0757310000
0.0072790000 0.2410620000 0.0667280000
0.0073850000 0.2135500000 0.0573740000
0.0488290000 0.1871980000 0.0441900000
0.1702750000 0.1863580000 0.0386970000
0.2649730000 0.2012970000 0.0361330000
0.3738460000 0.2131990000 0.0332190000
0.4961930000 0.2232390000 0.0302280000
0.6064090000 0.2288400000 0.0277100000
0.6919970000 0.2286410000 0.0269170000
0.7520260000 0.2238800000 0.0273290000
0.7958800000 0.2161290000 0.0286110000
0.8249480000 0.2053710000 0.0300140000
0.8442360000 0.1911960000 0.0311130000
0.8570380000 0.1716640000 0.0324250000
0.8659190000 0.1428850000 0.0339670000
0.8700690000 0.1022050000 0.0373690000
0.8666060000 0.0479590000 0.0419470000
0.8466620000 0.0000150000 0.0569010000
0.8271000000 0.0000000000 0.0573890000
0.8479900000 0.0000000000 0.3536430000
0.8488900000 0.0000000000 0.4453350000
0.8509960000 0.0000000000 0.6462810000
0.8537880000 0.0000000000 0.7609670000
0.8574960000 0.0023190000 0.8075840000
0.8576030000 0.0061950000 0.8078130000
0.8576030000 0.0061950000 0.8078130000
0.8576030000 0.0061950000 0.8078130000
0.8576030000 0.0061950000 0.8078130000
0.8576030000 0.0061950000 0.8078130000
0.8576030000 0.0061950000 0.8078130000
0.8576030000 0.0061950000 0.8078130000
0.0070040000 0.3634090000 0.0907910000
0.0070500000 0.3424890000 0.0874190000
0.0071260000 0.3073780000 0.0812700000
0.0072020000 0.2726790000 0.0721600000
0.0079190000 0.2549940000 0.0643170000
0.1520260000 0.2357210000 0.0443880000
0.2506600000 0.2497750000 0.0400700000
0.3577170000 0.2675360000 0.0354920000
0.4743110000 0.2785530000 0.0301820000
0.5861910000 0.2875410000 0.0243990000
0.6784310000 0.2922260000 0.0181280000
0.7458000000 0.2920730000 0.0175940000
0.7949340000 0.2886240000 0.0153200000
0.8296940000 0.2817580000 0.0136570000
0.8524450000 0.2714580000 0.0156860000
0.8676890000 0.2579390000 0.0226440000
0.8784620000 0.2399940000 0.0253450000
0.8854350000 0.2144350000 0.0289770000
0.8887010000 0.1753110000 0.0323190000
0.8830850000 0.1111310000 0.0366060000
0.8607770000 0.0051420000 0.0515910000
0.8271150000 0.0000150000 0.0573890000
0.8499580000 0.0000000000 0.4950640000
0.8504310000 0.0000000000 0.5855500000
0.8524300000 0.0045930000 0.7335320000
0.8570080000 0.0000000000 0.8058590000
0.8576030000 0.0061950000 0.8078130000
0.8576030000 0.0061950000 0.8078130000
0.8576030000 0.0061950000 0.8078130000
0.8576030000 0.0061950000 0.8078130000
0.8576030000 0.0061950000 0.8078130000
0.8576030000 0.0061950000 0.8078130000
0.8576030000 0.0061950000 0.8078130000
0.0068970000 0.4233010000 0.0996110000
0.0069280000 0.4028990000 0.0965440000
0.0070190000 0.3617150000 0.0896310000
0.0070650000 0.3346000000 0.0843370000
0.0070950000 0.3217060000 0.0804150000
0.0708630000 0.2989850000 0.0540020000
0.2404210000 0.3028310000 0.0438240000
0.3421990000 0.3204550000 0.0376440000
0.4584270000 0.3374530000 0.0292820000
0.5693750000 0.3478750000 0.0150000000
0.6663620000 0.3562370000 0.0050200000
0.7392080000 0.3596090000 0.0019530000
0.7927060000 0.3592890000 0.0032040000
0.8314490000 0.3556730000 0.0006410000
0.8582890000 0.3482110000 0.0000000000
0.8760970000 0.3378040000 0.0082550000
0.8885790000 0.3233230000 0.0032350000
0.8980390000 0.3048600000 0.0017400000
0.9035020000 0.2782940000 0.0139160000
0.9054860000 0.2386510000 0.0259560000
0.8961010000 0.1804680000 0.0319520000
0.8796670000 0.0814370000 0.0519110000
0.8333100000 0.0000310000 0.0571150000
0.8510720000 0.0000000000 0.6011140000
0.8515910000 0.0050350000 0.6852830000
0.8561070000 0.0000000000 0.7953000000
0.8576030000 0.0061950000 0.8078130000
0.8576030000 0.0061950000 0.8078130000
0.8576030000 0.0061950000 0.8078130000
0.8576030000 0.0061950000 0.8078130000
0.8576030000 0.0061950000 0.8078130000
0.8576030000 0.0061950000 0.8078130000
0.8576030000 0.0061950000 0.8078130000
0.0068210000 0.4629740000 0.1047380000
0.0068670000 0.4421300000 0.1017010000
0.0069280000 0.4060120000 0.0957350000
0.0069430000 0.3955290000 0.0936750000
0.0069730000 0.3862210000 0.0912490000
0.0150760000 0.3678640000 0.0795150000
0.1977570000 0.3646750000 0.0499730000
0.3336690000 0.3800720000 0.0385750000
0.4458990000 0.3996030000 0.0215760000
0.5587400000 0.4159300000 0.0055240000
0.6560620000 0.4248570000 0.0006260000
0.7335620000 0.4300910000 0.0000000000
0.7900210000 0.4317240000 0.0002290000
0.8319520000 0.4304260000 0.0000000000
0.8618600000 0.4262000000 0.0090940000
0.8824450000 0.4177000000 0.0000000000
0.8968340000 0.4056920000 0.0000000000
0.9069960000 0.3902340000 0.0000000000
0.9143050000 0.3691920000 0.0000000000
0.9188070000 0.3384300000 0.0000920000
0.9181050000 0.2979930000 0.0073700000
0.9103690000 0.2438540000 0.0334170000
0.8960100000 0.1421990000 0.0705730000
0.8475010000 0.0000460000 0.0568250000
0.8520030000 0.0000000000 0.6716870000
0.8536810000 0.0000000000 0.7547880000
0.8576030000 0.0061950000 0.8078130000
0.8576030000 0.0061950000 0.8078130000
0.8576030000 0.0061950000 0.8078130000
0.8576030000 0.0061950000 0.8078130000
0.8576030000 0.0061950000 0.8078130000
0.8576030000 0.0061950000 0.8078130000
0.8576030000 0.0061950000 0.8078130000
0.0067900000 0.4836960000 0.1071340000
0.0068360000 0.4619670000 0.1034100000
0.0068510000 0.4486610000 0.1008470000
0.0068510000 0.4482340000 0.1008320000
0.0068670000 0.4413210000 0.0988020000
0.0095220000 0.4285040000 0.0928510000
0.0996870000 0.4257270000 0.0619210000
0.3147020000 0.4437170000 0.0394900000
0.4374760000 0.4605330000 0.0121000000
0.5495840000 0.4796370000 0.0025790000
0.6496220000 0.4943010000 0.0000000000
0.7276570000 0.4993210000 0.0008240000
0.7876250000 0.5026470000 0.0000000000
0.8319830000 0.5028150000 0.0004430000
0.8648510000 0.5007860000 0.0000000000
0.8876330000 0.4953690000 0.0050810000
0.9039440000 0.4871290000 0.0000000000
0.9150070000 0.4754860000 0.0065770000
0.9234910000 0.4577860000 0.0000000000
0.9294730000 0.4327460000 0.0000000000
0.9330280000 0.3990540000 0.0000000000
0.9292590000 0.3576710000 0.0000000000
0.9246360000 0.3047680000 0.0408790000
0.9108720000 0.2112460000 0.0968490000
0.8620130000 0.0037990000 0.0571600000
0.8529950000 0.0000150000 0.7286790000
0.8568250000 0.0000000000 0.8050050000
0.8576030000 0.0061950000 0.8078130000
0.8576030000 0.0061950000 0.8078130000
0.8576030000 0.0061950000 0.8078130000
0.8576030000 0.0061950000 0.8078130000
0.8576030000 0.0061950000 0.8078130000
0.8576030000 0.0061950000 0.8078130000
0.0067750000 0.4970780000 0.1079420000
0.0067900000 0.4919660000 0.1065840000
0.0067900000 0.4911570000 0.1063860000
0.0067900000 0.4910350000 0.1064010000
0.0067900000 0.4857560000 0.1045550000
0.0074160000 0.4785080000 0.1008770000
0.0228270000 0.4751200000 0.0812090000
0.2458530000 0.4970630000 0.0458080000
0.4303650000 0.5186390000 0.0076300000
0.5430990000 0.5342950000 0.0007930000
0.6414740000 0.5507740000 0.0035860000
0.7230640000 0.5607540000 0.0000000000
0.7846490000 0.5649350000 0.0000000000
0.8308230000 0.5659420000 0.0000000000
0.8661020000 0.5655760000 0.0000000000
0.8909900000 0.5623710000 0.0000000000
0.9086290000 0.5571220000 0.0074460000
0.9213700000 0.5495840000 0.0070800000
0.9307390000 0.5377280000 0.0020900000
0.9377280000 0.5196460000 0.0003050000
0.9423510000 0.4929270000 0.0014800000
0.9426260000 0.4593880000 0.0000000000
0.9436790000 0.4213020000 0.0050050000
0.9383380000 0.3665220000 0.0596170000
0.9239640000 0.2746930000 0.1290000000
0.8802170000 0.0733500000 0.0821390000
0.8554820000 0.0000310000 0.7737240000
0.8576030000 0.0061950000 0.8078130000
0.8576030000 0.0061950000 0.8078130000
0.8576030000 0.0061950000 0.8078130000
0.8576030000 0.0061950000 0.8078130000
0.8576030000 0.0061950000 0.8078130000
0.8576030000 0.0061950000 0.8078130000
0.0067440000 0.5270920000 0.1117420000
0.0067440000 0.5272450000 0.1118790000
0.0067440000 0.5273370000 0.1119860000
0.0067440000 0.5257950000 0.1113150000
0.0067440000 0.5223160000 0.1099110000
0.0067440000 0.5187300000 0.1071030000
0.0168610000 0.5175400000 0.0959490000
0.1435720000 0.5340510000 0.0599220000
0.3862060000 0.5668570000 0.0090490000
0.5408100000 0.5843440000 0.0006410000
0.6354930000 0.5973300000 0.0000000000
0.7176320000 0.6098570000 0.0000000000
0.7829710000 0.6189970000 0.0000000000
0.8286720000 0.6189820000 0.0050810000
0.8655380000 0.6196540000 0.0088040000
0.8936600000 0.6185090000 0.0000000000
0.9123520000 0.6146790000 0.0062410000
0.9263290000 0.6093540000 0.0018310000
0.9366290000 0.6018460000 0.0015560000
0.9444570000 0.5901120000 0.0000000000
0.9498890000 0.5705500000 0.0000000000
0.9542080000 0.5471270000 0.0029760000
0.9547570000 0.5204850000 0.0000000000
0.9592580000 0.4850230000 0.0000000000
0.9519650000 0.4325930000 0.0862900000
0.9367360000 0.3395590000 0.1710990000
0.8956440000 0.1249100000 0.1147630000
0.8572670000 0.0000460000 0.8069280000
0.8576030000 0.0061950000 0.8078130000
0.8576030000 0.0061950000 0.8078130000
0.8576030000 0.0061950000 0.8078130000
0.8576030000 0.0061950000 0.8078130000
0.8576030000 0.0061950000 0.8078130000
0.0067140000 0.5563290000 0.1164110000
0.0067140000 0.5560540000 0.1162430000
0.0067140000 0.5553060000 0.1157700000
0.0067140000 0.5537800000 0.1148850000
0.0067140000 0.5522540000 0.1141070000
0.0067140000 0.5509880000 0.1113150000
0.0142210000 0.5519340000 0.1034410000
0.0800340000 0.5649200000 0.0723280000
0.3056530000 0.6002590000 0.0196230000
0.5186690000 0.6267030000 0.0045170000
0.6333260000 0.6398870000 0.0035100000
0.7128250000 0.6497750000 0.0000000000
0.7781640000 0.6592660000 0.0038910000
0.8272830000 0.6636450000 0.0013730000
0.8647900000 0.6646220000 0.0023650000
0.8938580000 0.6640570000 0.0033720000
0.9149310000 0.6622870000 0.0092770000
0.9302360000 0.6583200000 0.0036320000
0.9413750000 0.6528110000 0.0000000000
0.9499200000 0.6445560000 0.0000000000
0.9561610000 0.6310370000 0.0000000000
0.9613640000 0.6142520000 0.0000000000
0.9629510000 0.5958340000 0.0014190000
0.9686880000 0.5775690000 0.0056000000
0.9736930000 0.5484240000 0.0420540000
0.9656210000 0.4997180000 0.1203330000
0.9490500000 0.4066530000 0.2215610000
0.9095600000 0.1920200000 0.1568930000
0.8576180000 0.0062560000 0.8076600000
0.8576030000 0.0061950000 0.8078130000
0.8576030000 0.0061950000 0.8078130000
0.8576030000 0.0061950000 0.8078130000
0.8576030000 0.0061950000 0.8078130000
0.0098120000 0.5788820000 0.1194170000
0.0097660000 0.5784390000 0.1190360000
0.0078430000 0.5780880000 0.1184710000
0.0066990000 0.5776150000 0.1179370000
0.0066830000 0.5776150000 0.1166860000
0.0119630000 0.5780420000 0.1141070000
0.0135810000 0.5806060000 0.1076980000
0.0327000000 0.5925990000 0.0830700000
0.2053560000 0.6221260000 0.0423590000
0.4628980000 0.6578160000 0.0015410000
0.6251470000 0.6760810000 0.0000000000
0.7106740000 0.6857100000 0.0107580000
0.7743950000 0.6931720000 0.0000000000
0.8247960000 0.6992140000 0.0005190000
0.8637060000 0.7027540000 0.0122070000
0.8938740000 0.7024190000 0.0000000000
0.9159840000 0.7007250000 0.0048070000
0.9323420000 0.6980850000 0.0097510000
0.9446250000 0.6943010000 0.0066680000
0.9540860000 0.6885180000 0.0004270000
0.9613640000 0.6793470000 0.0000000000
0.9669340000 0.6661020000 0.0000000000
0.9703210000 0.6514530000 0.0000000000
0.9752650000 0.6421910000 0.0120850000
0.9834130000 0.6285040000 0.0170290000
0.9868310000 0.6064390000 0.0716110000
0.9787440000 0.5635460000 0.1627070000
0.9614100000 0.4772260000 0.2787520000
0.9225150000 0.2567480000 0.2105750000
0.8576180000 0.0062710000 0.8076750000
0.8576030000 0.0061950000 0.8078130000
0.8576030000 0.0061950000 0.8078130000
0.8576030000 0.0061950000 0.8078130000
0.0112610000 0.5981690000 0.1210040000
0.0092160000 0.5981690000 0.1207140000
0.0076750000 0.5984590000 0.1201500000
0.0066830000 0.5988400000 0.1193260000
0.0066680000 0.5996640000 0.1176170000
0.0093690000 0.6013430000 0.1146110000
0.0189520000 0.6054170000 0.1083390000
0.0250710000 0.6166020000 0.0869610000
0.1685510000 0.6414590000 0.0541850000
0.3904780000 0.6778970000 0.0050970000
0.5950410000 0.7039440000 0.0024570000
0.7089650000 0.7167470000 0.0080110000
0.7731440000 0.7238570000 0.0060880000
0.8224770000 0.7286790000 0.0040740000
0.8618450000 0.7326770000 0.0101930000
0.8931870000 0.7346300000 0.0000000000
0.9162430000 0.7339280000 0.0133210000
0.9337150000 0.7317620000 0.0048370000
0.9470510000 0.7289390000 0.0000000000
0.9566640000 0.7244680000 0.0118410000
0.9648130000 0.7179220000 0.0095670000
0.9710380000 0.7075300000 0.0044400000
0.9767910000 0.6964220000 0.0000000000
0.9804680000 0.6887310000 0.0039220000
0.9882960000 0.6821850000 0.0073240000
0.9919740000 0.6730300000 0.0634780000
0.9932860000 0.6557560000 0.1135270000
0.9891970000 0.6235140000 0.2163270000
0.9741210000 0.5480580000 0.3481500000
0.9350120000 0.3221180000 0.2722970000
0.8576180000 0.0062870000 0.8076910000
0.8576030000 0.0061950000 0.8078130000
0.8576030000 0.0061950000 0.8078130000
0.0104980000 0.6166320000 0.1211410000
0.0087130000 0.6170600000 0.1205460000
0.0072330000 0.6176850000 0.1196310000
0.0066680000 0.6185090000 0.1183790000
0.0083920000 0.6201110000 0.1162740000
0.0117190000 0.6226600000 0.1129170000
0.0296790000 0.6279240000 0.1059890000
0.0389870000 0.6391390000 0.0848550000
0.1576870000 0.6606850000 0.0592970000
0.3328150000 0.6932020000 0.0095980000
0.5507900000 0.7234300000 0.0000000000
0.6942700000 0.7405810000 0.0092010000
0.7732360000 0.7491870000 0.0066380000
0.8214080000 0.7539940000 0.0043180000
0.8598920000 0.7573210000 0.0164030000
0.8917370000 0.7602810000 0.0021820000
0.9158920000 0.7613030000 0.0091550000
0.9340050000 0.7594110000 0.0071410000
0.9480580000 0.7571530000 0.0000000000
0.9583430000 0.7536280000 0.0133820000
0.9668420000 0.7489130000 0.0179450000
0.9736020000 0.7414050000 0.0177770000
0.9803310000 0.7327990000 0.0020290000
0.9847260000 0.7254290000 0.0094150000
0.9916230000 0.7229420000 0.0109710000
0.9923090000 0.7160140000 0.0595250000
0.9936370000 0.7096210000 0.1052870000
0.9954680000 0.6980390000 0.1747310000
0.9947510000 0.6760510000 0.2797280000
0.9860380000 0.6146180000 0.4239720000
0.9469750000 0.3894710000 0.3406580000
0.8576330000 0.0063170000 0.8077060000
0.8576030000 0.0061950000 0.8078130000
0.0090180000 0.6358890000 0.1178000000
0.0088960000 0.6365910000 0.1169760000
0.0095220000 0.6374910000 0.1159530000
0.0112000000 0.6388190000 0.1145340000
0.0145270000 0.6411840000 0.1114670000
0.0202180000 0.6446480000 0.1067980000
0.0251470000 0.6511020000 0.0951550000
0.0814530000 0.6621200000 0.0771040000
0.1701380000 0.6810560000 0.0544900000
0.3054860000 0.7083700000 0.0146030000
0.5084610000 0.7377130000 0.0133520000
0.6700390000 0.7583430000 0.0006870000
0.7676050000 0.7693600000 0.0142520000
0.8216980000 0.7749450000 0.0047300000
0.8592660000 0.7785920000 0.0010680000
0.8898910000 0.7808350000 0.0123450000
0.9146560000 0.7825130000 0.0097960000
0.9333490000 0.7824830000 0.0087590000
0.9483480000 0.7809570000 0.0000000000
0.9590910000 0.7777830000 0.0173190000
0.9682770000 0.7741660000 0.0173340000
0.9753870000 0.7681390000 0.0201880000
0.9818420000 0.7612420000 0.0199890000
0.9884490000 0.7550470000 0.0000000000
0.9926600000 0.7530630000 0.0269320000
0.9940180000 0.7490200000 0.0575720000
0.9951630000 0.7459530000 0.0985430000
0.9967190000 0.7420610000 0.1551840000
0.9965820000 0.7351640000 0.2429080000
0.9965210000 0.7203630000 0.3533530000
0.9922480000 0.6726330000 0.5006030000
0.9587550000 0.4601360000 0.4145720000
0.8576030000 0.0061950000 0.8078130000
0.0291750000 0.6580610000 0.1088730000
0.0323030000 0.6588540000 0.1079270000
0.0350650000 0.6601210000 0.1062330000
0.0317850000 0.6623180000 0.1018540000
0.0268710000 0.6654310000 0.0956740000
0.0282440000 0.6698250000 0.0876330000
0.0804000000 0.6768440000 0.0781110000
0.1353320000 0.6877090000 0.0658120000
0.1986880000 0.7044170000 0.0283360000
0.3195540000 0.7266350000 0.0166020000
0.4896160000 0.7514150000 0.0063940000
0.6479740000 0.7724570000 0.0106050000
0.7564810000 0.7856570000 0.0068670000
0.8204620000 0.7922030000 0.0182960000
0.8593420000 0.7960330000 0.0126500000
0.8889600000 0.7985050000 0.0086670000
0.9133590000 0.7998930000 0.0143740000
0.9323420000 0.8003970000 0.0104070000
0.9471120000 0.7998780000 0.0136870000
0.9597620000 0.7982600000 0.0018010000
