apps/lut-action/luts/MRSM_Delog_New.cube
TITLE "Generate by Resolve"
LUT_3D_SIZE 33
0 0 0.00462348
0.00634775 0 0.00224308
0.0335546 0 0
0.0589151 0 0
0.0846265 0 0
0.113558 0 0
0.150088 0 0
0.198901 0 0
0.258167 0 0
0.326543 0 0
0.401709 0 0
0.480156 0 0
0.558038 0 0
0.63888 0 0
0.723659 0 0
0.809857 0 0
0.893858 0 0
0.973159 0 0
1 0 0
1 0 0
1 0 0
1 0 0
1 0 0
1 0 0
1 0 0
1 0 0
1 0 0
1 0 0
1 0 0
1 0 0
1 0 0
1 0 0
1 0 0
0 0.00302129 0
0 0.000671397 0
0.0261997 0 0
0.0517281 0 0
0.0775006 0 0
0.106477 0 0
0.143038 0 0
0.191867 0 0
0.251133 0 0
0.319524 0 0
0.394705 0 0
0.473152 0 0
0.551019 0 0
0.631876 0 0
0.716655 0 0
0.802853 0 0
0.88687 0 0
0.966171 0 0
1 0 0
1 0 0
1 0 0
1 0 0
1 0 0
1 0 0
1 0 0
1 0 0
1 0 0
1 0 0
1 0 0
1 0 0
1 0 0
1 0 0
1 0 0
0 0.0257267 0
0 0.0233768 0
0.0187991 0.0209354 0
0.0448463 0.0186923 0
0.0705425 0.0165866 0
0.0993973 0.0142672 0
0.135851 0.0113222 0
0.184619 0.00740063 0
0.243854 0.00262455 0
0.3122 0 0
0.387366 0 0
0.465797 0 0
0.543664 0 0
0.624506 0 0
0.70927 0 0
0.795468 0 0
0.879484 0 0
0.95877 0 0
1 0 0
1 0 0
1 0 0
1 0 0
1 0 0
1 0 0
1 0 0
1 0 0
1 0 0
1 0 0
1 0 0
1 0 0
1 0 0
1 0 0
1 0 0
0 0.0467231 0
0 0.0443732 0
0.0112154 0.0419318 0
0.0375525 0.0396429 0
0.0640116 0.0373541 0
0.0932021 0.0348974 0
0.12958 0.0319371 0
0.178195 0.0280156 0
0.237308 0.02327 0
0.305577 0.0177615 0
0.380697 0.0117189 0
0.459083 0.00538643 0
0.536934 0 0
0.617746 0 0
0.70251 0 0
0.788693 0 0
0.872694 0 0
0.95198 0 0
1 0 0
1 0 0
1 0 0
1 0 0
1 0 0
1 0 0
1 0 0
1 0 0
1 0 0
1 0 0
1 0 0
1 0 0
1 0 0
1 0 0
1 0 0
0 0.06804 0
0 0.0657054 0
0.00352483 0.0632486 0
0.0298466 0.0609751 0
0.0564279 0.0586709 0
0.0862287 0.0560922 0
0.123232 0.0529335 0
0.171908 0.0489509 0
0.230884 0.0441901 0
0.299031 0.0387121 0
0.374044 0.0326696 0
0.452384 0.0263676 0
0.53019 0.0200961 0
0.610971 0.0135805 0
0.695705 0.00674449 0
0.781872 0 0
0.865858 0 0
0.945144 0 0
1 0 0
1 0 0
1 0 0
1 0 0
1 0 0
1 0 0
1 0 0
1 0 0
1 0 0
1 0 0
1 0 0
1 0 0
1 0 0
1 0 0
1 0 0
0 0.092134 0
0 0.0897841 0
0 0.0873274 0
0.021149 0.0850538 0
0.0477455 0.0827649 0
0.0776226 0.0801709 0
0.115221 0.0769207 0
0.164691 0.072694 0
0.223819 0.0678264 0
0.291829 0.0623331 0
0.366705 0.0563211 0
0.444938 0.0500191 0
0.522683 0.0437629 0
0.603418 0.0372625 0
0.688106 0.0304417 0
0.774243 0.0234989 0
0.858198 0.0167239 0
0.937453 0.0103304 0
1 0.00436408 0
1 0 0
1 0 0
1 0 0
1 0 0
1 0 0
1 0 0
1 0 0
1 0 0
1 0 0
1 0 0
1 0 0
1 0 0
1 0 0
1 0 0
0 0.122545 0
0 0.120195 0
0 0.117754 0
0.0101778 0.115465 0
0.036759 0.113176 0
0.0666514 0.110597 0
0.104341 0.107332 0
0.154559 0.102968 0
0.214633 0.0978408 0
0.282918 0.092195 0
0.357687 0.0861524 0
0.435767 0.0798657 0
0.513375 0.0736248 0
0.594018 0.0671397 0
0.678645 0.0603342 0
0.764721 0.0533913 0
0.84863 0.0466316 0
0.927855 0.0402533 0
1 0.034287 0
1 0.0284733 0
1 0.0229191 0
1 0.0178988 0
1 0.0134585 0
1 0.00970474 0
1 0.00683604 0
1 0.00463874 0
1 0.00273136 0
1 0.000900282 0
1 0 0
1 0 0
1 0 0
1 0 0
1 0 0
0 0.163638 0
0 0.161288 0
0 0.158831 0
0 0.156558 0
0.0219272 0.154269 0
0.0518196 0.151675 0
0.0895094 0.148425 0
0.139864 0.14406 0
0.200839 0.138781 0
0.270344 0.132815 0
0.345632 0.126543 0
0.423682 0.12018 0
0.501137 0.113939 0
0.581628 0.107454 0
0.666102 0.100664 0
0.752071 0.0937514 0
0.835904 0.0870069 0
0.915053 0.0806287 0
0.988891 0.0746929 0
1 0.0688792 0
1 0.0633402 0
1 0.05832 0
1 0.0538796 0
1 0.0501259 0
1 0.0472572 0
1 0.0450599 0
1 0.0431678 0
1 0.0413367 0
1 0.0394293 0
1 0.0374762 0
1 0.0355077 0
1 0.0335546 0
1 0.0316014 0
0 0.212863 0
0 0.210513 0
0 0.208072 0
0 0.205798 0
0.00416571 0.203494 0
0.0340429 0.200916 0
0.0717479 0.19765 0
0.122103 0.193301 0
0.183215 0.188022 0
0.25359 0.181918 0
0.33019 0.175311 0
0.409079 0.168673 0
0.486732 0.162295 0
0.567132 0.155764 0
0.651453 0.148974 0
0.73727 0.142061 0
0.820951 0.135332 0
0.900008 0.128969 0
0.973754 0.123049 0
1 0.117235 0
1 0.111711 0
1 0.106706 0
1 0.102281 0
1 0.0985275 0
1 0.0956588 0
1 0.0934615 0
1 0.0915694 0
1 0.0897383 0
1 0.0878462 0
1 0.085893 0
1 0.0839399 0
1 0.0819867 0
1 0.0800183 0
0 0.2692 0
0 0.26685 0
0 0.264393 0
0 0.262119 0
0 0.259831 0
0.0137179 0.257237 0
0.0514076 0.253986 0
0.101762 0.249622 0
0.16289 0.244343 0
0.233402 0.238254 0
0.310796 0.231525 0
0.390921 0.224598 0
0.469612 0.217914 0
0.550546 0.211185 0
0.634974 0.204273 0
0.720684 0.19733 0
0.804257 0.190585 0
0.883162 0.184237 0
0.956802 0.178317 0
1 0.172519 0
1 0.16701 0
1 0.162005 0
1 0.157595 0
1 0.153841 0
1 0.150988 0
1 0.148806 0
1 0.146914 0
1 0.145083 0
1 0.143175 0
1 0.141238 0
1 0.139284 0
1 0.137331 0
1 0.135378 0
0 0.331151 0
0 0.328801 0
0 0.32636 0
0 0.324086 0
0 0.321782 0
0 0.319203 0
0.0290532 0.315938 0
0.079408 0.311589 0
0.14052 0.30631 0
0.211048 0.300206 0
0.288563 0.293507 0
0.369345 0.286503 0
0.449088 0.279591 0
0.531136 0.272557 0
0.616388 0.265385 0
0.70251 0.258259 0
0.78613 0.251423 0
0.864973 0.245045 0
0.938506 0.239094 0
1 0.23331 0
1 0.227802 0
1 0.222797 0
1 0.218387 0
1 0.214649 0
1 0.211795 0
1 0.209613 0
1 0.207721 0
1 0.205905 0
1 0.204013 0
1 0.20206 0
1 0.200107 0
1 0.198169 0
1 0.196216 0
0 0.395941 0
0 0.393591 0
0 0.391135 0
0 0.388861 0
0 0.386572 0
0 0.383978 0
0.0056611 0.380728 0
0.0560159 0.376364 0
0.117144 0.371084 0
0.187655 0.364996 0
0.265187 0.358282 0
0.346075 0.351293 0
0.426307 0.344335 0
0.509224 0.337133 0
0.595544 0.329702 0
0.682597 0.322316 0
0.766812 0.315267 0
0.84596 0.308751 0
0.919585 0.302724 0
0.991455 0.296895 0
1 0.291356 0
1 0.286351 0
1 0.281941 0
1 0.278202 0
1 0.275349 0
1 0.273167 0
1 0.271275 0
1 0.269459 0
1 0.267567 0
1 0.265614 0
1 0.263676 0
1 0.261738 0
1 0.259785 0
0 0.459892 0
0 0.457542 0
0 0.455085 0
0 0.452811 0
0 0.450507 0
0 0.447929 0
0 0.444678 0
0.0329442 0.440314 0
0.0940566 0.435035 0
0.164584 0.428946 0
0.2421 0.422232 0
0.322988 0.415244 0
0.403296 0.408301 0
0.486595 0.401083 0
0.573617 0.393515 0
0.66157 0.385931 0
0.74667 0.378653 0
0.826459 0.371923 0
0.900511 0.365759 0
0.972656 0.359808 0
1 0.354208 0
1 0.349157 0
1 0.344717 0
1 0.340963 0
1 0.338094 0
1 0.335912 0
1 0.33402 0
1 0.332189 0
1 0.330297 0
1 0.328359 0
1 0.326406 0
1 0.324468 0
1 0.322515 0
0 0.52604 0
0 0.52369 0
0 0.521248 0
0 0.518975 0
0 0.51667 0
0 0.514092 0
0 0.510826 0
0.00906386 0.506477 0
0.0701762 0.501198 0
0.140703 0.495094 0
0.218219 0.488396 0
0.299107 0.481407 0
0.379416 0.474464 0
0.462776 0.467262 0
0.550134 0.459678 0
0.638682 0.451987 0
0.724544 0.444556 0
0.805112 0.437644 0
0.87982 0.431296 0
0.952468 0.425177 0
1 0.41944 0
1 0.414298 0
1 0.409781 0
1 0.405982 0
1 0.403098 0
1 0.4009 0
1 0.398993 0
1 0.397147 0
1 0.395254 0
1 0.393301 0
1 0.391348 0
1 0.389395 0
1 0.387442 0
0 0.596262 0
0 0.593927 0
0 0.59147 0
0 0.589197 0
0 0.586892 0
0 0.584314 0
0 0.581048 0
0 0.576699 0
0.044831 0.57142 0
0.115343 0.565316 0
0.192874 0.558618 0
0.273762 0.551629 0
0.35407 0.544686 0
0.43743 0.537484 0
0.524865 0.529915 0
0.613687 0.522225 0
0.700053 0.514717 0
0.781231 0.507683 0
0.856596 0.501183 0
0.9299 0.494896 0
0.999374 0.489006 0
1 0.483726 0
1 0.479103 0
1 0.475227 0
1 0.472297 0
1 0.470039 0
1 0.468116 0
1 0.466239 0
1 0.464317 0
1 0.462333 0
1 0.460365 0
1 0.458396 0
1 0.456428 0
0 0.667048 0
0 0.664698 0
0 0.662257 0
0 0.659983 0
0 0.657679 0
0 0.6551 0
0 0.651835 0
0 0.647486 0
0.0192874 0.642206 0
0.0897993 0.636103 0
0.16733 0.629404 0
0.248219 0.622415 0
0.328527 0.615473 0
0.411887 0.60827 0
0.499306 0.600702 0
0.588205 0.593027 0
0.674784 0.585519 0
0.756344 0.578439 0
0.832181 0.571847 0
0.906035 0.565454 0
0.976043 0.559426 0
1 0.554025 0
1 0.549294 0
1 0.545312 0
1 0.542306 0
1 0.540017 0
1 0.538033 0
1 0.536141 0
1 0.534173 0
1 0.532158 0
1 0.530144 0
1 0.528145 0
1 0.526146 0
0 0.735912 0
0 0.733562 0
0 0.731106 0
0 0.728832 0
0 0.726543 0
0 0.723949 0
0 0.720699 0
0 0.716335 0
0 0.711055 0
0.0649424 0.704967 0
0.142473 0.698253 0
0.223362 0.691264 0
0.30367 0.684321 0
0.38703 0.677119 0
0.474449 0.669566 0
0.563348 0.661875 0
0.649973 0.654383 0
0.731716 0.647303 0
0.807813 0.640696 0
0.882033 0.634241 0
0.952453 0.628138 0
1 0.622644 0
1 0.617823 0
1 0.613764 0
1 0.610697 0
1 0.608347 0
1 0.606332 0
1 0.604379 0
1 0.60238 0
1 0.60032 0
1 0.59826 0
1 0.596231 0
1 0.594186 0
0 0.800412 0
0 0.798062 0
0 0.795621 0
0 0.793347 0
0 0.791043 0
0 0.788464 0
0 0.785199 0
0 0.78085 0
0 0.77557 0
0.0416571 0.769467 0
0.119188 0.762768 0
0.200076 0.755779 0
0.280385 0.748837 0
0.363745 0.741619 0
0.451179 0.734066 0
0.540063 0.726375 0
0.626688 0.718898 0
0.708461 0.711818 0
0.784695 0.705226 0
0.859098 0.698756 0
0.929793 0.692622 0
0.993759 0.687068 0
1 0.682185 0
1 0.67808 0
1 0.674952 0
1 0.672572 0
1 0.670512 0
1 0.668544 0
1 0.666499 0
1 0.664393 0
1 0.662318 0
1 0.660227 0
1 0.658152 0
0 0.861418 0
0 0.859068 0
0 0.856626 0
0 0.854353 0
0 0.852049 0
0 0.84947 0
0 0.846204 0
0 0.841856 0
0 0.836576 0
0.0196384 0.830472 0
0.0971695 0.823774 0
0.178058 0.816785 0
0.258366 0.809842 0
0.341726 0.80264 0
0.429145 0.795071 0
0.518044 0.787396 0
0.604669 0.779904 0
0.686442 0.772839 0
0.762692 0.766247 0
0.837201 0.759793 0
0.908049 0.753643 0
0.972198 0.748058 0
1 0.74316 0
1 0.73901 0
1 0.735851 0
1 0.73344 0
1 0.731365 0
1 0.729366 0
1 0.727291 0
1 0.72517 0
1 0.723049 0
1 0.720943 0
1 0.718837 0
0 0.920684 0
0 0.918349 0
0 0.915892 0
0 0.913619 0
0 0.911315 0
0 0.908736 0
0 0.905486 0
0 0.901122 0
0 0.895842 0
0 0.889738 0
0.0757763 0.88304 0
0.156664 0.876051 0
0.236973 0.869108 0
0.320333 0.861906 0
0.407752 0.854337 0
0.496651 0.846662 0
0.583276 0.83917 0
0.665049 0.832105 0
0.741299 0.825513 0
0.815839 0.819074 0
0.886763 0.812924 0
0.951019 0.807355 0
1 0.802426 0
1 0.79826 0
1 0.795087 0
1 0.79266 0
1 0.79057 0
1 0.788556 0
1 0.786465 0
1 0.784314 0
1 0.782177 0
1 0.780041 0
1 0.777905 0
0 0.97673 0
0 0.974395 0
0 0.971939 0
0 0.969665 0
0 0.967361 0
0 0.964782 0
0 0.961532 0
0 0.957168 0
0 0.951888 0
0 0.945785 0
0.0555428 0.939086 0
0.136431 0.932097 0
0.216739 0.925155 0
0.300099 0.917952 0
0.387533 0.910384 0
0.476417 0.902708 0
0.563043 0.895216 0
0.644816 0.888151 0
0.72108 0.881559 0
0.795605 0.87512 0
0.866545 0.868986 0
0.930861 0.863416 0
0.987564 0.858488 0
1 0.854322 0
1 0.851148 0
1 0.848707 0
1 0.846601 0
1 0.844572 0
1 0.842466 0
1 0.840314 0
1 0.838148 0
1 0.835996 0
1 0.83386 0
0 1 0
0 1 0
0 1 0
0 1 0
0 1 0
0 1 0
0 1 0
0 1 0
0 1 0
0 0.997131 0
0.0370184 0.990433 0
0.117906 0.983444 0
0.198215 0.976501 0
0.281575 0.969284 0
0.368994 0.96173 0
0.457893 0.954055 0
0.544518 0.946563 0
0.626291 0.939498 0
0.702541 0.932906 0
0.777066 0.926452 0
0.84802 0.920317 0
0.912337 0.914763 0
0.969085 0.90985 0
1 0.905684 0
1 0.902495 0
1 0.900053 0
1 0.897948 0
1 0.895918 0
1 0.893812 0
1 0.891646 0
1 0.889479 0
1 0.887312 0
1 0.885161 0
0 1 0
0 1 0
0 1 0
0 1 0
0 1 0
0 1 0
0 1 0
0 1 0
0 1 0
0 1 0
0.0207828 1 0
0.101656 1 0
0.181979 1 0
0.265339 1 0
0.352758 1 0
0.441657 0.999039 0
0.528283 0.991547 0
0.610056 0.984482 0
0.686305 0.97789 0
0.76083 0.971435 0
0.831769 0.965316 0
0.896101 0.959747 0
0.952865 0.954849 0
1 0.950683 0
1 0.947494 0
1 0.945068 0
1 0.942962 0
1 0.940917 0
1 0.938811 0
1 0.936629 0
1 0.934462 0
1 0.932296 0
1 0.930129 0
0 1 0
0 1 0
0 1 0
0 1 0
0 1 0
0 1 0
0 1 0
0 1 0
0 1 0
0 1 0
0.00703441 1 0
0.0879225 1 0
0.168231 1 0
0.251591 1 0
0.339025 1 0
0.427909 1 0
0.514534 1 0
0.596307 1 0
0.672572 1 0
0.747097 1 0
0.818036 1 0
0.882368 0.997818 0
0.939116 0.992905 0
0.987259 0.988739 0
1 0.98558 0
1 0.983139 0
1 0.981033 0
1 0.979004 0
1 0.976883 0
1 0.974716 0
1 0.972549 0
1 0.970382 0
1 0.9682 0
0 1 0
0 1 0
0 1 0
0 1 0
0 1 0
0 1 0
0 1 0
0 1 0
0 1 0
0 1 0
0 1 0
0.0775006 1 0
0.157809 1 0
0.241184 1 0
0.328603 1 0
0.417502 1 0
0.504128 1 0
0.585901 1 0
0.66215 1 0
0.736675 1 0
0.807614 1 0
0.871946 1 0
0.928695 1 0
0.976837 1 0
1 1 0
1 1 0
1 1 0
1 1 0
1 1 0
1 1 0
1 1 0
1 0.999237 0
1 0.99707 0
0 1 0
0 1 0
0 1 0
0 1 0
0 1 0
0 1 0
0 1 0
0 1 0
0 1 0
0 1 0
0 1 0
0.0694591 1 0
0.149767 1 0
0.233127 1 0
0.320546 1 0
0.409445 1 0
0.496071 1 0
0.577844 1 0
0.654093 1 0
0.728618 1 0
0.799558 1 0
0.86389 1 0
0.920653 1 0
0.968795 1 0
1 1 0
1 1 0
1 1 0
1 1 0
1 1 0
1 1 0
1 1 0
1 1 0
1 1 0
0 1 0
0 1 0
0 1 0
0 1 0
0 1 0
0 1 0
0 1 0
0 1 0
0 1 0
0 1 0
0 1 0
0.0624857 1 0
0.142794 1 0
0.226154 1 0
0.313588 1 0
0.402472 1 0
0.489097 1 0
0.570871 1 0
0.647135 1 0
0.72166 1 0
0.792599 1 0
0.856931 1 0
0.91368 1 0
0.961822 1 0
0.998474 1 0
1 1 0
1 1 0
1 1 0
1 1 0
1 1 0
1 1 0
1 1 0
1 1 0
0 1 0
0 1 0
0 1 0
0 1 0
0 1 0
0 1 0
0 1 0
0 1 0
0 1 0
