apps/lut-action/luts/MRSM_Delog_New.cube
TITLE "Generate by Resolve"
LUT_3D_SIZE 9
0 0 0.00462348
0.0846265 0 0
0.258167 0 0
0.558038 0 0
0.893858 0 0
1 0 0
1 0 0
1 0 0
1 0 0
0 0.06804 0
0.0564279 0.0586709 0
0.230884 0.0441901 0
0.53019 0.0200961 0
0.865858 0 0
1 0 0
1 0 0
1 0 0
1 0 0
0 0.212863 0
0.00416571 0.203494 0
0.183215 0.188022 0
0.486732 0.162295 0
0.820951 0.135332 0
1 0.111711 0
1 0.0956588 0
1 0.0878462 0
1 0.0800183 0
0 0.459892 0
0 0.450507 0
0.0940566 0.435035 0
0.403296 0.408301 0
0.74667 0.378653 0
1 0.354208 0
1 0.338094 0
1 0.330297 0
1 0.322515 0
0 0.735912 0
0 0.726543 0
0 0.711055 0
0.30367 0.684321 0
0.649973 0.654383 0
0.952453 0.628138 0
1 0.610697 0
1 0.60238 0
1 0.594186 0
0 0.97673 0
0 0.967361 0
0 0.951888 0
0.216739 0.925155 0
0.563043 0.895216 0
0.866545 0.868986 0
1 0.851148 0
1 0.842466 0
1 0.83386 0
0 1 0
0 1 0
0 1 0
0.157809 1 0
0.504128 1 0
0.807614 1 0
1 1 0
1 1 0
1 0.99707 0
0 1 0
0 1 0
0 1 0
0.12903 1 0
0.475334 1 0
0.778836 1 0
0.98471 1 0
1 1 0
1 1 0
0 1 0
0 1 0
0 1 0
0.100252 1 0
0.446555 1 0
0.750057 1 0
0.955917 1 0
1 1 0
1 1 0
0 0 0.1178
0.0836042 0 0.1084
0.257359 0 0.0915084
0.555306 0 0.0664683
0.890715 0 0.0393225
1 0 0.0155642
1 0 0
1 0 0
1 0 0
0 0.0640574 0.0866255
0.0524453 0.0546883 0.0772564
0.226276 0.0406806 0.0624704
0.526116 0.016495 0.0382696
0.861952 0 0.0111543
1 0 0
1 0 0
1 0 0
1 0 0
0 0.208865 0.0343481
0.000167849 0.199496 0.024979
0.179232 0.184024 0.00950637
0.480705 0.158938 0
0.815625 0.131991 0
1 0.108293 0
1 0.0922103 0
1 0.0843671 0
1 0.0765393 0
0 0.455894 0
0 0.446525 0
0.090074 0.431037 0
0.399298 0.404303 0
0.741695 0.374868 0
1 0.350805 0
1 0.334783 0
1 0.326986 0
1 0.319219 0
0 0.731914 0
0 0.722545 0
0 0.707057 0
0.299672 0.680323 0
0.645975 0.650385 0
0.948241 0.62417 0
1 0.606851 0
1 0.598627 0
1 0.590524 0
0 0.972747 0
0 0.963378 0
0 0.94789 0
0.212741 0.921157 0
0.55906 0.891218 0
0.862547 0.864988 0
1 0.84715 0
1 0.838483 0
1 0.829892 0
0 1 0
0 1 0
0 1 0
0.153826 1 0
0.50013 1 0
0.803616 1 0
1 1 0
1 1 0
1 0.993072 0
0 1 0
0 1 0
0 1 0
0.125032 1 0
0.471351 1 0
0.774838 1 0
0.980713 1 0
1 1 0
1 1 0
0 1 0
0 1 0
0 1 0
0.0962539 1 0
0.442557 1 0
0.746059 1 0
0.951919 1 0
1 1 0
1 1 0
0 0 0.332097
0.076051 0 0.322713
0.255039 0 0.307179
0.557061 0 0.277546
0.888411 0 0.247227
1 0 0.222827
1 0 0.206561
1 0 0.198657
1 0 0.190799
0 0.0564889 0.300923
0.0448768 0.0471199 0.291554
0.22388 0.0316625 0.276036
0.524376 0.00776684 0.246845
0.857298 0 0.218326
1 0 0.1944
1 0 0.178241
1 0 0.170382
1 0 0.162539
0 0.201312 0.248676
0 0.191943 0.239307
0.171664 0.176455 0.223819
0.472007 0.15227 0.198001
0.807721 0.1252 0.170901
1 0.101442 0.147143
1 0.0853285 0.131029
1 0.0774853 0.123186
1 0.0696422 0.115343
0 0.448325 0.159518
0 0.438956 0.150149
0.0825055 0.423468 0.134661
0.39173 0.396735 0.107927
0.730953 0.368124 0.0858473
1 0.344518 0.0646067
1 0.328496 0.0491188
1 0.320699 0.0414588
1 0.312886 0.0337682
0 0.724346 0.0598764
0 0.714977 0.0505074
0 0.699489 0.0350347
0.292103 0.67277 0.00830091
0.638407 0.642832 0
0.939971 0.616724 0
1 0.599771 0
1 0.591745 0
1 0.583841 0
0 0.965179 0
0 0.95581 0
0 0.940322 0
0.205173 0.913588 0
0.551492 0.88365 0
0.854978 0.85742 0
1 0.839582 0
1 0.830945 0
1 0.822416 0
0 1 0
0 1 0
0 1 0
0.146258 1 0
0.492561 1 0
0.796063 1 0
1 1 0
1 0.994186 0
1 0.985519 0
0 1 0
0 1 0
0 1 0
0.117464 1 0
0.463783 1 0
0.767269 1 0
0.973144 1 0
1 1 0
1 1 0
0 1 0
0 1 0
0 1 0
0.0886854 1 0
0.434989 1 0
0.738491 1 0
0.94435 1 0
1 1 0
1 1 0
0 0 0.658991
0.0645151 0 0.649607
0.243534 0 0.634104
0.552605 0 0.607263
0.893202 0 0.574166
1 0 0.544747
1 0 0.526192
1 0 0.51751
1 0 0.509041
0 0.0449531 0.627832
0.033341 0.035584 0.618448
0.212375 0.0201114 0.602945
0.521462 0 0.57612
0.861295 0 0.542916
1 0 0.514168
1 0 0.4963
1 0 0.487922
1 0 0.479683
0 0.189761 0.575586
0 0.180392 0.566217
0.160128 0.16492 0.550729
0.469261 0.138231 0.523919
0.807095 0.111131 0.490745
1 0.0888838 0.464057
1 0.0732891 0.447303
1 0.0656138 0.439292
1 0.057908 0.431342
0 0.436774 0.486442
0 0.427405 0.477073
0.0709697 0.411933 0.461601
0.380194 0.385199 0.434867
0.716487 0.358129 0.406073
1 0.334386 0.38233
1 0.318288 0.366217
1 0.31043 0.358358
1 0.302602 0.35053
0 0.712795 0.386831
0 0.703426 0.377462
0 0.687953 0.361975
0.280568 0.661219 0.335241
0.626871 0.631281 0.305303
0.925383 0.605859 0.285695
1 0.589761 0.272541
1 0.581964 0.265476
1 0.574197 0.258183
0 0.953628 0.299901
0 0.944259 0.290532
0 0.928786 0.275044
0.193637 0.902052 0.24831
0.53994 0.872114 0.218387
0.843442 0.845884 0.192142
1 0.828077 0.176532
1 0.819577 0.17023
1 0.811246 0.164431
0 1 0.24097
0 1 0.231601
0 1 0.216129
0.134707 1 0.189395
0.481025 1 0.159457
0.784512 1 0.133211
0.990387 0.991333 0.115419
1 0.982651 0.107179
1 0.973983 0.0997177
0 1 0.212192
0 1 0.202823
0 1 0.187335
0.105928 1 0.160601
0.452232 1 0.130678
0.755734 1 0.104433
0.961593 1 0.0866407
1 1 0.0779736
1 1 0.0697032
0 1 0.183398
0 1 0.174029
0 1 0.158556
0.0771496 1 0.131823
0.423453 1 0.101884
0.726955 1 0.0756542
0.932815 1 0.0578622
1 1 0.0491951
1 1 0.040528
0 0 1
0.0519112 0 1
0.230945 0 0.991058
0.540093 0 0.964263
0.886168 0 0.934173
1 0 0.905547
1 0 0.885176
1 0 0.875242
1 0 0.865431
0 0.0323491 0.984787
0.020737 0.0229801 0.975402
0.199771 0.00750744 0.959899
0.508934 0 0.933104
0.855009 0 0.903029
1 0 0.874327
1 0 0.853925
1 0 0.844053
1 0 0.834318
0.0372931 0.176806 0.79971
0 0.167803 0.923171
0.147524 0.152316 0.907668
0.456703 0.125612 0.880888
0.698878 0.144411 0.714992
0.845594 0.172396 0.631952
0.890166 0.149599 0.646693
0.946685 0.123842 0.679377
0.986755 0.0780957 0.732845
0 0.42417 0.843427
0 0.414801 0.834058
0.058381 0.399329 0.81857
0.36759 0.37261 0.791821
0.713787 0.342702 0.761807
1 0.318685 0.732662
1 0.303777 0.713527
1 0.296407 0.704875
1 0.288945 0.696498
0 0.700191 0.743816
0 0.690822 0.734447
0 0.675349 0.718959
0.267964 0.648615 0.692241
0.614267 0.618677 0.662303
0.908995 0.594949 0.637064
1 0.578866 0.620951
1 0.571008 0.613108
1 0.56318 0.605264
0.0300908 0.914733 0.665141
0.00030518 0.931517 0.647593
0 0.916182 0.632044
0.181033 0.889448 0.60531
0.527337 0.85951 0.575372
0.827848 0.832105 0.56524
0.98912 0.818082 0.558831
0.988342 0.810987 0.554177
0.999146 0.800336 0.525063
0 1 0.597971
0 1 0.588602
0 1 0.573114
0.122118 1 0.546395
0.468421 1 0.516457
0.771908 0.996536 0.490211
0.977783 0.978729 0.472419
1 0.970047 0.464454
1 0.961456 0.45771
0 1 0.569192
0 1 0.559823
0 1 0.544335
0.0933242 1 0.517601
0.439628 1 0.487663
0.74313 1 0.461433
0.948989 1 0.443641
1 1 0.434974
1 1 0.426902
0 1 0.540398
0 1 0.531029
0 1 0.515557
0.0648356 0.999939 0.488991
0.414038 0.999146 0.462318
0.715602 0.999481 0.43653
0.92015 0.999725 0.419059
0.99939 0.999786 0.410773
1 1 0.397574
0 0 1
0.0412146 0 1
0.220249 0 1
0.529412 0 1
0.875578 0 1
1 0 1
1 0 1
1 0 1
1 0 1
0 0.0216526 1
0.0100404 0.0122835 1
0.189075 0 1
0.498253 0 1
0.844434 0 1
1 0 1
1 0 1
1 0 1
1 0 1
0 0.166461 1
0 0.157092 1
0.136828 0.141619 1
0.446021 0.114916 1
0.792218 0.085008 1
1 0.058854 1
1 0.0417945 1
1 0.033814 1
0.99884 0.0265354 0.998627
0 0.413474 1
0 0.404105 1
0.0476844 0.388632 1
0.356893 0.361898 1
0.703136 0.331991 1
1 0.305821 1
1 0.288899 1
1 0.281117 1
1 0.273579 0.999329
0 0.689494 1
0 0.680125 1
0 0.664652 1
0.257282 0.637919 0.995361
0.603571 0.60798 0.965408
0.906966 0.581796 0.939086
1 0.565316 0.919356
1 0.557992 0.909621
1 0.550744 0.900404
0 0.930327 0.960021
0 0.920958 0.950652
0 0.90547 0.93518
0.170352 0.878752 0.908446
0.516655 0.848814 0.878508
0.820142 0.822583 0.852277
1 0.806485 0.835157
1 0.798642 0.827314
1 0.790814 0.819471
0 1 0.901106
0 1 0.891737
0 1 0.876249
0.111421 1 0.849531
0.457725 1 0.819593
0.761212 0.985824 0.793362
0.967071 0.968032 0.775555
1 0.959442 0.768505
1 0.951354 0.762768
0 1 0.872328
0 1 0.862959
0 1 0.847471
0.0826276 1 0.820752
0.428931 1 0.790814
0.732433 1 0.764569
0.938293 1 0.746777
1 1 0.738109
1 1 0.730587
0 1 0.843534
0 1 0.834165
0 1 0.818692
0.0538491 1 0.791959
0.400153 1 0.76202
0.703639 1 0.73579
0.909514 1 0.717998
1 1 0.709331
1 1 0.700664
0 0 1
0.034287 0 1
0.213321 0 1
0.522499 0 1
0.868681 0 1
1 0 1
1 0 1
1 0 1
1 0 1
0 0.014725 1
0.00311284 0.00535592 1
0.182147 0 1
0.491325 0 1
0.837522 0 1
1 0 1
1 0 1
1 0 1
1 0 1
0 0.159533 1
0 0.150164 1
0.1299 0.134691 1
0.439094 0.107988 1
0.785306 0.0780804 1
1 0.0518959 1
1 0.0341802 1
1 0.0257877 1
1 0.0175937 1
0 0.406546 1
0 0.397177 1
0.0407568 0.381704 1
0.349966 0.354971 1
0.696223 0.325063 1
0.999603 0.298863 1
1 0.281147 1
1 0.272786 1
1 0.264668 1
0 0.682567 1
0 0.673198 1
0 0.657725 1
0.250355 0.630991 1
0.596643 0.601053 1
0.900069 0.574853 1
1 0.557107 1
1 0.548806 1
1 0.540902 1
0 0.9234 1
0 0.914031 1
0 0.898543 1
0.163424 0.871824 1
0.509728 0.841886 1
0.813214 0.815656 1
1 0.797879 1
1 0.789792 1
1 0.782422 1
0 1 1
0 1 1
0 1 1
0.104494 1 1
0.450797 1 1
0.754284 0.978897 0.989639
0.960143 0.961105 0.971847
1 0.953262 0.963638
1 0.945434 0.955795
0 1 1
0 1 1
0 1 1
0.0757153 1 1
0.422019 1 0.987091
0.725505 1 0.960861
0.931365 1 0.943069
1 1 0.934401
1 1 0.927993
0 1 1
0 1 1
0 1 1
0.0469215 1 0.988251
0.393225 1 0.958312
0.696712 1 0.932067
0.902586 1 0.914275
1 1 0.905608
1 1 0.896956
0 0 1
0.0307164 0 1
0.209751 0 1
0.518929 0 1
0.865125 0 1
1 0 1
1 0 1
1 0 1
1 0 1
0 0.0111543 1
0 0.00178531 1
0.178576 0 1
0.487755 0 1
0.833967 0 1
1 0 1
1 0 1
1 0 1
1 0 1
0 0.155962 1
0 0.146593 1
0.126314 0.131121 1
0.435508 0.104402 1
0.781735 0.0744945 1
1 0.0483101 1
1 0.0305791 1
1 0.0219577 1
1 0.0135805 1
0 0.402975 1
0 0.393606 1
0.0371862 0.378119 1
0.346395 0.3514 1
0.692653 0.321477 1
0.996033 0.295293 1
1 0.277531 1
1 0.268925 1
1 0.260563 1
0 0.678981 1
0 0.669612 1
0 0.654139 1
0.246784 0.627405 1
0.593072 0.597482 1
0.896513 0.571267 1
1 0.553506 1
1 0.544884 1
1 0.536583 1
0 0.919814 1
0 0.910445 1
0 0.894972 1
0.159854 0.868238 1
0.506157 0.8383 1
0.809628 0.81207 1
1 0.794293 1
1 0.785657 1
1 0.777493 1
0 1 1
0 1 1
0 1 1
0.100923 1 1
0.447227 1 1
0.750713 0.975326 1
0.956573 0.957534 1
1 0.948882 1
1 0.941131 1
0 1 1
0 1 1
0 1 1
0.0721447 1 1
0.418433 1 1
0.721935 1 1
0.927794 1 1
1 1 1
1 1 1
0 1 1
0 1 1
0 1 1
0.0433509 1 1
0.389654 1 1
0.693141 1 1
0.899001 1 1
0.999268 1 1
1 1 0.998306
0 0 1
0.0270848 0 1
0.206119 0 1
0.515297 0 1
0.861509 0 1
1 0 1
1 0 1
1 0 1
1 0 1
0 0.0075227 1
0 0 1
0.174945 0 1
0.484123 0 1
0.830335 0 1
1 0 1
1 0 1
1 0 1
1 0 1
0 0.152331 1
0 0.142962 1
0.122683 0.127489 1
0.431876 0.100771 1
0.778119 0.0708629 1
1 0.0446784 1
1 0.0269169 1
1 0.0182956 1
1 0.00968948 1
0 0.399344 1
0 0.389975 1
0.0335546 0.374487 1
0.342763 0.347768 1
0.689021 0.317845 1
0.992416 0.291646 1
1 0.273899 1
1 0.265248 1
1 0.256657 1
0 0.675349 1
0 0.66598 1
0 0.650507 1
0.243153 0.623774 1
0.589441 0.593851 1
0.892882 0.567636 1
1 0.549874 1
1 0.541222 1
1 0.532616 1
0 0.916182 1
0 0.906813 1
0 0.89134 1
0.156222 0.864607 1
0.502525 0.834669 1
0.805997 0.808438 1
1 0.790661 1
1 0.78201 1
1 0.773388 1
0 1 1
0 1 1
0 1 1
0.0972915 1 1
0.443595 0.997925 1
0.747082 0.971695 1
0.952941 0.953902 1
1 0.945235 1
1 0.936599 1
0 1 1
0 1 1
0 1 1
0.068513 1 1
0.414816 1 1
0.718303 1 1
0.924163 1 1
1 1 1
1 1 1
0 1 1
0 1 1
0 1 1
0.0397192 1 1
0.386023 1 1
0.689509 1 1
0.895369 1 1
0.995636 1 1
1 1 1
