apps/lut-action/luts/MRSM_Delog_New.cube
TITLE "Generate by Resolve"
LUT_3D_SIZE 5
0 0 0.00462348
0.258167 0 0
0.893858 0 0
1 0 0
1 0 0
0 0.212863 0
0.183215 0.188022 0
0.820951 0.135332 0
1 0.0956588 0
1 0.0800183 0
0 0.735912 0
0 0.711055 0
0.649973 0.654383 0
1 0.610697 0
1 0.594186 0
0 1 0
0 1 0
0.504128 1 0
1 1 0
1 0.99707 0
0 1 0
0 1 0
0.446555 1 0
0.955917 1 0
1 1 0
0 0 0.332097
0.255039 0 0.307179
0.888411 0 0.247227
1 0 0.206561
1 0 0.190799
0 0.201312 0.248676
0.171664 0.176455 0.223819
0.807721 0.1252 0.170901
1 0.0853285 0.131029
1 0.0696422 0.115343
0 0.724346 0.0598764
0 0.699489 0.0350347
0.638407 0.642832 0
1 0.599771 0
1 0.583841 0
0 1 0
0 1 0
0.492561 1 0
1 1 0
1 0.985519 0
0 1 0
0 1 0
0.434989 1 0
0.94435 1 0
1 1 0
0 0 1
0.230945 0 0.991058
0.886168 0 0.934173
1 0 0.885176
1 0 0.865431
0.0372931 0.176806 0.79971
0.147524 0.152316 0.907668
0.698878 0.144411 0.714992
0.890166 0.149599 0.646693
0.986755 0.0780957 0.732845
0 0.700191 0.743816
0 0.675349 0.718959
0.614267 0.618677 0.662303
1 0.578866 0.620951
1 0.56318 0.605264
0 1 0.597971
0 1 0.573114
0.468421 1 0.516457
0.977783 0.978729 0.472419
1 0.961456 0.45771
0 1 0.540398
0 1 0.515557
0.414038 0.999146 0.462318
0.92015 0.999725 0.419059
1 1 0.397574
0 0 1
0.213321 0 1
0.868681 0 1
1 0 1
1 0 1
0 0.159533 1
0.1299 0.134691 1
0.785306 0.0780804 1
1 0.0341802 1
1 0.0175937 1
0 0.682567 1
0 0.657725 1
0.596643 0.601053 1
1 0.557107 1
1 0.540902 1
0 1 1
0 1 1
0.450797 1 1
0.960143 0.961105 0.971847
1 0.945434 0.955795
0 1 1
0 1 1
0.393225 1 0.958312
0.902586 1 0.914275
1 1 0.896956
0 0 1
0.206119 0 1
0.861509 0 1
1 0 1
1 0 1
0 0.152331 1
0.122683 0.127489 1
0.778119 0.0708629 1
1 0.0269169 1
1 0.00968948 1
0 0.675349 1
0 0.650507 1
0.589441 0.593851 1
1 0.549874 1
1 0.532616 1
0 1 1
0 1 1
0.443595 0.997925 1
0.952941 0.953902 1
1 0.936599 1
0 1 1
0 1 1
0.386023 1 1
0.895369 1 1
1 1 1
