apps/lut-action/luts/PANA_Raptor LUT.cube
# REDCINE X PRO lut
# Created by LiveGrade 6.5.1 on 2019-04-22 17:17:59 +0000
LUT_3D_SIZE 9
0.007990 0.000123 0.000135
0.141164 0.043137 0.027476
0.650980 0.000123 0.039228
0.784326 0.000000 0.054915
0.835294 0.000000 0.066704
0.843150 0.000000 0.235470
0.854902 0.000000 0.803922
0.858824 0.007843 0.807843
0.858824 0.007843 0.807843
0.019730 0.129412 0.047059
0.109791 0.086262 0.039216
0.560759 0.109804 0.027451
0.788223 0.039216 0.039216
0.831373 0.000000 0.054915
0.843150 0.000000 0.192307
0.854902 0.000000 0.788248
0.858824 0.007843 0.807843
0.858824 0.007843 0.807843
0.007843 0.423542 0.098052
0.007843 0.321569 0.082340
0.458798 0.337242 0.027464
0.792144 0.360772 0.003922
0.890184 0.321569 0.003922
0.898039 0.180392 0.031385
0.850980 0.003909 0.686287
0.858824 0.007843 0.807843
0.858824 0.007843 0.807843
0.007843 0.525490 0.109926
0.007843 0.521569 0.109804
0.384238 0.568602 0.007868
0.784301 0.619595 0.000000
0.913713 0.615674 0.007831
0.949020 0.568627 0.000000
0.952941 0.431385 0.086300
0.858824 0.007843 0.807843
0.858824 0.007843 0.807843
0.011752 0.615686 0.121569
0.007843 0.619608 0.117647
0.156775 0.658811 0.058849
0.772536 0.749020 0.007843
0.917634 0.760784 0.007843
0.968615 0.749007 0.019608
0.992157 0.721569 0.011790
0.996078 0.674522 0.278456
0.858824 0.007843 0.807843
0.184361 0.725465 0.051005
0.211689 0.733308 0.023605
0.376307 0.760759 0.003947
0.748969 0.811752 0.011765
0.913725 0.827451 0.015686
0.968627 0.827451 0.015686
0.996078 0.811765 0.023542
0.996078 0.811765 0.184326
0.996078 0.819730 0.576115
0.835257 0.854902 0.011765
0.839178 0.854902 0.011765
0.850955 0.858824 0.011765
0.886249 0.862745 0.003934
0.933333 0.870576 0.003922
0.968627 0.866667 0.035294
0.992157 0.858824 0.054902
0.996078 0.850980 0.117660
0.996078 0.878431 0.419240
0.964706 0.870588 0.043137
0.964706 0.870588 0.043137
0.964706 0.870588 0.047046
0.964706 0.870588 0.047059
0.968627 0.870588 0.050980
0.976471 0.870588 0.062745
0.992157 0.866667 0.078431
0.996078 0.866667 0.074522
0.996078 0.886275 0.282120
0.996078 0.866667 0.078431
0.996078 0.866667 0.078431
0.996078 0.866667 0.078431
0.996078 0.866667 0.074632
0.996078 0.866667 0.074632
0.996078 0.866667 0.074632
0.996078 0.866667 0.074510
0.996078 0.866667 0.074510
0.996078 0.870588 0.117647
0.027451 0.023652 0.070588
0.105882 0.039216 0.125490
0.654779 0.000000 0.184191
0.800000 0.000000 0.215686
0.847059 0.000000 0.298039
0.850980 0.000000 0.533333
0.858824 0.000000 0.807843
0.858824 0.007843 0.807843
0.858824 0.007843 0.807843
0.023529 0.098039 0.098039
0.078431 0.082353 0.090196
0.537255 0.109804 0.082353
0.788235 0.031373 0.094118
0.843137 0.000000 0.152941
0.850980 0.000000 0.462745
0.854902 0.000000 0.803922
0.858824 0.007843 0.807843
0.858824 0.007843 0.807843
0.007843 0.392157 0.094118
0.007843 0.309804 0.078431
0.411765 0.313726 0.043137
0.776471 0.341176 0.027451
0.886275 0.309804 0.039216
0.905882 0.180392 0.101961
0.850980 0.000000 0.717647
0.858824 0.007843 0.807843
0.858824 0.007843 0.807843
0.007843 0.533333 0.113725
0.011765 0.509804 0.101961
0.141176 0.517647 0.058824
0.749020 0.592157 0.000000
0.901961 0.592157 0.000000
0.956863 0.564706 0.000000
0.952941 0.439216 0.149020
0.858824 0.007843 0.807843
0.858824 0.007843 0.807843
0.027451 0.623529 0.105882
0.023529 0.619608 0.109804
0.043137 0.635294 0.082353
0.709804 0.733333 0.007843
0.901961 0.749020 0.000000
0.964706 0.741176 0.003922
0.992157 0.725490 0.066667
0.996078 0.678431 0.313726
0.858824 0.007843 0.807843
0.074632 0.698039 0.078431
0.105882 0.701961 0.074510
0.168627 0.717647 0.054902
0.541176 0.780392 0.000000
0.901961 0.823529 0.011765
0.964706 0.819608 0.019608
0.996078 0.811765 0.054902
0.996078 0.811765 0.207843
0.996078 0.819730 0.583946
0.721569 0.839216 0.015686
0.729412 0.839216 0.019608
0.756863 0.843137 0.019608
0.827451 0.854902 0.011765
0.917647 0.866667 0.007843
0.964706 0.866667 0.027451
0.988235 0.854902 0.054902
0.996078 0.850980 0.133333
0.996078 0.878431 0.427083
0.960784 0.870588 0.043137
0.960784 0.870588 0.043137
0.960784 0.870588 0.043137
0.964706 0.870588 0.043137
0.968627 0.870588 0.047059
0.976471 0.870588 0.062745
0.988235 0.866667 0.078431
0.996078 0.866667 0.082353
0.996078 0.890196 0.289951
0.996078 0.866667 0.078431
0.996078 0.866667 0.078431
0.996078 0.866667 0.078431
0.996078 0.866667 0.078431
0.996078 0.866667 0.074632
0.996078 0.866667 0.074632
0.996078 0.866667 0.074510
0.996078 0.866667 0.074510
0.996078 0.870588 0.121569
0.043137 0.015809 0.251348
0.066667 0.015686 0.262745
0.596078 0.000000 0.568627
0.796078 0.000000 0.596078
0.850980 0.000123 0.631373
0.850980 0.003922 0.705882
0.858824 0.007843 0.807843
0.858824 0.007843 0.807843
0.858824 0.007843 0.807843
0.007843 0.168627 0.478431
0.011765 0.129412 0.423529
0.470588 0.125490 0.486275
0.796078 0.047059 0.486275
0.850980 0.000000 0.521569
0.850980 0.000000 0.674510
0.858824 0.007843 0.807843
0.858824 0.007843 0.807843
0.858824 0.007843 0.807843
0.007843 0.380392 0.411765
0.007843 0.313726 0.341176
0.341176 0.345098 0.364706
0.772549 0.372549 0.349020
0.894118 0.337255 0.345098
0.913725 0.207843 0.400000
0.854902 0.000000 0.764706
0.858824 0.007843 0.807843
0.858824 0.007843 0.807843
0.007843 0.525490 0.243137
0.007843 0.513726 0.207843
0.117647 0.529412 0.129412
0.749020 0.619608 0.231373
0.921569 0.619608 0.215686
0.968627 0.588235 0.231373
0.956863 0.462745 0.345098
0.858824 0.007843 0.807843
0.858824 0.007843 0.807843
0.007843 0.607843 0.121569
0.015686 0.611765 0.113725
0.145098 0.647059 0.066667
0.486275 0.717647 0.105882
0.925490 0.772549 0.098039
0.976471 0.756863 0.137255
0.996078 0.741176 0.203922
0.996078 0.690196 0.423529
0.858824 0.007843 0.807843
0.290319 0.737255 0.015686
0.313726 0.741176 0.019608
0.345098 0.745098 0.015686
0.372549 0.752941 0.015686
0.866667 0.823529 0.015686
0.968627 0.823529 0.086275
0.996078 0.819608 0.149020
0.996078 0.823529 0.282353
0.996078 0.823652 0.615319
0.356863 0.776471 0.011765
0.360784 0.776471 0.011765
0.384314 0.780392 0.015686
0.462745 0.796078 0.007843
0.709804 0.835294 0.007843
0.960784 0.862745 0.011765
0.988235 0.854902 0.090196
0.996078 0.858824 0.192157
0.996078 0.882353 0.462500
0.925490 0.870588 0.011765
0.925490 0.870588 0.011765
0.929412 0.870588 0.011765
0.933333 0.870588 0.007843
0.949020 0.870588 0.023529
0.968627 0.870588 0.047059
0.984314 0.870588 0.070588
0.996078 0.870588 0.109804
0.996078 0.894118 0.325245
0.996078 0.866667 0.078431
0.996078 0.866667 0.078431
0.996078 0.866667 0.078431
0.996078 0.866667 0.078431
0.996078 0.866667 0.078431
0.996078 0.866667 0.078431
0.996078 0.866667 0.074632
0.996078 0.866667 0.074510
0.996078 0.874510 0.141299
0.007843 0.129534 0.655025
0.015686 0.109926 0.611887
0.294118 0.004044 0.635539
0.776471 0.000000 0.721569
0.847059 0.000000 0.733333
0.854902 0.000000 0.772549
0.858824 0.007843 0.807843
0.858824 0.007843 0.807843
0.858824 0.007843 0.807843
0.007843 0.298039 0.674510
0.007843 0.266667 0.658824
0.141176 0.172549 0.698039
0.780392 0.133333 0.733333
0.866667 0.015686 0.721569
0.854902 0.000000 0.752941
0.858824 0.007843 0.807843
0.858824 0.007843 0.807843
0.858824 0.007843 0.807843
0.007843 0.498039 0.690196
0.007843 0.462745 0.666667
0.047059 0.376471 0.647059
0.745098 0.427451 0.717647
0.898039 0.392157 0.713726
0.929412 0.258824 0.709804
0.858824 0.000000 0.800000
0.858824 0.007843 0.807843
0.858824 0.007843 0.807843
0.007843 0.619608 0.674510
0.007843 0.592157 0.643137
0.062745 0.580392 0.615686
0.694118 0.666667 0.666667
0.917647 0.670588 0.654902
0.972549 0.639216 0.647059
0.964706 0.505882 0.670588
0.858824 0.007843 0.807843
0.858824 0.007843 0.807843
0.011765 0.647059 0.466667
0.015686 0.650980 0.454902
0.039216 0.662745 0.427451
0.466667 0.749020 0.329412
0.913725 0.819608 0.560784
0.976471 0.803922 0.541176
0.996078 0.780392 0.552941
0.996078 0.717647 0.643137
0.858824 0.007843 0.807843
0.054902 0.698162 0.145098
0.066667 0.705882 0.133333
0.160784 0.721569 0.117647
0.490196 0.780392 0.098039
0.776471 0.858824 0.333333
0.968627 0.862745 0.415686
0.996078 0.850980 0.431373
0.996078 0.847059 0.501961
0.996078 0.831495 0.693995
0.627451 0.823529 0.007843
0.635294 0.823529 0.007843
0.654902 0.827451 0.011765
0.694118 0.839216 0.003922
0.709804 0.854902 0.109804
0.956863 0.886275 0.207843
0.988235 0.874510 0.305882
0.996078 0.878431 0.372549
0.996078 0.894118 0.560662
0.674510 0.835417 0.003922
0.674510 0.839216 0.003922
0.678431 0.839216 0.003922
0.694118 0.843137 0.003922
0.745098 0.850980 0.011765
0.886275 0.878431 0.007843
0.984314 0.878431 0.156863
0.996078 0.882353 0.247059
0.996078 0.905882 0.423284
0.975980 0.870588 0.058701
0.975980 0.870588 0.058701
0.975980 0.870588 0.058701
0.975980 0.870588 0.058701
0.976103 0.870588 0.062623
0.976348 0.870588 0.062623
0.984314 0.870588 0.070588
0.996078 0.866789 0.086397
0.996078 0.882353 0.231373
0.007843 0.486397 0.756985
0.007843 0.478554 0.760907
0.007843 0.439338 0.764828
0.639216 0.274632 0.847181
0.882475 0.184436 0.847181
0.855025 0.000000 0.788358
0.858824 0.007843 0.807843
0.858824 0.007843 0.807843
0.858824 0.007843 0.807843
0.007843 0.541176 0.772549
0.015686 0.549020 0.784314
0.011765 0.498039 0.776471
0.611765 0.349020 0.850980
0.890196 0.294118 0.858824
0.905882 0.070588 0.823529
0.858824 0.007843 0.807843
0.858824 0.007843 0.807843
0.858824 0.007843 0.807843
0.027451 0.643137 0.811765
0.027451 0.635294 0.811765
0.019608 0.588235 0.788235
0.549020 0.501961 0.858824
0.898039 0.490196 0.870588
0.945098 0.392157 0.858824
0.858824 0.007843 0.807843
0.858824 0.007843 0.807843
0.858824 0.007843 0.807843
0.007843 0.686275 0.807843
0.007843 0.682353 0.803922
0.027451 0.650980 0.780392
0.447059 0.682353 0.854902
0.901961 0.709804 0.874510
0.972549 0.682353 0.866667
0.976471 0.568627 0.854902
0.858824 0.007843 0.807843
0.858824 0.007843 0.807843
0.023529 0.705882 0.776471
0.031373 0.701961 0.768627
0.011765 0.666667 0.729412
0.337255 0.800000 0.827451
0.886275 0.847059 0.847059
0.972549 0.835294 0.831373
0.996078 0.811765 0.819608
0.996078 0.745098 0.835294
0.858824 0.007843 0.807843
0.050980 0.749020 0.654902
0.050980 0.749020 0.654902
0.050980 0.760784 0.654902
0.125490 0.811765 0.658824
0.764706 0.890196 0.631373
0.964706 0.901961 0.780392
0.992157 0.886275 0.760784
0.996078 0.874510 0.764706
0.996078 0.843260 0.815686
0.309804 0.815686 0.282353
0.321569 0.815686 0.282353
0.368627 0.823529 0.278431
0.498039 0.839216 0.274510
0.768627 0.890196 0.305882
0.921569 0.945098 0.643137
0.984314 0.917647 0.686275
0.996078 0.909804 0.686275
0.996078 0.909804 0.729412
0.847059 0.878431 0.094118
0.847059 0.878431 0.094118
0.850980 0.882353 0.098039
0.862745 0.886275 0.105882
0.886275 0.894118 0.149020
0.890196 0.917647 0.352941
0.976471 0.921569 0.513726
0.996078 0.921569 0.584314
0.996078 0.929412 0.639216
0.870588 0.886275 0.121691
0.874510 0.886275 0.121691
0.874510 0.886275 0.121691
0.874510 0.890196 0.125613
0.882353 0.890319 0.133456
0.905882 0.898162 0.153186
0.956863 0.902083 0.219975
0.996078 0.898162 0.353309
0.996078 0.913725 0.478554
0.007843 0.705882 0.807843
0.007843 0.702083 0.807843
0.007843 0.698162 0.807843
0.007843 0.666667 0.804044
0.839216 0.572672 0.945098
0.952941 0.509926 0.937255
0.902083 0.074632 0.862868
0.858824 0.007843 0.807843
0.858824 0.007843 0.807843
0.007843 0.709804 0.811765
0.007843 0.705882 0.811765
0.007843 0.701961 0.807843
0.007843 0.674510 0.807843
0.839216 0.592157 0.945098
0.956863 0.537255 0.941176
0.925490 0.172549 0.894118
0.858824 0.007843 0.807843
0.858824 0.007843 0.807843
0.027451 0.717647 0.815686
0.027451 0.717647 0.815686
0.019608 0.713726 0.811765
0.023529 0.694118 0.815686
0.835294 0.650980 0.952941
0.960784 0.615686 0.949020
0.956863 0.411765 0.925490
0.858824 0.007843 0.807843
0.858824 0.007843 0.807843
0.007843 0.729412 0.819608
0.007843 0.729412 0.819608
0.011765 0.729412 0.819608
0.007843 0.721569 0.819608
0.819608 0.756863 0.956863
0.972549 0.745098 0.956863
0.988235 0.674510 0.945098
0.858824 0.007843 0.807843
0.858824 0.007843 0.807843
0.007843 0.737255 0.819608
0.007843 0.737255 0.819608
0.011765 0.737255 0.819608
0.007843 0.725490 0.819608
0.788235 0.854902 0.956863
0.968627 0.854902 0.949020
0.996078 0.827451 0.933333
0.996078 0.772549 0.937255
0.858824 0.007843 0.807843
0.007843 0.741176 0.823529
0.007843 0.741176 0.823529
0.007843 0.741176 0.823529
0.031373 0.729412 0.788235
0.768627 0.913725 0.933333
0.960784 0.921569 0.933333
0.992157 0.901961 0.913725
0.996078 0.890196 0.905882
0.996078 0.855025 0.917647
0.219608 0.882353 0.831373
0.227451 0.882353 0.831373
0.250980 0.886275 0.831373
0.298039 0.898039 0.835294
0.596078 0.925490 0.839216
0.917647 0.960784 0.827451
0.984314 0.937255 0.882353
0.996078 0.933333 0.874510
0.996078 0.925490 0.874510
0.654902 0.905882 0.556863
0.658824 0.905882 0.556863
0.666667 0.905882 0.556863
0.694118 0.909804 0.556863
0.772549 0.921569 0.556863
0.913725 0.949020 0.603922
0.964706 0.960784 0.819608
0.996078 0.949020 0.831373
0.996078 0.949020 0.831373
0.948897 0.917770 0.306005
0.948897 0.917770 0.306005
0.948897 0.917770 0.306005
0.948897 0.921569 0.313848
0.952941 0.921691 0.333456
0.952941 0.925613 0.407966
0.956863 0.949142 0.635539
0.992279 0.941299 0.729657
0.996078 0.941299 0.768750
0.007843 0.741176 0.823529
0.007843 0.741176 0.823529
0.007843 0.741176 0.823529
0.007843 0.741176 0.819608
0.007843 0.737255 0.819608
0.949020 0.780515 0.996078
0.996078 0.733333 0.984314
0.945098 0.321691 0.925490
0.858824 0.007843 0.807843
0.007843 0.741176 0.823529
0.007843 0.741176 0.823529
0.007843 0.741176 0.823529
0.007843 0.741176 0.819608
0.007843 0.737255 0.819608
0.949020 0.784314 0.996078
0.996078 0.737255 0.984314
0.949020 0.368627 0.933333
0.858824 0.007843 0.807843
0.007843 0.741176 0.823529
0.007843 0.741176 0.823529
0.007843 0.741176 0.823529
0.007843 0.741176 0.819608
0.007843 0.737255 0.819608
0.949020 0.800000 0.996078
0.996078 0.756863 0.984314
0.964706 0.490196 0.952941
0.858824 0.007843 0.807843
0.007843 0.741176 0.823529
0.007843 0.741176 0.823529
0.007843 0.741176 0.823529
0.007843 0.741176 0.819608
0.007843 0.737255 0.819608
0.945098 0.831373 1.000000
0.996078 0.796078 0.988235
0.992157 0.678431 0.980392
0.858824 0.007843 0.807843
0.007843 0.741176 0.823529
0.007843 0.741176 0.823529
0.007843 0.741176 0.823529
0.007843 0.741176 0.823529
0.015686 0.737255 0.819608
0.941176 0.886275 1.000000
0.996078 0.854902 0.984314
0.996078 0.819608 0.984314
0.859314 0.010294 0.808578
0.007843 0.741176 0.823529
0.007843 0.741176 0.823529
0.007843 0.741176 0.823529
0.007843 0.741176 0.823529
0.007843 0.741176 0.819608
0.929412 0.933333 1.000000
0.988235 0.909804 0.976471
0.996078 0.894118 0.972549
0.996078 0.870711 0.972549
0.023529 0.741176 0.819608
0.027451 0.741176 0.819608
0.027451 0.741176 0.819608
0.015686 0.741176 0.823529
0.082353 0.823529 0.882353
0.917647 0.968627 0.992157
0.980392 0.945098 0.964706
0.996078 0.937255 0.956863
0.996078 0.929412 0.952941
0.678431 0.949020 0.937255
0.678431 0.949020 0.937255
0.682353 0.949020 0.937255
0.698039 0.949020 0.937255
0.745098 0.956863 0.937255
0.843137 0.968627 0.937255
0.964706 0.968627 0.913725
0.996078 0.956863 0.937255
0.996078 0.956863 0.933333
0.858578 0.956863 0.772794
0.858578 0.956863 0.772794
0.858578 0.956863 0.772794
0.862500 0.956863 0.772794
0.878309 0.960784 0.772794
0.913603 0.964706 0.772794
0.964706 0.960907 0.792402
0.980515 0.956863 0.898162
0.996078 0.956863 0.909926
0.007843 0.741176 0.823529
0.007843 0.741176 0.823529
0.007843 0.741176 0.823529
0.007843 0.741176 0.823529
0.007843 0.741176 0.823529
0.007843 0.741176 0.823529
0.980392 0.874510 0.992157
0.996078 0.843137 0.988235
0.980515 0.588971 0.968750
0.007843 0.741176 0.823529
0.007843 0.741176 0.823529
0.007843 0.741176 0.823529
0.007843 0.741176 0.823529
0.007843 0.741176 0.823529
0.007843 0.741176 0.823529
0.980392 0.874510 0.992157
0.996078 0.847059 0.988235
0.980515 0.600735 0.968750
0.007843 0.741176 0.823529
0.007843 0.741176 0.823529
0.007843 0.741176 0.823529
0.007843 0.741176 0.823529
0.007843 0.741176 0.823529
0.007843 0.741176 0.823529
0.980392 0.878431 0.992157
0.996078 0.847059 0.988235
0.984436 0.635907 0.972672
0.007843 0.741176 0.823529
0.007843 0.741176 0.823529
0.007843 0.741176 0.823529
0.007843 0.741176 0.823529
0.007843 0.741176 0.823529
0.007843 0.741176 0.823529
0.980392 0.882353 0.992157
0.996078 0.854902 0.988235
0.996078 0.718015 0.984436
0.007843 0.741176 0.823529
0.007843 0.741176 0.823529
0.007843 0.741176 0.823529
0.007843 0.741176 0.823529
0.007843 0.741176 0.823529
0.007843 0.741176 0.823529
0.976471 0.898039 0.996078
0.996078 0.874510 0.988235
0.996078 0.819730 0.988235
0.007843 0.741176 0.823529
0.007843 0.741176 0.823529
0.007843 0.741176 0.823529
0.007843 0.741176 0.823529
0.007843 0.741176 0.823529
0.007843 0.741176 0.823529
0.972549 0.925490 0.996078
0.996078 0.905882 0.988235
0.996078 0.890319 0.988235
0.007843 0.741176 0.823529
0.007843 0.741176 0.823529
0.007843 0.741176 0.823529
0.007843 0.741176 0.823529
0.007843 0.741176 0.823529
0.007843 0.741176 0.823529
0.968627 0.956863 1.000000
0.996078 0.941176 0.988235
0.996078 0.933333 0.988235
0.007843 0.741176 0.823529
0.007843 0.741176 0.823529
0.007843 0.741176 0.823529
0.007843 0.741176 0.823529
0.007843 0.741176 0.823529
0.474510 0.929412 0.988235
0.964706 0.972549 1.000000
0.996078 0.960784 0.988235
0.996078 0.956863 0.984314
0.878554 0.976471 0.988358
0.878554 0.976471 0.988358
0.878554 0.976471 0.988358
0.878554 0.976471 0.988358
0.886397 0.976593 0.988358
0.906005 0.980392 0.988358
0.949142 0.984314 0.984436
0.980515 0.960784 0.949142
0.996078 0.960784 0.972672
0.007843 0.741176 0.823529
0.007843 0.741176 0.823529
0.007843 0.741176 0.823529
0.007843 0.741176 0.823529
0.007843 0.741176 0.823529
0.007843 0.741176 0.823529
0.007843 0.741176 0.823529
0.996078 0.917609 0.988235
0.996078 0.902021 0.988235
0.007843 0.741176 0.823529
0.007843 0.741176 0.823529
0.007843 0.741176 0.823529
0.007843 0.741176 0.823529
0.007843 0.741176 0.823529
0.007843 0.741176 0.823529
0.007843 0.741176 0.823529
0.996078 0.917609 0.988235
0.996078 0.902021 0.988235
0.007843 0.741176 0.823529
0.007843 0.741176 0.823529
0.007843 0.741176 0.823529
0.007843 0.741176 0.823529
0.007843 0.741176 0.823529
0.007843 0.741176 0.823529
0.007843 0.741176 0.823529
0.996078 0.917609 0.988235
0.996078 0.902021 0.988235
0.007843 0.741176 0.823529
0.007843 0.741176 0.823529
0.007843 0.741176 0.823529
0.007843 0.741176 0.823529
0.007843 0.741176 0.823529
0.007843 0.741176 0.823529
0.007843 0.741176 0.823529
0.996078 0.917609 0.988235
0.996078 0.902033 0.988235
0.007843 0.741176 0.823529
0.007843 0.741176 0.823529
0.007843 0.741176 0.823529
0.007843 0.741176 0.823529
0.007843 0.741176 0.823529
0.007843 0.741176 0.823529
0.007843 0.741176 0.823529
0.996078 0.921544 0.988235
0.996078 0.909876 0.988235
0.007843 0.741176 0.823529
0.007843 0.741176 0.823529
0.007843 0.741176 0.823529
0.007843 0.741176 0.823529
0.007843 0.741176 0.823529
0.007843 0.741176 0.823529
0.007843 0.741176 0.823529
0.996078 0.929387 0.988235
0.996078 0.921544 0.988235
0.007843 0.741176 0.823529
0.007843 0.741176 0.823529
0.007843 0.741176 0.823529
0.007843 0.741176 0.823529
0.007843 0.741176 0.823529
0.007843 0.741176 0.823529
0.007843 0.741176 0.823529
0.992169 0.949007 0.992157
0.996078 0.937377 0.988235
0.007843 0.741176 0.823529
0.007843 0.741176 0.823529
0.007843 0.741176 0.823529
0.007843 0.741176 0.823529
0.007843 0.741176 0.823529
0.007843 0.741176 0.823529
0.009851 0.741829 0.824082
0.988248 0.964693 0.992157
0.996078 0.960772 0.988235
0.007843 0.741176 0.823529
0.007843 0.741176 0.823529
0.007843 0.741176 0.823529
0.007843 0.741176 0.823529
0.007868 0.741227 0.823555
0.010119 0.741864 0.824092
0.812094 0.968678 1.000000
0.984314 0.964706 0.992157
0.996078 0.960784 0.988235
