apps/lut-action/luts/PANA_Raptor LUT.cube
# REDCINE X PRO lut
# Created by LiveGrade 6.5.1 on 2019-04-22 17:17:59 +0000
LUT_3D_SIZE 33
0.007990 0.000123 0.000135
0.015808 0.000135 0.004056
0.027451 0.011765 0.011899
0.054902 0.023529 0.023542
0.141164 0.043137 0.027476
0.286127 0.051103 0.023677
0.443002 0.039326 0.023555
0.564693 0.007966 0.027476
0.650980 0.000123 0.039228
0.705882 0.000000 0.043150
0.741189 0.000000 0.050993
0.764718 0.000000 0.054915
0.784326 0.000000 0.054915
0.803934 0.000000 0.058836
0.815699 0.000000 0.062758
0.827464 0.000000 0.062770
0.835294 0.000000 0.066704
0.835307 0.000000 0.078494
0.839228 0.000000 0.102061
0.839228 0.000000 0.137380
0.843150 0.000000 0.235470
0.847071 0.000000 0.439366
0.850980 0.000000 0.623592
0.850980 0.000013 0.733358
0.854902 0.000000 0.803922
0.858824 0.007843 0.807843
0.858824 0.007843 0.807843
0.858824 0.007843 0.807843
0.858824 0.007843 0.807843
0.858824 0.007843 0.807843
0.858824 0.007843 0.807843
0.858824 0.007843 0.807843
0.858824 0.007843 0.807843
0.019595 0.007843 0.011765
0.019595 0.007843 0.007843
0.027451 0.011765 0.015686
0.050968 0.023529 0.023529
0.117635 0.043125 0.027464
0.247021 0.054902 0.027451
0.399962 0.050980 0.023542
0.537230 0.023517 0.023542
0.627438 0.003922 0.035294
0.690196 0.000000 0.043137
0.733333 0.000000 0.050980
0.760784 0.000000 0.050993
0.780405 0.000000 0.054915
0.800013 0.000000 0.058836
0.811777 0.000000 0.058836
0.827451 0.000000 0.062758
0.835294 0.000000 0.066692
0.835307 0.000000 0.070664
0.839216 0.000000 0.098140
0.839228 0.000000 0.133459
0.843150 0.000000 0.223705
0.847071 0.000000 0.423680
0.850980 0.000000 0.615749
0.850980 0.000013 0.729437
0.854902 0.000000 0.803922
0.858824 0.007843 0.807843
0.858824 0.007843 0.807843
0.858824 0.007843 0.807843
0.858824 0.007843 0.807843
0.858824 0.007843 0.807843
0.858824 0.007843 0.807843
0.858824 0.007843 0.807843
0.858824 0.007843 0.807843
0.027451 0.027451 0.023529
0.027438 0.019620 0.019608
0.031373 0.019608 0.019608
0.050968 0.027451 0.027451
0.109779 0.043137 0.031373
0.223492 0.054902 0.031373
0.364668 0.058824 0.027451
0.509766 0.047059 0.023529
0.607831 0.011777 0.027451
0.678406 0.000000 0.035294
0.725478 0.000000 0.043137
0.752941 0.000000 0.050980
0.776471 0.000000 0.054902
0.792169 0.000000 0.054915
0.807856 0.000000 0.054927
0.823529 0.000000 0.062758
0.831385 0.000000 0.062770
0.835294 0.000000 0.070638
0.839216 0.000000 0.090284
0.843137 0.000000 0.137380
0.843150 0.000000 0.208006
0.847059 0.000000 0.400163
0.850980 0.000000 0.600075
0.850980 0.000000 0.725503
0.854902 0.000000 0.800013
0.858824 0.007843 0.807843
0.858824 0.007843 0.807843
0.858824 0.007843 0.807843
0.858824 0.007843 0.807843
0.858824 0.007843 0.807843
0.858824 0.007843 0.807843
0.858824 0.007843 0.807843
0.858824 0.007843 0.807843
0.031373 0.062733 0.039216
0.031373 0.050993 0.035307
0.035294 0.043137 0.035294
0.058811 0.043137 0.035294
0.109779 0.054902 0.035294
0.211727 0.070576 0.031373
0.337217 0.074497 0.027451
0.478394 0.070588 0.023529
0.588210 0.058824 0.027451
0.666642 0.035294 0.031360
0.721556 0.000000 0.035294
0.756850 0.000000 0.043137
0.780392 0.000000 0.047059
0.799987 0.000000 0.050980
0.807843 0.000000 0.054902
0.815686 0.000000 0.058824
0.827476 0.000000 0.058861
0.835294 0.000000 0.070601
0.835307 0.000000 0.082428
0.839228 0.000000 0.129525
0.843150 0.000000 0.192320
0.847059 0.000000 0.368803
0.850980 0.000000 0.580467
0.850980 0.000000 0.713751
0.854902 0.000000 0.796078
0.858824 0.007843 0.807843
0.858824 0.007843 0.807843
0.858824 0.007843 0.807843
0.858824 0.007843 0.807843
0.858824 0.007843 0.807843
0.858824 0.007843 0.807843
0.858824 0.007843 0.807843
0.858824 0.007843 0.807843
0.019730 0.129412 0.047059
0.023517 0.113738 0.047059
0.027451 0.094130 0.043137
0.054864 0.078444 0.043137
0.109791 0.086262 0.039216
0.196053 0.098027 0.035294
0.313688 0.105882 0.027451
0.443112 0.109804 0.027451
0.560759 0.109804 0.027451
0.650968 0.098039 0.031373
0.713713 0.082353 0.031373
0.760772 0.058811 0.035294
0.788223 0.039216 0.039216
0.807831 0.015674 0.043137
0.819595 0.000000 0.047059
0.827451 0.000000 0.050980
0.831373 0.000000 0.054915
0.827451 0.000000 0.058824
0.839216 0.000000 0.105895
0.839228 0.000000 0.113813
0.843150 0.000000 0.192307
0.847059 0.000000 0.329587
0.850980 0.000000 0.553016
0.850980 0.003909 0.701986
0.854902 0.000000 0.788248
0.858824 0.007843 0.807843
0.858824 0.007843 0.807843
0.858824 0.007843 0.807843
0.858824 0.007843 0.807843
0.858824 0.007843 0.807843
0.858824 0.007843 0.807843
0.858824 0.007843 0.807843
0.858824 0.007843 0.807843
0.007843 0.211765 0.058824
0.007843 0.196091 0.054902
0.011752 0.168653 0.050980
0.015686 0.149020 0.047059
0.105857 0.129399 0.039216
0.184289 0.141164 0.035294
0.282328 0.152929 0.031373
0.399975 0.160784 0.031373
0.525465 0.168615 0.027451
0.631347 0.168615 0.027451
0.701948 0.160784 0.031373
0.756850 0.149020 0.031373
0.796066 0.137242 0.035294
0.819595 0.113725 0.035294
0.835282 0.094105 0.035294
0.843137 0.070576 0.039216
0.847059 0.031360 0.043137
0.850968 0.000000 0.050980
0.831385 0.000000 0.058824
0.843137 0.000000 0.192182
0.843150 0.000000 0.215711
0.847059 0.000000 0.290347
0.850980 0.000000 0.513813
0.850980 0.000000 0.678469
0.854902 0.000000 0.776483
0.858824 0.007843 0.807843
0.858824 0.007843 0.807843
0.858824 0.007843 0.807843
0.858824 0.007843 0.807843
0.858824 0.007843 0.807843
0.858824 0.007843 0.807843
0.858824 0.007843 0.807843
0.858824 0.007843 0.807843
0.007843 0.290196 0.078431
0.007843 0.274522 0.074510
0.007843 0.239253 0.066679
0.007843 0.211752 0.058811
0.046958 0.188235 0.043150
0.168615 0.188223 0.039216
0.266642 0.200000 0.035294
0.372524 0.211765 0.031385
0.498014 0.223517 0.031373
0.607818 0.227451 0.027451
0.690184 0.227451 0.027451
0.752929 0.223517 0.027451
0.796066 0.215686 0.027451
0.823529 0.203922 0.031373
0.843137 0.192144 0.031373
0.858811 0.172536 0.031373
0.866654 0.141176 0.035294
0.870576 0.101948 0.039216
0.866667 0.047059 0.043137
0.847059 0.000000 0.058811
0.827514 0.000000 0.059602
0.847059 0.000000 0.352954
0.847059 0.000000 0.447159
0.850980 0.000000 0.647097
0.854902 0.000000 0.760797
0.858824 0.003922 0.807843
0.858824 0.007843 0.807843
0.858824 0.007843 0.807843
0.858824 0.007843 0.807843
0.858824 0.007843 0.807843
0.858824 0.007843 0.807843
0.858824 0.007843 0.807843
0.858824 0.007843 0.807843
0.007843 0.364706 0.090196
0.007843 0.341189 0.086275
0.007843 0.305920 0.082353
0.007843 0.274485 0.070588
0.007843 0.254902 0.062758
0.152891 0.235294 0.043137
0.250955 0.250968 0.039216
0.356838 0.266654 0.035294
0.474485 0.278419 0.031373
0.584301 0.286275 0.023529
0.678419 0.294105 0.019608
0.745085 0.290196 0.015699
0.796066 0.290184 0.015686
0.831360 0.282340 0.011777
0.850980 0.270588 0.015699
0.866667 0.258811 0.023529
0.878431 0.239203 0.023542
0.886262 0.215674 0.027464
0.890184 0.176458 0.031373
0.882353 0.109804 0.035307
0.858836 0.003922 0.051005
0.827451 0.000000 0.058824
0.850980 0.000000 0.494130
0.850980 0.000000 0.584364
0.850980 0.003922 0.733346
0.858824 0.000000 0.803934
0.858824 0.007843 0.807843
0.858824 0.007843 0.807843
0.858824 0.007843 0.807843
0.858824 0.007843 0.807843
0.858824 0.007843 0.807843
0.858824 0.007843 0.807843
0.858824 0.007843 0.807843
0.007843 0.423542 0.098052
0.007843 0.403934 0.098039
0.007843 0.360822 0.090196
0.007843 0.333308 0.086262
0.007843 0.321569 0.082340
0.070488 0.298039 0.054902
0.239191 0.301948 0.043137
0.341151 0.321556 0.039216
0.458798 0.337242 0.027464
0.568602 0.349007 0.015686
0.666654 0.356850 0.003934
0.737255 0.360772 0.000013
0.792144 0.360772 0.003922
0.831360 0.356850 0.000000
0.858811 0.349007 0.000000
0.874510 0.337242 0.007843
0.890184 0.321569 0.003922
0.898039 0.305870 0.000013
0.901961 0.278419 0.015686
0.905882 0.239203 0.027451
0.898039 0.180392 0.031385
0.878444 0.082340 0.051031
0.831385 0.000000 0.058824
0.850980 0.000000 0.600000
0.850980 0.003909 0.686287
0.854902 0.000000 0.796078
0.858824 0.007843 0.807843
0.858824 0.007843 0.807843
0.858824 0.007843 0.807843
0.858824 0.007843 0.807843
0.858824 0.007843 0.807843
0.858824 0.007843 0.807843
0.858824 0.007843 0.807843
0.007843 0.462758 0.105882
0.007843 0.443150 0.101961
0.007843 0.407856 0.094130
0.007843 0.396053 0.094105
0.007843 0.384314 0.090196
0.015674 0.368627 0.078444
0.196003 0.364693 0.050980
0.333308 0.380380 0.039216
0.447034 0.399987 0.023529
0.556850 0.415674 0.003934
0.654889 0.423517 0.000000
0.733321 0.431360 0.000000
0.788235 0.431360 0.000000
0.831360 0.431360 0.000000
0.862733 0.427438 0.007843
0.882353 0.419595 0.000000
0.898027 0.403922 0.000000
0.905882 0.392144 0.000000
0.913725 0.368615 0.000000
0.917647 0.337242 0.000000
0.917647 0.298027 0.007843
0.909817 0.243137 0.035307
0.894130 0.141176 0.070626
0.847059 0.000000 0.054902
0.850980 0.000000 0.670588
0.854902 0.000000 0.752954
0.858824 0.007843 0.807843
0.858824 0.007843 0.807843
0.858824 0.007843 0.807843
0.858824 0.007843 0.807843
0.858824 0.007843 0.807843
0.858824 0.007843 0.807843
0.858824 0.007843 0.807843
0.007843 0.482378 0.105895
0.007843 0.462758 0.101973
0.007843 0.447059 0.101961
0.007843 0.447034 0.101948
0.007843 0.443125 0.098039
0.007843 0.427451 0.094118
0.097951 0.427438 0.062758
0.313675 0.443125 0.039228
0.439191 0.458811 0.011777
0.548995 0.478419 0.003922
0.650955 0.494105 0.000000
0.729387 0.498027 0.000013
0.788223 0.501948 0.000000
0.831373 0.501948 0.000000
0.866654 0.501948 0.000000
0.886275 0.494105 0.003922
0.905870 0.486262 0.000000
0.913725 0.474497 0.007843
0.921569 0.458798 0.000000
0.929412 0.431360 0.000000
0.933333 0.399987 0.000000
0.929424 0.356863 0.000013
0.925490 0.305882 0.039253
0.909804 0.211765 0.098077
0.862745 0.003947 0.058824
0.854902 0.000000 0.729412
0.854902 0.000000 0.803922
0.858824 0.007843 0.807843
0.858824 0.007843 0.807843
0.858824 0.007843 0.807843
0.858824 0.007843 0.807843
0.858824 0.007843 0.807843
0.858824 0.007843 0.807843
0.007843 0.498039 0.109804
0.007843 0.490196 0.105882
0.007843 0.490184 0.105882
0.007843 0.490184 0.105882
0.007843 0.486262 0.105882
0.007843 0.478431 0.101961
0.023517 0.474510 0.082365
0.246946 0.498014 0.047071
0.431335 0.517635 0.007856
0.541164 0.533321 0.000000
0.643112 0.549020 0.003922
0.721556 0.560772 0.000000
0.784301 0.564693 0.000000
0.831360 0.564706 0.000000
0.866654 0.564693 0.000000
0.890196 0.560784 0.000000
0.909791 0.556850 0.007843
0.921569 0.549007 0.007843
0.929412 0.537242 0.003922
0.937255 0.521544 0.000000
0.941176 0.494105 0.000000
0.941189 0.458824 0.000000
0.945098 0.419608 0.003947
0.937255 0.364718 0.058861
0.925490 0.274510 0.129449
0.878444 0.074510 0.082353
0.854902 0.000000 0.772549
0.858824 0.007843 0.807843
0.858824 0.007843 0.807843
0.858824 0.007843 0.807843
0.858824 0.007843 0.807843
0.858824 0.007843 0.807843
0.858824 0.007843 0.807843
0.007843 0.525490 0.109926
0.007843 0.525478 0.113713
0.007843 0.525478 0.113713
0.007843 0.525478 0.109804
0.007843 0.521569 0.109804
0.007843 0.517647 0.105882
0.015686 0.517635 0.094130
0.145010 0.533321 0.058849
0.384238 0.568602 0.007868
0.541151 0.584301 0.000000
0.635282 0.596066 0.000000
0.717634 0.611752 0.000000
0.784301 0.619595 0.000000
0.827451 0.619595 0.003922
0.866654 0.619595 0.007843
0.894105 0.619595 0.000000
0.913713 0.615674 0.007831
0.925490 0.607843 0.000013
0.937255 0.600000 0.000013
0.945085 0.588223 0.000000
0.949020 0.568627 0.000000
0.952941 0.549007 0.003922
0.952954 0.521569 0.000000
0.960784 0.486275 0.000075
0.952941 0.431385 0.086300
0.937255 0.341176 0.172574
0.894130 0.125503 0.113738
0.858824 0.000000 0.807843
0.858824 0.007843 0.807843
0.858824 0.007843 0.807843
0.858824 0.007843 0.807843
0.858824 0.007843 0.807843
0.858824 0.007843 0.807843
0.007843 0.556850 0.117635
0.007843 0.556850 0.117635
0.007843 0.556850 0.117635
0.007843 0.552941 0.113725
0.007843 0.552941 0.113725
0.007843 0.552929 0.109804
0.015674 0.552929 0.101973
0.078306 0.564693 0.070613
0.305744 0.599975 0.019645
0.517597 0.627438 0.003934
0.631360 0.639203 0.003922
0.713713 0.650968 0.000000
0.776471 0.658811 0.003922
0.827438 0.662745 0.000000
0.866654 0.662745 0.003922
0.894105 0.662745 0.003922
0.913725 0.662733 0.007843
0.929412 0.658811 0.003922
0.941176 0.650980 0.000000
0.949020 0.643125 0.000000
0.956863 0.631360 0.000000
0.960784 0.615674 0.000000
0.964706 0.596078 0.000025
0.968640 0.576471 0.003934
0.972549 0.549020 0.043162
0.964706 0.498052 0.121594
0.949020 0.407843 0.219645
0.909804 0.192169 0.156863
0.858824 0.007843 0.807843
0.858824 0.007843 0.807843
0.858824 0.007843 0.807843
0.858824 0.007843 0.807843
0.858824 0.007843 0.807843
0.011752 0.580380 0.117647
0.007843 0.580380 0.117647
0.007843 0.576471 0.117647
0.007843 0.576471 0.117647
0.007843 0.576471 0.117647
0.011765 0.576471 0.113725
0.011765 0.580392 0.105895
0.031347 0.592144 0.082378
0.203821 0.623504 0.043162
0.462632 0.658798 0.000013
0.623504 0.674510 0.000000
0.709791 0.686262 0.011752
0.772549 0.694105 0.000000
0.823529 0.698039 0.000000
0.862745 0.701961 0.011765
0.894118 0.701961 0.000000
0.917634 0.701948 0.003922
0.933321 0.698027 0.007843
0.945098 0.694105 0.007843
0.952941 0.690184 0.000000
0.960784 0.678419 0.000000
0.968615 0.666654 0.000000
0.968640 0.650980 0.000000
0.976471 0.643137 0.011765
0.984314 0.627464 0.015699
0.988235 0.607843 0.070626
0.980392 0.564706 0.160809
0.960784 0.478431 0.278456
0.921569 0.254915 0.211765
0.858824 0.007843 0.807843
0.858824 0.007843 0.807843
0.858824 0.007843 0.807843
0.858824 0.007843 0.807843
0.011752 0.599987 0.121569
0.007843 0.599987 0.121569
0.007843 0.599987 0.121569
0.007843 0.600000 0.117647
0.007843 0.600000 0.117647
0.007843 0.600000 0.113725
0.019595 0.603922 0.109804
0.023529 0.615674 0.086300
0.168540 0.643112 0.054927
0.392006 0.678406 0.003959
0.596003 0.705870 0.003934
0.709779 0.717634 0.007843
0.772536 0.725478 0.007843
0.823517 0.729399 0.003922
0.862733 0.733321 0.011752
0.894105 0.733333 0.000000
0.917634 0.733333 0.011777
0.933333 0.733321 0.003934
0.945098 0.729399 0.000000
0.956863 0.725478 0.011765
0.964706 0.717634 0.007843
0.972536 0.705882 0.003922
0.976471 0.698027 0.000000
0.980392 0.690196 0.003934
0.988235 0.682353 0.007868
0.992157 0.674510 0.062770
0.992157 0.654902 0.113751
0.988235 0.623529 0.215711
0.972549 0.549020 0.349032
0.933333 0.321569 0.270601
0.858824 0.007843 0.807843
0.858824 0.007843 0.807843
0.858824 0.007843 0.807843
0.011752 0.615686 0.121569
0.007843 0.615686 0.121569
0.007843 0.619595 0.121556
0.007843 0.619608 0.117647
0.007843 0.619608 0.117647
0.011765 0.623517 0.113725
0.031347 0.627451 0.105882
0.039178 0.639203 0.086287
0.156775 0.658811 0.058849
0.333170 0.694093 0.007868
0.548919 0.721556 0.000000
0.694080 0.741164 0.007831
0.772536 0.749020 0.007843
0.819608 0.752941 0.003922
0.858824 0.756863 0.015686
0.890196 0.760772 0.003922
0.917634 0.760784 0.007843
0.933333 0.760772 0.007843
0.949020 0.756863 0.000000
0.956863 0.752941 0.011765
0.968615 0.749007 0.019608
0.972549 0.741176 0.019595
0.980392 0.733333 0.003909
0.984326 0.725490 0.007843
0.992157 0.721569 0.011790
0.992157 0.717647 0.058849
0.992157 0.709804 0.105895
0.996078 0.698039 0.176483
0.996078 0.674522 0.278456
0.984314 0.615686 0.423542
0.945111 0.388248 0.341176
0.858824 0.007843 0.807843
0.858824 0.007843 0.807843
0.007843 0.635294 0.117647
0.007843 0.635294 0.117647
0.007843 0.639203 0.117647
0.011765 0.639216 0.113725
0.015674 0.643125 0.109816
0.019608 0.643137 0.105895
0.023529 0.650968 0.094130
0.082253 0.662733 0.078444
0.168552 0.682328 0.054927
0.305707 0.709779 0.015699
0.509666 0.737230 0.011777
0.670525 0.756863 0.000013
0.768602 0.768627 0.015686
0.823517 0.776458 0.003922
0.858824 0.780380 0.000013
0.890184 0.780392 0.011765
0.913725 0.784301 0.007843
0.933333 0.784301 0.007843
0.949020 0.780392 0.000000
0.960772 0.776471 0.015686
0.968627 0.772549 0.015686
0.976471 0.768615 0.019608
0.980392 0.760784 0.019608
0.988235 0.756863 0.000000
0.992157 0.752941 0.027476
0.992157 0.749020 0.058836
0.996078 0.745098 0.098052
0.996078 0.741176 0.156875
0.996078 0.733346 0.243150
0.996078 0.721569 0.352954
0.992157 0.674510 0.501961
0.956875 0.458836 0.415686
0.859314 0.009681 0.806373
0.027561 0.658811 0.109804
0.031360 0.658824 0.109804
0.035282 0.658824 0.105895
0.031385 0.662733 0.101973
0.027464 0.666654 0.094143
0.027438 0.670576 0.086300
0.082253 0.678406 0.078444
0.137180 0.686262 0.066679
0.199925 0.705857 0.027526
0.317484 0.725465 0.015711
0.490045 0.752916 0.007856
0.646971 0.772536 0.011752
0.756825 0.784314 0.007843
0.819595 0.792157 0.019608
0.858824 0.796078 0.011765
0.890184 0.799987 0.007843
0.913725 0.800000 0.015686
0.933321 0.800000 0.011765
0.949007 0.800000 0.011765
0.960784 0.799987 0.000000
0.968627 0.796066 0.003934
0.976471 0.792144 0.011777
0.984314 0.784314 0.023529
0.988235 0.780392 0.007843
0.996078 0.776471 0.027476
0.996078 0.776471 0.054915
0.996078 0.772549 0.094130
0.996078 0.772549 0.145111
0.996078 0.768640 0.219620
0.996078 0.768627 0.313738
0.996078 0.756863 0.431385
0.996078 0.721569 0.572549
0.972672 0.534069 0.490564
0.058858 0.686384 0.082365
0.070488 0.690171 0.078456
0.082253 0.690184 0.078444
0.097951 0.690184 0.074535
0.117559 0.694105 0.070613
0.133271 0.701936 0.066679
0.160709 0.705870 0.058849
0.196003 0.717622 0.031435
0.254776 0.729387 0.019608
0.372398 0.748995 0.007868
0.509653 0.768602 0.000000
0.643037 0.784301 0.000000
0.745048 0.799987 0.019608
0.815661 0.807831 0.007856
0.858824 0.811765 0.007856
0.890184 0.811765 0.011765
0.913713 0.815686 0.011777
0.933321 0.815686 0.011752
0.945098 0.815686 0.007831
0.956863 0.815686 0.019608
0.968627 0.811765 0.011765
0.976471 0.807843 0.007831
0.984314 0.803922 0.000000
0.992157 0.800000 0.011765
0.996078 0.796078 0.027476
0.996078 0.796078 0.058836
0.996078 0.792157 0.082365
0.996078 0.792157 0.133346
0.996078 0.792169 0.200013
0.996078 0.796078 0.282366
0.996078 0.796078 0.388235
0.996078 0.792157 0.509804
0.996078 0.760907 0.634804
0.184361 0.725465 0.051005
0.188160 0.725465 0.047096
0.192082 0.725478 0.043175
0.199925 0.729387 0.035344
0.211689 0.733308 0.023605
0.223454 0.737230 0.019645
0.254789 0.745073 0.015699
0.309628 0.749007 0.011777
0.376307 0.760759 0.003947
0.458673 0.772524 0.000000
0.560659 0.788210 0.000013
0.662657 0.799987 0.000000
0.748969 0.811752 0.011765
0.815661 0.819608 0.000013
0.862733 0.823529 0.000000
0.890196 0.827451 0.003922
0.913725 0.827451 0.015686
0.933321 0.827451 0.011752
0.945098 0.827451 0.019608
0.956863 0.827451 0.015686
0.968627 0.827451 0.015686
0.976471 0.823529 0.019608
0.984314 0.819608 0.019595
0.992157 0.815686 0.015686
0.996078 0.811765 0.023542
0.996078 0.811765 0.054915
0.996078 0.807843 0.074535
0.996078 0.807843 0.121581
0.996078 0.811765 0.184326
0.996078 0.815686 0.254915
0.996078 0.819608 0.349032
0.996078 0.823529 0.458836
0.996078 0.819730 0.576115
0.348979 0.768602 0.007843
0.352778 0.768602 0.007843
0.364543 0.768602 0.007843
0.372398 0.772524 0.003934
0.388085 0.772524 0.003934
0.403784 0.776446 0.003934
0.431235 0.780367 0.000013
0.470438 0.784301 0.000000
0.517497 0.792132 0.003909
0.576345 0.799975 0.011752
0.639115 0.807831 0.000013
0.705807 0.815674 0.011740
0.768577 0.823529 0.011765
0.823492 0.831373 0.000000
0.862733 0.835294 0.019608
0.894105 0.839216 0.011765
0.917634 0.839216 0.007831
0.933333 0.839216 0.019608
0.945098 0.839216 0.015686
0.960772 0.839216 0.011765
0.968627 0.839216 0.011765
0.976471 0.839203 0.007843
0.984301 0.831373 0.035282
0.988235 0.831360 0.035294
0.996078 0.827451 0.035294
0.996078 0.823529 0.058836
0.996078 0.823529 0.078431
0.996078 0.819620 0.109816
0.996078 0.823529 0.164718
0.996078 0.827451 0.231385
0.996078 0.835294 0.317647
0.996078 0.839216 0.423529
0.996078 0.847059 0.532966
0.564703 0.807831 0.003909
0.568489 0.807831 0.003909
0.572424 0.807831 0.003909
0.580267 0.811740 0.003909
0.588110 0.811740 0.003909
0.599887 0.811752 0.003922
0.615573 0.815661 0.000013
0.635194 0.819583 0.000013
0.658736 0.819595 0.000000
0.690108 0.823517 0.007818
0.725415 0.831360 0.015674
0.764643 0.835282 0.015686
0.803884 0.839216 0.000013
0.839191 0.843137 0.003909
0.874485 0.847059 0.019608
0.898039 0.847059 0.007856
0.921556 0.850980 0.007831
0.933333 0.850980 0.019608
0.949020 0.850980 0.015686
0.960784 0.850980 0.015686
0.968627 0.850980 0.011765
0.976471 0.847059 0.027438
0.980392 0.843137 0.035282
0.988235 0.839216 0.047059
0.992157 0.839216 0.047059
0.996078 0.835294 0.054927
0.996078 0.831373 0.078431
0.996078 0.831373 0.101973
0.996078 0.835294 0.152941
0.996078 0.839216 0.207868
0.996078 0.843137 0.286287
0.996078 0.850980 0.384314
0.996078 0.858824 0.493750
0.729471 0.839203 0.019583
0.733258 0.839203 0.019595
0.733271 0.839203 0.019595
0.737192 0.839203 0.019595
0.741114 0.839216 0.019595
0.745035 0.839216 0.019608
0.752878 0.843125 0.019608
0.760722 0.843125 0.019608
0.772499 0.843137 0.019608
0.788185 0.847046 0.015699
0.803884 0.847059 0.011777
0.823492 0.850980 0.003934
0.847021 0.854889 0.000000
0.866654 0.854902 0.003909
0.890184 0.854902 0.015686
0.909791 0.858824 0.011765
0.925490 0.858824 0.015686
0.937255 0.858824 0.019608
0.949020 0.858824 0.015686
0.960784 0.858824 0.015686
0.968627 0.858824 0.035282
0.972549 0.854902 0.043137
0.980392 0.854902 0.047059
0.984314 0.850980 0.050980
0.992157 0.847059 0.058824
0.996078 0.843137 0.058824
0.996078 0.843137 0.074522
0.996078 0.843137 0.094118
0.996078 0.843137 0.133346
0.996078 0.847059 0.192157
0.996078 0.850980 0.262745
0.996078 0.862745 0.349032
0.996078 0.870588 0.454534
0.835257 0.854902 0.011765
0.835269 0.854902 0.011765
0.835269 0.854902 0.011765
0.839178 0.854902 0.011765
0.839178 0.854902 0.011765
0.843100 0.858811 0.011765
0.843112 0.858811 0.011765
0.847034 0.858811 0.011765
0.850955 0.858824 0.011765
0.858798 0.858824 0.007856
0.866642 0.858824 0.007843
0.874485 0.862733 0.007843
0.886249 0.862745 0.003934
0.898027 0.862745 0.007831
0.909791 0.866667 0.011752
0.921556 0.866667 0.007843
0.933333 0.870576 0.003922
0.945085 0.870576 0.015686
0.952941 0.870576 0.019608
0.960784 0.866667 0.019608
0.968627 0.866667 0.035294
0.972549 0.862745 0.047059
0.980392 0.862745 0.058824
0.984314 0.858824 0.058824
0.992157 0.858824 0.054902
0.996078 0.854902 0.066667
0.996078 0.850980 0.074510
0.996078 0.850980 0.094118
0.996078 0.850980 0.117660
0.996078 0.854902 0.168640
0.996078 0.858824 0.235307
0.996078 0.866667 0.317660
0.996078 0.878431 0.419240
0.898027 0.866667 0.011765
0.898027 0.866667 0.011765
0.898027 0.866667 0.011765
0.898027 0.866667 0.011765
0.898027 0.866667 0.011765
0.898027 0.866667 0.011765
0.898027 0.866667 0.011765
0.901948 0.866667 0.011765
0.901948 0.866667 0.011765
0.905870 0.866667 0.011765
0.909791 0.866667 0.015674
0.913713 0.866667 0.015686
0.917634 0.866667 0.015686
0.921569 0.870576 0.011765
0.929412 0.870588 0.011765
0.937255 0.870588 0.011765
0.945098 0.870588 0.015686
0.952929 0.870588 0.027438
0.956863 0.870588 0.031373
0.964706 0.870588 0.035294
0.968627 0.870588 0.043137
0.976471 0.870588 0.050980
0.980392 0.870588 0.062745
0.984314 0.866667 0.066667
0.988235 0.866667 0.066667
0.996078 0.862745 0.062745
0.996078 0.858824 0.066667
0.996078 0.858824 0.086275
0.996078 0.858824 0.105882
0.996078 0.858824 0.152941
0.996078 0.866667 0.211777
0.996078 0.870601 0.290196
0.996078 0.882353 0.383946
0.933321 0.870588 0.011765
0.933321 0.870588 0.011765
0.933321 0.870588 0.011765
0.933321 0.870588 0.011765
0.933321 0.870588 0.011765
0.933321 0.870588 0.007856
0.933333 0.870588 0.007856
0.933333 0.870588 0.007856
0.933333 0.870588 0.007843
0.937242 0.870588 0.011752
0.937255 0.870588 0.011765
0.937255 0.870588 0.011765
0.941164 0.870588 0.015686
0.941176 0.870588 0.015686
0.945098 0.870588 0.019608
0.949020 0.870588 0.023529
0.952941 0.870588 0.031360
0.956863 0.870588 0.035294
0.960784 0.870588 0.043137
0.964706 0.870588 0.047059
0.972549 0.870588 0.050980
0.976471 0.870588 0.062733
0.980392 0.870588 0.066667
0.984314 0.866679 0.074510
0.988235 0.866667 0.074510
0.996066 0.866667 0.070588
0.996078 0.866667 0.070588
