apps/lut-action/luts/PANA_Raptor LUT.cube
# REDCINE X PRO lut
# Created by LiveGrade 6.5.1 on 2019-04-22 17:17:59 +0000
LUT_3D_SIZE 5
0.007990 0.000123 0.000135
0.650980 0.000123 0.039228
0.835294 0.000000 0.066704
0.854902 0.000000 0.803922
0.858824 0.007843 0.807843
0.007843 0.423542 0.098052
0.458798 0.337242 0.027464
0.890184 0.321569 0.003922
0.850980 0.003909 0.686287
0.858824 0.007843 0.807843
0.011752 0.615686 0.121569
0.156775 0.658811 0.058849
0.917634 0.760784 0.007843
0.992157 0.721569 0.011790
0.858824 0.007843 0.807843
0.835257 0.854902 0.011765
0.850955 0.858824 0.011765
0.933333 0.870576 0.003922
0.992157 0.858824 0.054902
0.996078 0.878431 0.419240
0.996078 0.866667 0.078431
0.996078 0.866667 0.078431
0.996078 0.866667 0.074632
0.996078 0.866667 0.074510
0.996078 0.870588 0.117647
0.043137 0.015809 0.251348
0.596078 0.000000 0.568627
0.850980 0.000123 0.631373
0.858824 0.007843 0.807843
0.858824 0.007843 0.807843
0.007843 0.380392 0.411765
0.341176 0.345098 0.364706
0.894118 0.337255 0.345098
0.854902 0.000000 0.764706
0.858824 0.007843 0.807843
0.007843 0.607843 0.121569
0.145098 0.647059 0.066667
0.925490 0.772549 0.098039
0.996078 0.741176 0.203922
0.858824 0.007843 0.807843
0.356863 0.776471 0.011765
0.384314 0.780392 0.015686
0.709804 0.835294 0.007843
0.988235 0.854902 0.090196
0.996078 0.882353 0.462500
0.996078 0.866667 0.078431
0.996078 0.866667 0.078431
0.996078 0.866667 0.078431
0.996078 0.866667 0.074632
0.996078 0.874510 0.141299
0.007843 0.486397 0.756985
0.007843 0.439338 0.764828
0.882475 0.184436 0.847181
0.858824 0.007843 0.807843
0.858824 0.007843 0.807843
0.027451 0.643137 0.811765
0.019608 0.588235 0.788235
0.898039 0.490196 0.870588
0.858824 0.007843 0.807843
0.858824 0.007843 0.807843
0.023529 0.705882 0.776471
0.011765 0.666667 0.729412
0.886275 0.847059 0.847059
0.996078 0.811765 0.819608
0.858824 0.007843 0.807843
0.309804 0.815686 0.282353
0.368627 0.823529 0.278431
0.768627 0.890196 0.305882
0.984314 0.917647 0.686275
0.996078 0.909804 0.729412
0.870588 0.886275 0.121691
0.874510 0.886275 0.121691
0.882353 0.890319 0.133456
0.956863 0.902083 0.219975
0.996078 0.913725 0.478554
0.007843 0.741176 0.823529
0.007843 0.741176 0.823529
0.007843 0.737255 0.819608
0.996078 0.733333 0.984314
0.858824 0.007843 0.807843
0.007843 0.741176 0.823529
0.007843 0.741176 0.823529
0.007843 0.737255 0.819608
0.996078 0.756863 0.984314
0.858824 0.007843 0.807843
0.007843 0.741176 0.823529
0.007843 0.741176 0.823529
0.015686 0.737255 0.819608
0.996078 0.854902 0.984314
0.859314 0.010294 0.808578
0.023529 0.741176 0.819608
0.027451 0.741176 0.819608
0.082353 0.823529 0.882353
0.980392 0.945098 0.964706
0.996078 0.929412 0.952941
0.858578 0.956863 0.772794
0.858578 0.956863 0.772794
0.878309 0.960784 0.772794
0.964706 0.960907 0.792402
0.996078 0.956863 0.909926
0.007843 0.741176 0.823529
0.007843 0.741176 0.823529
0.007843 0.741176 0.823529
0.007843 0.741176 0.823529
0.996078 0.902021 0.988235
0.007843 0.741176 0.823529
0.007843 0.741176 0.823529
0.007843 0.741176 0.823529
0.007843 0.741176 0.823529
0.996078 0.902021 0.988235
0.007843 0.741176 0.823529
0.007843 0.741176 0.823529
0.007843 0.741176 0.823529
0.007843 0.741176 0.823529
0.996078 0.909876 0.988235
0.007843 0.741176 0.823529
0.007843 0.741176 0.823529
0.007843 0.741176 0.823529
0.007843 0.741176 0.823529
0.996078 0.937377 0.988235
0.007843 0.741176 0.823529
0.007843 0.741176 0.823529
0.007868 0.741227 0.823555
0.812094 0.968678 1.000000
0.996078 0.960784 0.988235
