apps/lut-action/luts/RED_Kodak_7213_Vision_3-KODAK_2383_AVERAGE_COOL.cube
LUT_3D_SIZE 5
0.0121636214 0.0130247697 0.0130923642
0.1496772170 0.0154137984 0.0050527635
0.4177386761 0.0000000000 0.0037903113
0.7032341957 0.0000000000 0.0105744312
0.8302898407 0.0000000000 0.0350355431
0.0000000000 0.1638252586 0.0000000000
0.1536736190 0.1687222272 0.0000000000
0.4198246002 0.0000000000 0.0034267155
0.7031591535 0.0000000000 0.0105701406
0.8302898407 0.0000000000 0.0350355431
0.0000000000 0.4776461720 0.0000000000
0.0000000000 0.4768015444 0.0000000000
0.5672972798 0.4923821092 0.0000000000
0.8842156529 0.2313505262 0.0000000000
0.8302898407 0.0000000000 0.0350355431
0.0000000000 0.7866084576 0.0000000000
0.0000000000 0.7865679264 0.0000000000
0.0000000000 0.7861126661 0.0000000000
0.9988558888 0.8316106796 0.0000000000
1.0000000000 0.8505971432 0.0000000000
0.0000000000 0.8910835385 0.0000000000
0.0000000000 0.8910835385 0.0000000000
0.0000000000 0.8910835385 0.0000000000
0.9802905321 0.9445836544 0.0000000000
1.0000000000 0.9445464611 0.0000000000
0.0106208026 0.0064515127 0.1361674070
0.1382850260 0.0000000000 0.1381685138
0.4176258445 0.0000000000 0.0037970194
0.7032341957 0.0000000000 0.0105744312
0.8302898407 0.0000000000 0.0350355431
0.0000000000 0.1341904253 0.1648102850
0.1983686239 0.2298253328 0.2566305697
0.4175068736 0.0000000000 0.0037320745
0.7031591535 0.0000000000 0.0105701406
0.8302898407 0.0000000000 0.0350355431
0.0000000000 0.4698055387 0.0008659611
0.0000000000 0.4730559587 0.0000000000
0.5671058893 0.4922314882 0.0000000000
0.8837961555 0.2299186289 0.0000000000
0.8302898407 0.0000000000 0.0350355431
0.0000000000 0.7865983844 0.0000000000
0.0000000000 0.7865679264 0.0000000000
0.0000000000 0.7861126661 0.0000000000
0.9988558888 0.8316106796 0.0000000000
1.0000000000 0.8505889177 0.0000000000
0.0000000000 0.8910835385 0.0000000000
0.0000000000 0.8910835385 0.0000000000
0.0000000000 0.8910835385 0.0000000000
0.9802850485 0.9445840716 0.0000000000
1.0000000000 0.9445464611 0.0000000000
0.0000000000 0.0000000000 0.3213271499
0.1104365289 0.0000000000 0.3682026267
0.3577522635 0.0000000000 0.4089701772
0.7353191376 0.0000000000 0.1739264131
0.8302898407 0.0000000000 0.0350355431
0.0000000000 0.0082660746 0.4420215487
0.0000000000 0.0000000000 0.6357079744
0.3569046855 0.0000000000 0.4084345698
0.7361322045 0.0000000000 0.1707197279
0.8302898407 0.0000000000 0.0350355431
0.0000000000 0.4093423486 0.5097630620
0.0000000000 0.4085716605 0.5087649822
0.6856567264 0.7121937275 0.7134789824
1.0000000000 0.3390896320 0.2793640792
0.8302898407 0.0000000000 0.0350355431
0.0000000000 0.7498659492 0.4744383991
0.0000000000 0.7498576641 0.4723523259
0.0000000000 0.7495671511 0.4422032237
0.9987369180 0.8314940929 0.0000000000
1.0000000000 0.8505052924 0.0000000000
0.0000000000 0.8910835385 0.0000000000
0.0000000000 0.8910835385 0.0000000000
0.0000000000 0.8910835385 0.0000000000
0.9802060723 0.9445917606 0.0000000000
1.0000000000 0.9445464611 0.0000000000
0.0000000000 0.0000000000 0.5580446720
0.0000000000 0.0000000000 0.5579966307
0.3527114689 0.0000000000 0.6644166112
0.6007733345 0.0000000000 0.6699822545
0.7336294651 0.0000000000 0.6762356758
0.0000000000 0.0000000000 0.5580209494
0.0000000000 0.0000000000 0.5579731464
0.3517714143 0.0000000000 0.6642897129
0.6007081270 0.0000000000 0.6699619293
0.7336511612 0.0000000000 0.6762139797
0.0000000000 0.3898529112 0.7939506769
0.0000000000 0.3887231350 0.7938020229
0.6656541824 0.7647036910 1.0000000000
0.6107750535 0.0000000000 0.6910690069
0.7339750528 0.0000000000 0.6758899689
0.0000000000 0.7003505826 0.7991870642
0.0000000000 0.7003009319 0.7991416454
0.0000000000 0.6997356415 0.7985849380
0.9652960896 0.9499200583 0.9416241646
1.0000000000 0.9347581863 0.9379528761
0.0000000000 0.8460361362 0.8236555457
0.0000000000 0.8460497260 0.8236185312
0.0000000000 0.8462164998 0.8231613636
0.8681284189 0.9999463558 0.9174907207
0.9989279509 0.9861168861 0.8945015073
0.0000000000 0.0000000000 0.6702768207
0.0000000000 0.0000000000 0.6702768207
0.2851944566 0.0000000000 0.7716007829
0.5987085700 0.0000000000 0.7721719742
0.6999896765 0.0000000000 0.7532904148
0.0000000000 0.0000000000 0.6702768207
0.0000000000 0.0000000000 0.6702768207
0.2830454707 0.0000000000 0.7714512944
0.5986448526 0.0000000000 0.7721883059
0.6999896765 0.0000000000 0.7532904148
0.0000000000 0.1919760108 0.8758454323
0.0000000000 0.1869468689 0.8753569722
0.6265032291 0.7257200480 1.0000000000
0.5979081988 0.0000000000 0.7723785043
0.6999896765 0.0000000000 0.7532904148
0.0000000000 0.7198127508 0.8913570642
0.0000000000 0.7197648287 0.8913568854
0.0000000000 0.7191982865 0.8913559914
0.9579564333 0.9504328966 0.9946421385
1.0000000000 0.9247517586 0.9930679202
0.0000000000 0.8252435923 0.8896820545
0.0000000000 0.8252435923 0.8896820545
0.0000000000 0.8252435923 0.8896820545
0.8641519547 0.9916761518 0.9682670236
0.9930133820 0.9821655154 0.9667592645
