apps/lut-action/luts/Red_Helium_5219_FilmLUT.cube
TITLE "Generate by Resolve"
LUT_3D_SIZE 5
0 0 0
0.334478 0.0197147 0.0286107
0.934249 0.189883 0.272999
1 0.865858 0.884016
1 0.932937 0.943694
0.00350958 0.338735 0.00483711
0.312261 0.338567 0.00454719
0.958282 0.339971 0.317082
1 0.893996 0.908537
1 0.92842 0.939284
0.0158236 0.865812 0.104616
0.0381476 0.873426 0.113115
0.841291 0.856397 0.141604
1 0.90898 0.896559
1 0.926604 0.911665
0.702266 1 0.813825
0.706844 1 0.813748
0.8056 1 0.810468
1 1 0.834211
1 1 0.834226
0.70251 1 0.813947
0.714275 1 0.813733
0.872282 1 0.811627
1 1 0.834257
1 1 0.834272
0.0167849 0.00492866 0.29192
0.334234 0.00466926 0.300465
0.934218 0.176471 0.358282
1 0.865812 0.884474
1 0.929717 0.941054
0.00350958 0.305486 0.30309
0.308003 0.302861 0.310857
0.956847 0.322667 0.410056
1 0.893599 0.90866
1 0.923629 0.935393
0.0157168 0.867796 0.188602
0.0378424 0.87335 0.20705
0.84126 0.855146 0.2448
1 0.904723 0.890974
1 0.922759 0.906691
0.702007 1 0.81622
0.706538 1 0.816007
0.8009 1 0.808545
1 1 0.835782
1 1 0.836332
0.701778 1 0.820462
0.713176 1 0.819379
0.864149 1 0.816281
1 1 0.837476
1 1 0.83769
0.0501106 0.00943008 0.842741
0.202502 0.00816358 0.850965
0.885252 0.0207218 0.837385
1 0.839796 0.890623
1 0.906462 0.937011
0.0207065 0.0384833 0.870695
0.146838 0.034699 0.878172
0.91249 0.0532845 0.868955
1 0.868147 0.914626
1 0.893767 0.938491
0.00511177 0.831144 0.831495
0.01178 0.83566 0.836378
0.827695 0.812818 0.825071
1 0.882567 0.90013
1 0.902159 0.917632
0.693446 1 0.876966
0.699092 1 0.871443
0.792111 1 0.860304
1 1 0.87361
1 1 0.882795
0.681544 1 0.927459
0.69723 1 0.914488
0.85127 1 0.896635
1 1 0.89514
1 1 0.895186
0.00350958 0.00350958 1
0.00361639 0.00350958 1
1 0.00350958 1
1 0.267308 1
1 0.486915 1
0.00350958 0.00350958 1
0.00350958 0.00350958 1
1 0.00350958 1
1 0.321248 1
1 0.361959 1
0.00350958 0.84918 1
0.00350958 0.845304 1
0.76434 0.575387 1
1 0.717983 1
1 0.763256 1
0.603006 1 1
0.611231 1 1
0.751232 1 1
1 0.99939 1
1 1 1
0.603418 1 1
0.622217 1 1
0.825101 1 1
1 1 1
1 1 1
0.00350958 0.00350958 1
0.00350958 0.00350958 1
1 0.00350958 1
1 0.123507 1
1 0.330419 1
0.00350958 0.00350958 1
0.00350958 0.00350958 1
1 0.00350958 1
1 0.312078 1
1 0.367636 1
0.00350958 0.899901 1
0.00350958 0.89279 1
0.768612 0.538628 1
1 0.725338 1
1 0.77911 1
0.603037 1 1
0.612284 1 1
0.766201 1 1
1 1 1
1 1 1
0.603479 1 1
0.623636 1 1
0.829099 1 1
1 1 1
1 1 1
