apps/lut-action/luts/RED_Kodak_7213_Vision_3-KODAK_2383_AVERAGE_COOL.cube
LUT_3D_SIZE 33
0.0121636214 0.0130247697 0.0130923642
0.0155657558 0.0138302548 0.0137887914
0.0230292361 0.0149410833 0.0146550648
0.0341814421 0.0167820416 0.0156155964
0.0546462424 0.0197812114 0.0160023812
0.0811626092 0.0224435851 0.0143307103
0.1062570438 0.0225333124 0.0113907624
0.1301223785 0.0198020916 0.0071469746
0.1496772170 0.0154137984 0.0050527635
0.1742031574 0.0083105993 0.0043302481
0.2057057023 0.0057549248 0.0039718631
0.2355053723 0.0009034525 0.0043099741
0.2686130106 0.0005333120 0.0045202593
0.3039824367 0.0000000000 0.0057829237
0.3382433057 0.0000000000 0.0049654902
0.3761202693 0.0000000000 0.0056264484
0.4177386761 0.0000000000 0.0037903113
0.4583750367 0.0000000000 0.0019263384
0.4979312122 0.0000000000 0.0017409745
0.5353949070 0.0000000000 0.0038378695
0.5723043084 0.0000000000 0.0050524510
0.6062312126 0.0000000000 0.0063410299
0.6406016946 0.0000000000 0.0071799457
0.6729192734 0.0000000000 0.0088924821
0.7032341957 0.0000000000 0.0105744312
0.7287222743 0.0000000000 0.0114457663
0.7501709461 0.0000000000 0.0123978248
0.7705284953 0.0000000000 0.0156373084
0.7879905701 0.0000000000 0.0208182670
0.8036177754 0.0000000000 0.0254899673
0.8189251423 0.0000000000 0.0305629130
0.8302898407 0.0000000000 0.0350355431
0.8302898407 0.0000000000 0.0350355431
0.0121951327 0.0164028276 0.0142065305
0.0151969027 0.0165105909 0.0139354896
0.0222793873 0.0180874858 0.0144199971
0.0332552269 0.0210226923 0.0153564671
0.0545869730 0.0241250824 0.0152535914
0.0817527846 0.0261962134 0.0133962687
0.1079188064 0.0266463067 0.0101604909
0.1316625178 0.0236847196 0.0058191754
0.1524915546 0.0196369588 0.0033802928
0.1752203256 0.0095692826 0.0037750090
0.2055121660 0.0057440372 0.0039799334
0.2353756726 0.0009305875 0.0043026502
0.2685188353 0.0005335828 0.0045199078
0.3039099574 0.0000000000 0.0057816063
0.3381794691 0.0000000000 0.0049674953
0.3760843575 0.0000000000 0.0056277686
0.4177006781 0.0000000000 0.0037925709
0.4583570063 0.0000000000 0.0019275094
0.4979134202 0.0000000000 0.0017401257
0.5353949070 0.0000000000 0.0038378695
0.5722873211 0.0000000000 0.0050516976
0.6062142849 0.0000000000 0.0063407645
0.6405850649 0.0000000000 0.0071792169
0.6729192734 0.0000000000 0.0088924821
0.7032341957 0.0000000000 0.0105744312
0.7287222743 0.0000000000 0.0114457663
0.7501709461 0.0000000000 0.0123978248
0.7705284953 0.0000000000 0.0156373084
0.7879905701 0.0000000000 0.0208182670
0.8036038876 0.0000000000 0.0254858471
0.8189251423 0.0000000000 0.0305629130
0.8302898407 0.0000000000 0.0350355431
0.8302898407 0.0000000000 0.0350355431
0.0108708655 0.0241508391 0.0151481731
0.0138110593 0.0243012123 0.0151382405
0.0201479960 0.0236220211 0.0139838494
0.0313943587 0.0264779031 0.0147307497
0.0547387749 0.0307648387 0.0141002834
0.0830805674 0.0322362892 0.0119008468
0.1096874475 0.0325570777 0.0087423390
0.1341647655 0.0296805408 0.0045885835
0.1563769281 0.0248353854 0.0020837309
0.1804340631 0.0153826568 0.0012310720
0.2065115273 0.0064314771 0.0036509954
0.2352022082 0.0009668794 0.0042928569
0.2683666646 0.0005337283 0.0045189178
0.3038078547 0.0000000000 0.0057797553
0.3380997777 0.0000000000 0.0049699978
0.3760109544 0.0000000000 0.0056304727
0.4176639318 0.0000000000 0.0037947553
0.4583197534 0.0000000000 0.0019299319
0.4978777766 0.0000000000 0.0017384283
0.5353779793 0.0000000000 0.0038368762
0.5722873211 0.0000000000 0.0050516976
0.6062142849 0.0000000000 0.0063407645
0.6405850649 0.0000000000 0.0071792169
0.6729192734 0.0000000000 0.0088924821
0.7032341957 0.0000000000 0.0105744312
0.7287099361 0.0000000000 0.0114452662
0.7501709461 0.0000000000 0.0123978248
0.7705284953 0.0000000000 0.0156373084
0.7879790068 0.0000000000 0.0208147783
0.8036038876 0.0000000000 0.0254858471
0.8189251423 0.0000000000 0.0305629130
0.8302898407 0.0000000000 0.0350355431
0.8302898407 0.0000000000 0.0350355431
0.0093773501 0.0351326913 0.0168749988
0.0128141781 0.0357894115 0.0166828018
0.0191143639 0.0347074941 0.0151950186
0.0286660269 0.0340094455 0.0139970845
0.0513902754 0.0405356735 0.0128133381
0.0822977424 0.0438084863 0.0100877183
0.1127120852 0.0437109359 0.0058216993
0.1383491158 0.0414782725 0.0032912418
0.1621662676 0.0355237052 0.0020166463
0.1881719977 0.0236869566 0.0000000000
0.2144976705 0.0119611863 0.0011676381
0.2359607518 0.0014940928 0.0039594453
0.2681477368 0.0005339197 0.0045174593
0.3036915064 0.0000000000 0.0057776500
0.3380035162 0.0000000000 0.0049730223
0.3759374917 0.0000000000 0.0056331805
0.4175889790 0.0000000000 0.0037992103
0.4582838416 0.0000000000 0.0019322671
0.4978587329 0.0000000000 0.0017375253
0.5353434682 0.0000000000 0.0038348446
0.5722706318 0.0000000000 0.0050509442
0.6061978936 0.0000000000 0.0063405014
0.6405850649 0.0000000000 0.0071792169
0.6729192734 0.0000000000 0.0088924821
0.7032341957 0.0000000000 0.0105744312
0.7287099361 0.0000000000 0.0114452662
0.7501709461 0.0000000000 0.0123978248
0.7705284953 0.0000000000 0.0156373084
0.7879790068 0.0000000000 0.0208147783
0.8036038876 0.0000000000 0.0254858471
0.8189117908 0.0000000000 0.0305577032
0.8302898407 0.0000000000 0.0350355431
0.8302898407 0.0000000000 0.0350355431
0.0034931335 0.0550042205 0.0174042825
0.0078779534 0.0560255200 0.0173948370
0.0144772008 0.0555746779 0.0157997869
0.0247936156 0.0553359017 0.0135119585
0.0437444896 0.0543932691 0.0101656541
0.0788642541 0.0620684586 0.0070960354
0.1121989191 0.0630375445 0.0034896759
0.1421962380 0.0589765608 0.0004809454
0.1683966219 0.0527912155 0.0001060733
0.1979382336 0.0410992354 0.0000000000
0.2249619663 0.0253682919 0.0000000000
0.2466887534 0.0073338263 0.0007431465
0.2693903148 0.0006241003 0.0043494762
0.3035025597 0.0000000000 0.0057742260
0.3378599882 0.0000000000 0.0049775299
0.3758088648 0.0000000000 0.0056379163
0.4175142348 0.0000000000 0.0038036522
0.4582105279 0.0000000000 0.0019370337
0.4978053868 0.0000000000 0.0017349790
0.5353266001 0.0000000000 0.0038338604
0.5722360611 0.0000000000 0.0050493991
0.6061800122 0.0000000000 0.0063402257
0.6405683756 0.0000000000 0.0071784887
0.6729031801 0.0000000000 0.0088915620
0.7032192945 0.0000000000 0.0105735837
0.7287099361 0.0000000000 0.0114452662
0.7501709461 0.0000000000 0.0123978248
0.7705284953 0.0000000000 0.0156373084
0.7879790068 0.0000000000 0.0208147783
0.8036038876 0.0000000000 0.0254858471
0.8189117908 0.0000000000 0.0305577032
0.8302898407 0.0000000000 0.0350355431
0.8302898407 0.0000000000 0.0350355431
0.0031151383 0.0821895003 0.0154039506
0.0047062347 0.0846439302 0.0148742106
0.0068642166 0.0839022249 0.0132621769
0.0130689396 0.0833838135 0.0108925737
0.0327944160 0.0829576254 0.0078413086
0.0664862171 0.0822003409 0.0044998126
0.1060964167 0.0879463479 0.0034759494
0.1407170594 0.0856820941 0.0015896183
0.1743765622 0.0798967332 0.0000078869
0.2089619637 0.0704858601 0.0000027834
0.2393113673 0.0539507456 0.0000000000
0.2645668387 0.0287367739 0.0001883762
0.2871914804 0.0060737580 0.0002449223
0.3048687577 0.0000000000 0.0057434682
0.3376672864 0.0000000000 0.0049835886
0.3756442666 0.0000000000 0.0056439731
0.4173828363 0.0000000000 0.0038114591
0.4581373036 0.0000000000 0.0019417944
0.4977506101 0.0000000000 0.0017323605
0.5352751613 0.0000000000 0.0038308266
0.5722024441 0.0000000000 0.0050478922
0.6061633229 0.0000000000 0.0063399612
0.6405516863 0.0000000000 0.0071777469
0.6728869677 0.0000000000 0.0088906344
0.7032192945 0.0000000000 0.0105735837
0.7286968231 0.0000000000 0.0114447363
0.7501595616 0.0000000000 0.0123973126
0.7705167532 0.0000000000 0.0156338774
0.7879790068 0.0000000000 0.0208147783
0.8036038876 0.0000000000 0.0254858471
0.8189117908 0.0000000000 0.0305577032
0.8302898407 0.0000000000 0.0350355431
0.8302898407 0.0000000000 0.0350355431
0.0000000000 0.1098752171 0.0096270097
0.0012512025 0.1146860346 0.0090278834
0.0041840710 0.1138615906 0.0077295215
0.0082273288 0.1130939424 0.0057923207
0.0158078261 0.1123909578 0.0039323759
0.0501281321 0.1123425588 0.0006239364
0.0899827182 0.1093494371 0.0000000000
0.1315153986 0.1135549471 0.0000000000
0.1738273203 0.1139013171 0.0000000000
0.2140015811 0.1080781743 0.0000000000
0.2520517111 0.0970252380 0.0000000000
0.2867760956 0.0765128732 0.0000000000
0.3098990917 0.0395389348 0.0000000000
0.3248490691 0.0048535578 0.0000000000
0.3388977647 0.0000000000 0.0049456665
0.3754242659 0.0000000000 0.0056520691
0.4172146916 0.0000000000 0.0038214563
0.4580089152 0.0000000000 0.0019501466
0.4976603687 0.0000000000 0.0017280534
0.5352238417 0.0000000000 0.0038278017
0.5721676946 0.0000000000 0.0050463397
0.6061300635 0.0000000000 0.0063394364
0.6405171156 0.0000000000 0.0071762293
0.6728706956 0.0000000000 0.0088897068
0.7032045126 0.0000000000 0.0105727362
0.7286968231 0.0000000000 0.0114447363
0.7501595616 0.0000000000 0.0123973126
0.7705167532 0.0000000000 0.0156338774
0.7879790068 0.0000000000 0.0208147783
0.8036038876 0.0000000000 0.0254858471
0.8189117908 0.0000000000 0.0305577032
0.8302898407 0.0000000000 0.0350355431
0.8302898407 0.0000000000 0.0350355431
0.0000000000 0.1345864236 0.0042617782
0.0000000000 0.1416755021 0.0030678669
0.0000000000 0.1434839219 0.0025879380
0.0015373609 0.1426820755 0.0018564006
0.0093645155 0.1418899000 0.0010286912
0.0279068816 0.1412687749 0.0000636358
0.0760956854 0.1392937899 0.0000000000
0.1177781895 0.1359349489 0.0000000000
0.1653335541 0.1426636428 0.0000000000
0.2123913020 0.1440678388 0.0000000000
0.2573579848 0.1387303025 0.0000000000
0.2987115085 0.1254869998 0.0000000000
0.3350077868 0.1045327485 0.0000000000
0.3609155416 0.0606458411 0.0000000000
0.3695113957 0.0052187275 0.0000000000
0.3774095774 0.0000000000 0.0056407843
0.4169890285 0.0000000000 0.0038348641
0.4578445852 0.0000000000 0.0019608301
0.4975332618 0.0000000000 0.0017220038
0.5351387858 0.0000000000 0.0038227905
0.5720993280 0.0000000000 0.0050432878
0.6060788631 0.0000000000 0.0063386401
0.6404837966 0.0000000000 0.0071747722
0.6728533506 0.0000000000 0.0088887159
0.7031897902 0.0000000000 0.0105718896
0.7286846042 0.0000000000 0.0114442324
0.7501479387 0.0000000000 0.0123967985
0.7705167532 0.0000000000 0.0156338774
0.7879673243 0.0000000000 0.0208112821
0.8035900593 0.0000000000 0.0254817158
0.8189117908 0.0000000000 0.0305577032
0.8302898407 0.0000000000 0.0350355431
0.8302898407 0.0000000000 0.0350355431
0.0000000000 0.1638252586 0.0000000000
0.0000000000 0.1642329097 0.0000000000
0.0000000000 0.1720500588 0.0000000000
0.0000000000 0.1705872416 0.0000000000
0.0000000000 0.1696841270 0.0000000000
0.0131846461 0.1685454398 0.0000000000
0.0500825495 0.1686142981 0.0000000000
0.1062765494 0.1697613895 0.0000000000
0.1536736190 0.1687222272 0.0000000000
0.2061355561 0.1746509075 0.0000000000
0.2557851374 0.1748075634 0.0000000000
0.3032872677 0.1693524271 0.0000000000
0.3472570777 0.1573272496 0.0000000000
0.3863143623 0.1351815015 0.0000000000
0.4162643552 0.0856837183 0.0000000000
0.4217114449 0.0039235172 0.0000000000
0.4198246002 0.0000000000 0.0034267155
0.4576247633 0.0000000000 0.0019751249
0.4973693788 0.0000000000 0.0017141843
0.5350190401 0.0000000000 0.0038157476
0.5720140934 0.0000000000 0.0050394824
0.6060277820 0.0000000000 0.0063378406
0.6404491663 0.0000000000 0.0071732546
0.6728211641 0.0000000000 0.0088868737
0.7031591535 0.0000000000 0.0105701406
0.7286721468 0.0000000000 0.0114437230
0.7501357794 0.0000000000 0.0123962527
0.7705042362 0.0000000000 0.0156302918
0.7879673243 0.0000000000 0.0208112821
0.8035900593 0.0000000000 0.0254817158
0.8188985586 0.0000000000 0.0305525623
0.8302898407 0.0000000000 0.0350355431
0.8302898407 0.0000000000 0.0350355431
0.0000000000 0.1962239742 0.0000000000
0.0000000000 0.1960439682 0.0000000000
0.0000000000 0.1958212852 0.0000000000
0.0000000000 0.1971871108 0.0000000000
0.0000000000 0.1973931640 0.0000000000
0.0000000000 0.2003961802 0.0000000000
0.0241790917 0.2033948898 0.0000000000
0.0814041346 0.2063378841 0.0000000000
0.1433669031 0.2081910074 0.0000000000
0.1984025240 0.2081764936 0.0000000000
0.2509438694 0.2096975446 0.0000000000
0.3026191592 0.2099149078 0.0000000000
0.3505958319 0.2034760118 0.0000000000
0.3963199258 0.1901462078 0.0000000000
0.4407959580 0.1653471291 0.0000000000
0.4739460945 0.1156469136 0.0000000000
0.4799115658 0.0028388873 0.0000000000
0.4628683329 0.0000000000 0.0019210821
0.4971519411 0.0000000000 0.0017038096
0.5348657966 0.0000000000 0.0038067270
0.5719112158 0.0000000000 0.0050348779
0.6059434414 0.0000000000 0.0063365083
0.6403812170 0.0000000000 0.0071702735
0.6727715135 0.0000000000 0.0088840406
0.7031295896 0.0000000000 0.0105684465
0.7286468744 0.0000000000 0.0114426892
0.7501242161 0.0000000000 0.0123957321
0.7704924941 0.0000000000 0.0156268533
0.7879549265 0.0000000000 0.0208075941
0.8035760522 0.0000000000 0.0254775472
0.8188985586 0.0000000000 0.0305525623
0.8302898407 0.0000000000 0.0350355431
0.8302898407 0.0000000000 0.0350355431
0.0000000000 0.2290855646 0.0000000000
0.0000000000 0.2289711237 0.0000000000
0.0000000000 0.2287994772 0.0000000000
0.0000000000 0.2285557389 0.0000000000
0.0000000000 0.2296826392 0.0000000000
0.0000000000 0.2336293459 0.0000000000
0.0000000000 0.2392912060 0.0000000000
0.0482511409 0.2441629618 0.0000000000
0.1240623817 0.2481827885 0.0000000000
0.1903230399 0.2504319251 0.0000000000
0.2461160421 0.2476086468 0.0000000000
0.2970894873 0.2453366965 0.0000000000
0.3499135971 0.2442048937 0.0000000000
0.4007721245 0.2378816009 0.0000000000
0.4510525167 0.2243117988 0.0000000000
0.4987470210 0.1996430457 0.0000000000
0.5373841524 0.1504784673 0.0000000000
0.5364071131 0.0168205686 0.0000000000
0.5066556334 0.0000000000 0.0019161718
0.5346611738 0.0000000000 0.0037946729
0.5717577934 0.0000000000 0.0050280280
0.6058244705 0.0000000000 0.0063346475
0.6402966976 0.0000000000 0.0071665640
0.6727057099 0.0000000000 0.0088802930
0.7030840516 0.0000000000 0.0105658509
0.7286223173 0.0000000000 0.0114416927
0.7501014471 0.0000000000 0.0123947142
0.7704808116 0.0000000000 0.0156234670
0.7879434228 0.0000000000 0.0208041035
0.8035612106 0.0000000000 0.0254731067
0.8188845515 0.0000000000 0.0305470470
0.8302898407 0.0000000000 0.0350355431
0.8302898407 0.0000000000 0.0350355431
0.0000000000 0.2648238242 0.0000000000
0.0000000000 0.2647342682 0.0000000000
0.0000000000 0.2646009326 0.0000000000
0.0000000000 0.2644229829 0.0000000000
0.0000000000 0.2641855180 0.0000000000
0.0000000000 0.2665852308 0.0000000000
0.0000000000 0.2742753625 0.0000000000
0.0040528150 0.2820867002 0.0000000000
0.0910738111 0.2879010737 0.0000000000
0.1763299704 0.2922095954 0.0000000000
0.2430133075 0.2940381467 0.0000000000
0.2935453951 0.2846034467 0.0000000000
0.3446223438 0.2803619802 0.0000000000
0.4003395140 0.2798571587 0.0000000000
0.4551088214 0.2732984722 0.0000000000
0.5080641508 0.2600444555 0.0000000000
0.5584657192 0.2359110266 0.0000000000
0.6003715396 0.1884472966 0.0000000000
0.6080409288 0.0567487888 0.0000000000
0.5531667471 0.0000000000 0.0043152715
0.5715349317 0.0000000000 0.0050180582
0.6056723595 0.0000000000 0.0063322587
0.6401775479 0.0000000000 0.0071613435
0.6726238728 0.0000000000 0.0088756038
0.7030239105 0.0000000000 0.0105624143
0.7285848260 0.0000000000 0.0114401672
0.7500776052 0.0000000000 0.0123936506
0.7704565525 0.0000000000 0.0156164393
0.7879201770 0.0000000000 0.0207971931
0.8035474420 0.0000000000 0.0254689902
0.8188713193 0.0000000000 0.0305419005
0.8302898407 0.0000000000 0.0350355431
0.8302898407 0.0000000000 0.0350355431
0.0000000000 0.3025879562 0.0000000000
0.0000000000 0.3025204539 0.0000000000
0.0000000000 0.3024022877 0.0000000000
0.0000000000 0.3022675514 0.0000000000
0.0000000000 0.3020652831 0.0000000000
0.0000000000 0.3017957807 0.0000000000
0.0000000000 0.3075268269 0.0000000000
0.0000000000 0.3197360933 0.0000000000
0.0177066028 0.3282082379 0.0000000000
0.1470632255 0.3343368769 0.0000000000
0.2342326939 0.3382503688 0.0000000000
0.2984143198 0.3379468918 0.0000000000
0.3425229192 0.3219293654 0.0000000000
0.3937649429 0.3171526790 0.0000000000
0.4540088773 0.3176695406 0.0000000000
0.5118831396 0.3114973307 0.0000000000
0.5677722692 0.2981698513 0.0000000000
0.6190686822 0.2749853730 0.0000000000
0.6610785723 0.2347694039 0.0000000000
0.6757400036 0.1259901971 0.0000000000
0.6056131124 0.0000000000 0.0009207979
0.6054506898 0.0000000000 0.0063285124
0.6400251389 0.0000000000 0.0071546524
0.6725084782 0.0000000000 0.0088690231
0.7029479146 0.0000000000 0.0105580641
0.7285355330 0.0000000000 0.0114381472
0.7500424981 0.0000000000 0.0123920785
0.7704212666 0.0000000000 0.0156062245
0.7878962159 0.0000000000 0.0207900144
0.8035196662 0.0000000000 0.0254607052
0.8188439608 0.0000000000 0.0305312350
0.8302898407 0.0000000000 0.0350355431
0.8302898407 0.0000000000 0.0350355431
0.0000000000 0.3426067531 0.0000000000
0.0000000000 0.3425351977 0.0000000000
0.0000000000 0.3424635828 0.0000000000
0.0000000000 0.3423557281 0.0000000000
0.0000000000 0.3421949744 0.0000000000
0.0000000000 0.3419981599 0.0000000000
0.0000000000 0.3416941166 0.0000000000
0.0000000000 0.3522780538 0.0000000000
0.0000000000 0.3686358333 0.0000000000
0.0714360401 0.3775872886 0.0000000000
0.2086633295 0.3836981654 0.0000000000
0.2921180129 0.3865298331 0.0000000000
0.3537589312 0.3793242574 0.0000000000
0.3939872086 0.3606903255 0.0000000000
0.4475963116 0.3555705547 0.0000000000
0.5099194646 0.3550616503 0.0000000000
0.5711430311 0.3503849208 0.0000000000
0.6300232410 0.3399358690 0.0000000000
0.6815744042 0.3219526708 0.0000000000
0.7201027274 0.2863223851 0.0000000000
0.7365966439 0.1970103532 0.0000000000
0.6696193218 0.0000000000 0.0002494909
0.6397868395 0.0000000000 0.0071441978
0.6723436117 0.0000000000 0.0088596083
0.7028273940 0.0000000000 0.0105511779
0.7284615636 0.0000000000 0.0114351381
0.7499843836 0.0000000000 0.0123894764
0.7703852654 0.0000000000 0.0155957853
0.7878606915 0.0000000000 0.0207793787
0.8034908772 0.0000000000 0.0254521165
0.8188175559 0.0000000000 0.0305209141
0.8302898407 0.0000000000 0.0350355431
0.8302898407 0.0000000000 0.0350355431
0.0000000000 0.3847519159 0.0000000000
0.0000000000 0.3846945465 0.0000000000
0.0000000000 0.3846371472 0.0000000000
0.0000000000 0.3845611215 0.0000000000
0.0000000000 0.3844462633 0.0000000000
0.0000000000 0.3842753172 0.0000000000
0.0000000000 0.3840470016 0.0000000000
0.0000000000 0.3837425709 0.0000000000
0.0000000000 0.4018359780 0.0000000000
0.0142804682 0.4202979803 0.0000000000
0.1597397625 0.4297735095 0.0000000000
0.2737075090 0.4350858927 0.0000000000
0.3561564088 0.4366120100 0.0000000000
0.4077583551 0.4204177260 0.0000000000
0.4497375488 0.4015465379 0.0000000000
0.5050979853 0.3972098827 0.0000000000
0.5692756176 0.3972421288 0.0000000000
0.6316065192 0.3936394453 0.0000000000
0.6887587309 0.3876352608 0.0000000000
0.7362593412 0.3723730743 0.0000000000
0.7730484009 0.3408389390 0.0000000000
0.7939050794 0.2660708427 0.0000000000
0.7360851765 0.0000000000 0.0000000000
0.6721302271 0.0000000000 0.0088474173
0.7026773691 0.0000000000 0.0105426041
0.7283617258 0.0000000000 0.0114310551
0.7499147058 0.0000000000 0.0123863639
0.7703258991 0.0000000000 0.0155785698
0.7878135443 0.0000000000 0.0207652971
0.8034483790 0.0000000000 0.0254394375
0.8187771440 0.0000000000 0.0305051375
0.8302898407 0.0000000000 0.0350355431
0.8302898407 0.0000000000 0.0350355431
0.0000000000 0.4298561215 0.0000000000
0.0000000000 0.4298363626 0.0000000000
0.0000000000 0.4297751784 0.0000000000
0.0000000000 0.4297140241 0.0000000000
0.0000000000 0.4296329618 0.0000000000
0.0000000000 0.4294919372 0.0000000000
0.0000000000 0.4293298125 0.0000000000
0.0000000000 0.4290853143 0.0000000000
0.0000000000 0.4287608266 0.0000000000
0.0000000000 0.4577181637 0.0000000000
0.0778013542 0.4754382670 0.0000000000
0.2448468357 0.4846852422 0.0000000000
0.3452377617 0.4889358580 0.0000000000
0.4156704545 0.4813681543 0.0000000000
0.4657155573 0.4638482928 0.0000000000
0.5077111721 0.4452476203 0.0000000000
0.5634683371 0.4407661557 0.0000000000
0.6303701401 0.4433545768 0.0000000000
0.6917390823 0.4444595277 0.0000000000
0.7436190248 0.4397968352 0.0000000000
0.7871218920 0.4259879589 0.0000000000
0.8236700296 0.3989325762 0.0000000000
0.8460787535 0.3338558674 0.0000000000
0.8012831807 0.0291205272 0.0000000000
0.7024660707 0.0000000000 0.0105305267
0.7282384038 0.0000000000 0.0114260409
0.7498206496 0.0000000000 0.0123821553
0.7702419758 0.0000000000 0.0155542484
0.7877547741 0.0000000000 0.0207476877
0.8033779860 0.0000000000 0.0254184436
0.8187365532 0.0000000000 0.0304892957
0.8302898407 0.0000000000 0.0350355431
0.8302898407 0.0000000000 0.0350355431
0.0000000000 0.4776461720 0.0000000000
0.0000000000 0.4776234329 0.0000000000
0.0000000000 0.4775809348 0.0000000000
0.0000000000 0.4775368869 0.0000000000
0.0000000000 0.4774717391 0.0000000000
0.0000000000 0.4773640335 0.0000000000
0.0000000000 0.4772351086 0.0000000000
0.0000000000 0.4770621359 0.0000000000
0.0000000000 0.4768015444 0.0000000000
0.0000000000 0.4764555991 0.0000000000
0.0000000000 0.5159040689 0.0000000000
0.1828550398 0.5342220068 0.0000000000
0.3250983655 0.5420410633 0.0000000000
0.4177029729 0.5431869030 0.0000000000
0.4772613645 0.5278457403 0.0000000000
0.5255804062 0.5100594759 0.0000000000
0.5672972798 0.4923821092 0.0000000000
0.6272157431 0.4907026589 0.0000000000
0.6962483525 0.4966996908 0.0000000000
0.7546943426 0.4982834458 0.0000000000
0.8032706976 0.4943493009 0.0000000000
0.8441551924 0.4818292856 0.0000000000
0.8766514063 0.4577622414 0.0000000000
0.8977919817 0.4040905237 0.0000000000
0.8842156529 0.2313505262 0.0000000000
0.7280526757 0.0000000000 0.0114184618
0.7496806383 0.0000000000 0.0123758921
0.7701339722 0.0000000000 0.0155228991
0.7876604795 0.0000000000 0.0207194742
0.8032927513 0.0000000000 0.0253930017
0.8186564445 0.0000000000 0.0304580405
0.8302898407 0.0000000000 0.0350355431
0.8302898407 0.0000000000 0.0350355431
0.0000000000 0.5274319053 0.0000000000
0.0000000000 0.5274102688 0.0000000000
0.0000000000 0.5273656845 0.0000000000
0.0000000000 0.5273439884 0.0000000000
0.0000000000 0.5272755027 0.0000000000
0.0000000000 0.5272085667 0.0000000000
0.0000000000 0.5271177292 0.0000000000
0.0000000000 0.5269586444 0.0000000000
0.0000000000 0.5267771482 0.0000000000
0.0000000000 0.5265065432 0.0000000000
0.0000000000 0.5261453986 0.0000000000
0.0017102540 0.5765264034 0.0000000000
0.2791602910 0.5936719775 0.0000000000
0.4041385949 0.5996546745 0.0000000000
0.4819706082 0.5904583335 0.0000000000
0.5387036800 0.5751636028 0.0000000000
0.5859684944 0.5588552356 0.0000000000
0.6336204410 0.5441619158 0.0000000000
0.6983900666 0.5469784737 0.0000000000
0.7616555095 0.5535491109 0.0000000000
0.8138902187 0.5544068217 0.0000000000
0.8603376746 0.5498449802 0.0000000000
0.9016402960 0.5400456190 0.0000000000
0.9379311204 0.5185700059 0.0000000000
0.9599786997 0.4739711881 0.0000000000
0.9536915421 0.3573784828 0.0000000000
0.7495054603 0.0000000000 0.0123680597
0.7699790597 0.0000000000 0.0154779945
0.7875422239 0.0000000000 0.0206840821
0.8031658530 0.0000000000 0.0253551416
0.8185620904 0.0000000000 0.0304212086
0.8302898407 0.0000000000 0.0350355431
0.8302898407 0.0000000000 0.0350355431
0.0000000000 0.5749053955 0.0000000000
0.0000000000 0.5748849511 0.0000000000
0.0000000000 0.5748849511 0.0000000000
0.0000000000 0.5748428106 0.0000000000
0.0000000000 0.5748224258 0.0000000000
0.0000000000 0.5747599602 0.0000000000
0.0000000000 0.5746988654 0.0000000000
0.0000000000 0.5745929480 0.0000000000
0.0000000000 0.5744671822 0.0000000000
0.0000000000 0.5742975473 0.0000000000
0.0000000000 0.5740368366 0.0000000000
0.0000000000 0.5736876726 0.0000000000
0.0955194980 0.6349275708 0.0000000000
0.3690386415 0.6488893628 0.0000000000
0.4762544036 0.6476240158 0.0000000000
0.5443385839 0.6350115538 0.0000000000
0.5986163616 0.6217421293 0.0000000000
0.6524804831 0.6091139317 0.0000000000
0.7051572800 0.6001438498 0.0000000000
0.7612508535 0.6010611057 0.0000000000
0.8191713095 0.6079738140 0.0000000000
