apps/lut-action/luts/Red_Helium_5219_FilmLUT.cube
TITLE "Generate by Resolve"
LUT_3D_SIZE 9
0 0 0
0.0902419 0.00350958 0.00350958
0.334478 0.0197147 0.0286107
0.67985 0.0633249 0.0894636
0.934249 0.189883 0.272999
1 0.633341 0.680552
1 0.865858 0.884016
1 0.932967 0.943725
1 0.932937 0.943694
0.00350958 0.0885176 0.00350958
0.0686351 0.0876936 0.00350958
0.362585 0.0589914 0.0261692
0.710872 0.0830701 0.095491
0.949722 0.225101 0.308522
1 0.661128 0.704005
1 0.880293 0.896773
1 0.932158 0.942977
1 0.931884 0.942733
0.00350958 0.338735 0.00483711
0.00402838 0.346731 0.00480659
0.312261 0.338567 0.00454719
0.71284 0.292729 0.0678264
0.958282 0.339971 0.317082
1 0.689967 0.722911
1 0.893996 0.908537
1 0.929213 0.940108
1 0.92842 0.939284
0.00404364 0.635248 0.0171359
0.00445563 0.643214 0.0180209
0.0615244 0.647028 0.0171817
0.608011 0.634424 0.0186923
0.941344 0.604898 0.230274
1 0.728298 0.718288
1 0.897566 0.908553
1 0.923079 0.932586
1 0.922332 0.931151
0.0158236 0.865812 0.104616
0.0185397 0.870893 0.110658
0.0381476 0.873426 0.113115
0.408469 0.868818 0.108415
0.841291 0.856397 0.141604
1 0.842145 0.669673
1 0.90898 0.896559
1 0.923781 0.915206
1 0.926604 0.911665
0.26154 0.99321 0.597009
0.267231 0.993317 0.597757
0.295842 0.992676 0.594522
0.456504 0.9906 0.585382
0.760739 0.986603 0.581201
0.971206 0.97879 0.641382
1 0.969696 0.865568
1 0.97351 0.868223
1 0.979721 0.862776
0.702266 1 0.813825
0.702907 1 0.813825
0.706844 1 0.813748
0.726284 1 0.813428
0.8056 1 0.810468
0.944686 1 0.814084
1 1 0.834211
1 1 0.834211
1 1 0.834226
0.702327 1 0.81387
0.70341 1 0.81384
0.70927 1 0.813733
0.735363 1 0.813291
0.831006 1 0.81181
0.960891 1 0.816175
1 1 0.834226
1 1 0.834226
1 1 0.834241
0.70251 1 0.813947
0.704494 1 0.813916
0.714275 1 0.813733
0.753307 1 0.813062
0.872282 1 0.811627
0.981414 1 0.821164
1 1 0.834257
1 1 0.834272
1 1 0.834272
0.00350958 0.00350958 0.076936
0.0888838 0.00350958 0.0779126
0.33695 0.0167239 0.0641184
0.682231 0.0619821 0.104555
0.93547 0.18996 0.283101
1 0.635309 0.682811
1 0.86685 0.884947
1 0.932311 0.94316
1 0.932052 0.942931
0.00350958 0.074876 0.0721904
0.0648814 0.070222 0.0712291
0.366293 0.0499886 0.0696117
0.712749 0.0809644 0.113954
0.950591 0.225834 0.320241
1 0.662684 0.705913
1 0.881376 0.89778
1 0.931655 0.94255
1 0.93109 0.942061
0.00350958 0.33872 0.0124361
0.00392157 0.346548 0.0121157
0.315145 0.338689 0.00900282
0.713939 0.293172 0.0832532
0.959396 0.342123 0.330037
1 0.692012 0.725261
1 0.895033 0.909483
1 0.928405 0.939391
1 0.92726 0.938277
0.00402838 0.637766 0.0230411
0.00445563 0.646479 0.0247501
0.0638437 0.649088 0.0237736
0.611505 0.636759 0.0252842
0.941726 0.607782 0.242176
1 0.72961 0.719768
1 0.897414 0.908415
1 0.922164 0.931716
1 0.921202 0.930098
0.0162356 0.867811 0.11371
0.0189212 0.872541 0.120027
0.038941 0.874479 0.122301
0.412055 0.869749 0.117342
0.841794 0.856825 0.151705
1 0.841764 0.667796
1 0.90782 0.894972
1 0.922972 0.914199
1 0.925643 0.910506
0.263249 0.993362 0.599939
0.26772 0.993347 0.599939
0.294865 0.992538 0.595773
0.455894 0.990341 0.586084
0.759915 0.986206 0.581109
0.970733 0.978286 0.640436
1 0.9691 0.862501
1 0.972824 0.867079
1 0.979004 0.86157
0.702235 1 0.81416
0.702876 1 0.814145
0.706783 1 0.814069
0.726146 1 0.813718
0.803525 1 0.808835
0.943511 1 0.812436
1 1 0.83444
1 1 0.83447
1 1 0.834531
0.702266 1 0.814435
0.703334 1 0.814389
0.709102 1 0.814237
0.73492 1 0.813764
0.828779 1 0.812268
0.959075 1 0.816312
1 1 0.834562
1 1 0.834592
1 1 0.834653
0.702388 1 0.815
0.704341 1 0.814893
0.713939 1 0.814649
0.751965 1 0.813886
0.868528 1 0.81236
0.979355 1 0.821118
1 1 0.83476
1 1 0.834775
1 1 0.834836
0.0167849 0.00492866 0.29192
0.0603799 0.00483711 0.300725
0.334234 0.00466926 0.300465
0.678813 0.0454414 0.284886
0.934218 0.176471 0.358282
1 0.631846 0.685771
1 0.865812 0.884474
1 0.930373 0.941588
1 0.929717 0.941054
0.0113985 0.014023 0.321126
0.0519417 0.0139162 0.329961
0.362585 0.0114137 0.330236
0.708125 0.0585946 0.31548
0.948531 0.208072 0.395377
1 0.659175 0.708827
1 0.88014 0.897139
1 0.928954 0.940352
1 0.9281 0.939651
0.00350958 0.305486 0.30309
0.00366217 0.312871 0.31104
0.308003 0.302861 0.310857
0.707195 0.255619 0.300542
0.956847 0.322667 0.410056
1 0.688609 0.728237
1 0.893599 0.90866
1 0.925307 0.936889
1 0.923629 0.935393
0.00384527 0.63061 0.173037
0.0041352 0.639261 0.184756
0.0557412 0.642176 0.18732
0.611566 0.629114 0.180682
0.937804 0.603082 0.341985
1 0.725673 0.721035
1 0.895003 0.906615
1 0.919005 0.929061
1 0.917494 0.927016
0.0157168 0.867796 0.188602
0.018143 0.871672 0.200946
0.0378424 0.87335 0.20705
0.410956 0.867857 0.199054
0.84126 0.855146 0.2448
1 0.840574 0.667933
1 0.904723 0.890974
1 0.920317 0.911192
1 0.922759 0.906691
0.262776 0.99324 0.612604
0.265629 0.993042 0.611917
0.292241 0.992157 0.607828
0.45391 0.989761 0.597772
0.758373 0.985473 0.592081
0.969848 0.977539 0.645853
1 0.968292 0.856458
1 0.971923 0.863218
1 0.97818 0.857816
0.702007 1 0.81622
0.702647 1 0.816144
0.706538 1 0.816007
0.724071 1 0.814267
0.8009 1 0.808545
0.942046 1 0.811887
1 1 0.835782
1 1 0.836027
1 1 0.836332
0.701915 1 0.817639
0.702983 1 0.817426
0.708675 1 0.81709
0.734173 1 0.816403
0.826261 1 0.814847
0.95697 1 0.818387
1 1 0.836423
1 1 0.836606
1 1 0.836942
0.701778 1 0.820462
0.703731 1 0.82002
0.713176 1 0.819379
0.75021 1 0.818158
0.864149 1 0.816281
0.977111 1 0.823743
1 1 0.837476
1 1 0.837507
1 1 0.83769
0.0417334 0.00868238 0.592874
0.0564431 0.00859083 0.601404
0.308965 0.00709544 0.604501
0.648936 0.00956741 0.597528
0.923064 0.116243 0.578912
1 0.607996 0.706157
1 0.858457 0.881407
1 0.924254 0.93724
1 0.922942 0.936522
0.0379644 0.0122683 0.62153
0.0550851 0.0122683 0.62974
0.337163 0.00970474 0.633677
0.676799 0.0126955 0.626245
0.937407 0.135988 0.608347
1 0.635874 0.728954
1 0.873075 0.894163
1 0.922484 0.936049
1 0.920577 0.934951
0.0100557 0.153735 0.629892
0.0159152 0.157839 0.637629
0.266743 0.132082 0.640696
0.676722 0.0985122 0.635447
0.945205 0.216876 0.627512
1 0.666621 0.748501
1 0.886137 0.905333
1 0.91783 0.932219
1 0.915434 0.930861
0.00357061 0.592371 0.590005
0.00364691 0.601312 0.599023
0.030396 0.603174 0.604608
0.600687 0.588632 0.601114
0.922698 0.567666 0.605463
1 0.707271 0.744427
1 0.886229 0.902159
1 0.911025 0.924239
1 0.909224 0.922606
0.0115816 0.858366 0.535439
0.0134432 0.862394 0.544045
0.0296941 0.863554 0.547799
0.391836 0.857404 0.541955
0.837537 0.844038 0.543572
1 0.83418 0.700404
1 0.897688 0.885695
1 0.91397 0.906325
1 0.916655 0.902464
0.252537 0.99173 0.667872
0.253529 0.991333 0.667582
0.278401 0.99028 0.664897
0.4439 0.987747 0.657221
0.75436 0.983246 0.651408
0.968551 0.975204 0.685939
1 0.966796 0.850874
1 0.970413 0.860243
1 0.976684 0.856199
0.700801 1 0.826749
0.701457 1 0.826505
0.705364 1 0.826078
0.719615 1 0.82208
0.797086 1 0.816373
0.940169 1 0.818998
1 1 0.842145
1 1 0.843961
1 1 0.845273
0.700114 1 0.832929
0.701274 1 0.831937
0.706966 1 0.830823
0.732372 1 0.829221
0.822843 1 0.827283
0.954314 1 0.829587
1 1 0.845701
1 1 0.846433
1 1 0.847761
0.698741 1 0.844816
0.700893 1 0.842786
0.71043 1 0.840345
0.747021 1 0.837003
0.858686 1 0.833677
0.974258 1 0.838026
1 1 0.84976
1 1 0.849867
1 1 0.850446
0.0501106 0.00943008 0.842741
0.055848 0.00927749 0.847364
0.202502 0.00816358 0.850965
0.646754 0.00669871 0.84831
0.885252 0.0207218 0.837385
1 0.512703 0.816754
1 0.839796 0.890623
1 0.910399 0.935073
1 0.906462 0.937011
0.0464179 0.0102541 0.863203
0.0531014 0.0100404 0.868162
0.243946 0.00863661 0.870787
0.678447 0.0071107 0.867399
0.90338 0.0259556 0.855497
1 0.547585 0.834607
1 0.855344 0.903197
1 0.906935 0.935729
1 0.901335 0.938582
0.0207065 0.0384833 0.870695
0.0239261 0.038941 0.875578
0.146838 0.034699 0.878172
0.66627 0.0286717 0.876234
0.91249 0.0532845 0.868955
1 0.582528 0.85359
1 0.868147 0.914626
1 0.900084 0.934783
1 0.893767 0.938491
0.00553903 0.480415 0.85803
0.00643931 0.489815 0.862837
0.0390784 0.485191 0.865995
0.571115 0.457923 0.86424
0.893111 0.435279 0.860151
1 0.641962 0.856321
1 0.866636 0.912657
1 0.89305 0.929427
1 0.888197 0.932601
0.00511177 0.831144 0.831495
0.00541695 0.835019 0.835508
0.01178 0.83566 0.836378
0.316045 0.827604 0.831815
0.827695 0.812818 0.825071
1 0.809323 0.834134
1 0.882567 0.90013
1 0.900145 0.915923
1 0.902159 0.917632
0.212833 0.985779 0.822324
0.213031 0.985214 0.821241
0.233936 0.983917 0.818463
0.408957 0.981109 0.8121
0.74548 0.976226 0.805554
0.96585 0.968444 0.810666
1 0.962966 0.873899
1 0.966506 0.882536
1 0.972732 0.885145
0.693446 1 0.876966
0.69456 1 0.874479
0.699092 1 0.871443
0.712749 1 0.865766
0.792111 1 0.860304
0.938033 1 0.859831
1 1 0.87361
1 1 0.877333
1 1 0.882795
0.689418 1 0.897566
0.691508 1 0.892744
0.698405 1 0.887343
0.725628 1 0.881285
0.817578 1 0.876341
0.951568 1 0.874784
1 1 0.882795
1 1 0.884291
1 1 0.888228
0.681544 1 0.927459
0.685405 1 0.921462
0.69723 1 0.914488
0.736934 1 0.905455
0.85127 1 0.896635
0.970657 1 0.89247
1 1 0.89514
1 1 0.894179
1 1 0.895186
0.0158846 0.00416571 1
0.016144 0.00411994 1
0.0320134 0.00401312 1
0.670268 0.00376898 0.999527
0.934676 0.00373846 1
1 0.0794537 0.984009
1 0.772091 0.962448
1 0.869154 0.97023
1 0.857557 0.980179
0.0119631 0.0039826 1
0.0122377 0.00393683 1
0.0287327 0.00384527 1
0.739422 0.00364691 1
0.954879 0.0037232 1
1 0.0833448 0.990784
1 0.792569 0.969833
1 0.859831 0.976928
1 0.84535 0.987427
0.00639353 0.00437934 1
0.00636301 0.0043183 1
0.0166476 0.00416571 1
0.745403 0.00376898 1
0.960967 0.00404364 1
1 0.109255 0.996612
1 0.807828 0.976928
1 0.845823 0.983108
1 0.83006 0.992645
0.00350958 0.155474 1
0.00350958 0.16495 1
0.00363165 0.154177 1
0.386221 0.0937057 0.999863
0.896513 0.0881056 0.998123
1 0.262135 0.994079
1 0.80473 0.978195
1 0.837263 0.982712
1 0.824826 0.990997
0.00354009 0.78648 0.993423
0.00364691 0.790463 0.993515
0.00575265 0.782757 0.992309
0.127031 0.763317 0.989654
0.809415 0.738582 0.985748
0.996368 0.735515 0.980575
1 0.83624 0.974334
1 0.857664 0.97821
1 0.858778 0.984802
0.106783 0.971756 0.970245
0.105989 0.971054 0.969589
0.11873 0.969284 0.968322
0.257725 0.965621 0.965423
0.719783 0.959655 0.961501
0.95993 0.951278 0.957961
1 0.949371 0.959518
1 0.953292 0.963058
1 0.960021 0.968704
0.662974 1 0.966506
0.665415 1 0.964019
0.672175 1 0.960937
0.691386 1 0.956741
0.779248 1 0.953033
0.933944 1 0.950179
1 1 0.951202
1 1 0.954269
1 1 0.960418
0.651118 1 0.981155
0.655451 1 0.977798
0.665919 1 0.973907
0.700374 1 0.968887
0.804471 1 0.964096
0.947311 1 0.960281
1 1 0.959625
1 1 0.96083
1 1 0.964767
0.626444 1 0.998291
0.635203 1 0.994995
0.654582 1 0.990982
0.706538 1 0.985412
0.837476 1 0.979629
0.965957 1 0.973877
1 1 0.970855
1 1 0.969329
1 1 0.969879
0.00350958 0.00350958 1
0.00350958 0.00350958 1
0.00361639 0.00350958 1
0.0170443 0.00350958 1
1 0.00350958 1
1 0.00350958 1
1 0.267308 1
1 0.721126 1
1 0.486915 1
0.00350958 0.00350958 1
0.00350958 0.00350958 1
0.00352483 0.00350958 1
0.0207523 0.00350958 1
1 0.00350958 1
1 0.00352483 1
1 0.314092 1
1 0.589761 1
1 0.333715 1
0.00350958 0.00350958 1
0.00350958 0.00350958 1
0.00350958 0.00350958 1
0.0190127 0.00350958 1
1 0.00350958 1
1 0.00352483 1
1 0.321248 1
1 0.416968 1
1 0.361959 1
0.00350958 0.00350958 1
0.00350958 0.00350958 1
0.00350958 0.00350958 1
0.00581369 0.00350958 1
1 0.00350958 1
1 0.0157015 1
1 0.440101 1
1 0.528267 1
1 0.500374 1
0.00350958 0.84918 1
0.00350958 0.853895 1
0.00350958 0.845304 1
0.00350958 0.767636 1
0.76434 0.575387 1
0.997208 0.585519 1
1 0.717983 1
1 0.747234 1
1 0.763256 1
0.0236515 0.960586 1
0.0232853 0.959564 1
0.0272221 0.957427 1
0.0743267 0.951629 1
0.648447 0.942138 1
0.955261 0.931441 1
1 0.93022 1
1 0.93492 1
1 0.945602 1
0.603006 1 1
0.604212 1 1
0.611231 1 1
0.640284 1 1
0.751232 1 1
0.928283 0.999756 1
1 0.99939 1
1 1 1
1 1 1
0.603128 1 1
0.605005 1 1
0.614832 1 1
0.656901 1 1
0.784329 1 1
0.942977 1 1
1 1 1
1 1 1
1 1 1
0.603418 1 1
0.606699 1 1
0.622217 1 1
0.678614 1 1
0.825101 1 1
0.962585 1 1
1 1 1
1 1 1
1 1 1
0.00350958 0.00350958 1
0.00350958 0.00350958 1
0.00350958 0.00350958 1
0.00350958 0.00350958 1
0.994186 0.00350958 1
1 0.00350958 1
1 0.0896773 1
1 0.330312 1
1 0.330388 1
0.00350958 0.00350958 1
0.00350958 0.00350958 1
0.00350958 0.00350958 1
0.00350958 0.00350958 1
1 0.00350958 1
1 0.00350958 1
1 0.154955 1
1 0.332784 1
1 0.334142 1
0.00350958 0.00350958 1
0.00350958 0.00350958 1
0.00350958 0.00350958 1
0.00350958 0.00350958 1
1 0.00350958 1
1 0.00350958 1
1 0.253437 1
1 0.356252 1
1 0.364126 1
0.00350958 0.00350958 1
0.00350958 0.00350958 1
0.00350958 0.00350958 1
0.00350958 0.00350958 1
1 0.00350958 1
1 0.00350958 1
1 0.370871 1
1 0.482444 1
1 0.507332 1
0.00350958 0.886244 1
0.00350958 0.88893 1
0.00350958 0.880934 1
0.00350958 0.814771 1
0.744869 0.480201 1
0.998291 0.534325 1
1 0.706615 1
1 0.740368 1
1 0.769833 1
0.0270542 0.962982 1
0.0249943 0.961639 1
0.0260624 0.95906 1
0.0635691 0.952926 1
0.642084 0.942443 1
0.956161 0.931945 1
1 0.931105 1
1 0.936996 1
1 0.947616 1
0.603021 1 1
0.604303 1 1
0.611673 1 1
0.64567 1 1
0.757351 1 1
0.930327 0.999847 1
1 0.999954 1
1 1 1
1 1 1
0.603143 1 1
0.605112 1 1
0.615366 1 1
0.65864 1 1
0.787137 1 1
0.944305 1 1
1 1 1
1 1 1
1 1 1
0.603449 1 1
0.606836 1 1
0.622766 1 1
0.679942 1 1
0.825879 1 1
0.962463 1 1
1 1 1
1 1 1
1 1 1
0.00350958 0.00350958 1
0.00350958 0.00350958 1
0.00350958 0.00350958 1
0.00350958 0.00350958 1
1 0.00350958 1
1 0.00350958 1
1 0.123507 1
1 0.330327 1
1 0.330419 1
0.00350958 0.00350958 1
0.00350958 0.00350958 1
0.00350958 0.00350958 1
0.00350958 0.00350958 1
1 0.00350958 1
1 0.00350958 1
1 0.197848 1
1 0.333196 1
1 0.334646 1
0.00350958 0.00350958 1
0.00350958 0.00350958 1
0.00350958 0.00350958 1
0.00370794 0.00350958 1
1 0.00350958 1
1 0.00350958 1
1 0.312078 1
1 0.35906 1
1 0.367636 1
0.00350958 0.00350958 1
0.00350958 0.00350958 1
0.00350958 0.00350958 1
0.00350958 0.00350958 1
1 0.00350958 1
1 0.00350958 1
1 0.427497 1
1 0.491218 1
1 0.517143 1
0.00350958 0.899901 1
0.00350958 0.901534 1
0.00350958 0.89279 1
0.00350958 0.823819 1
0.768612 0.538628 1
0.999878 0.584421 1
1 0.725338 1
1 0.750866 1
1 0.77911 1
0.0356603 0.966705 1
0.0335699 0.96527 1
0.0353857 0.962539 1
0.0784314 0.956573 1
0.66334 0.946807 1
0.958877 0.93637 1
1 0.935073 1
1 0.940841 1
1 0.950668 1
0.603037 1 1
0.604425 1 1
0.612284 1 1
0.647974 1 1
0.766201 1 1
0.933883 1 1
1 1 1
1 1 1
1 1 1
0.603174 1 1
0.605264 1 1
0.616175 1 1
0.661219 1 1
0.792233 1 1
0.947234 1 1
1 1 1
1 1 1
1 1 1
0.603479 1 1
0.607034 1 1
0.623636 1 1
0.682322 1 1
0.829099 1 1
0.963729 1 1
1 1 1
1 1 1
1 1 1
