apps/lut-action/luts/Red_Helium_5219_FilmLUT.cube
TITLE "Generate by Resolve"
LUT_3D_SIZE 33
0 0 0
0 0 0
0.0138399 0.00251774 0.00251774
0.0534371 0.00350958 0.00350958
0.0902419 0.00350958 0.00350958
0.132845 0.00395209 0.0043183
0.187869 0.00634775 0.00874342
0.25568 0.0121462 0.0178378
0.334478 0.0197147 0.0286107
0.414969 0.0277409 0.0398108
0.504753 0.0375067 0.0534676
0.597391 0.049485 0.070161
0.67985 0.0633249 0.0894636
0.751003 0.0795758 0.112169
0.819303 0.102708 0.144823
0.882383 0.137804 0.195438
0.934249 0.189883 0.272999
0.975387 0.282887 0.383459
0.999405 0.421851 0.501427
1 0.539223 0.600015
1 0.633341 0.680552
1 0.707576 0.744915
1 0.769528 0.799054
1 0.821714 0.844968
1 0.865858 0.884016
1 0.9019 0.916045
1 0.931319 0.94226
1 0.932967 0.943725
1 0.932967 0.943725
1 0.932967 0.943725
1 0.932967 0.943725
1 0.932967 0.943725
1 0.932937 0.943694
0 0 0
0 0 0
0.0011902 0.000198367 0.000198367
0.0518349 0.00300603 0.00300603
0.0903639 0.00350958 0.00350958
0.136477 0.00469978 0.00421149
0.192782 0.00865187 0.00857557
0.262119 0.0155642 0.0181125
0.341985 0.0230716 0.0289769
0.425177 0.0310826 0.0407416
0.515877 0.0408331 0.0549325
0.607019 0.0527047 0.0719921
0.688304 0.0665904 0.0917678
0.758953 0.0832227 0.115389
0.826795 0.107164 0.149554
0.888289 0.142901 0.20148
0.939132 0.196414 0.281559
0.978836 0.296818 0.395193
1 0.434867 0.511925
1 0.549004 0.608194
1 0.640879 0.687022
1 0.714763 0.751141
1 0.775509 0.804288
1 0.82652 0.84921
1 0.869718 0.887434
1 0.905272 0.919036
1 0.932967 0.943725
1 0.932967 0.943725
1 0.932967 0.943725
1 0.932967 0.943725
1 0.932937 0.943694
1 0.932815 0.943587
1 0.932708 0.943496
0 3.0518e-05 0
0 3.0518e-05 0
0 1.5259e-05 0
0.0481117 0.00500496 0.00340276
0.0886549 0.00660716 0.00350958
0.138064 0.00939956 0.00407416
0.19762 0.0150912 0.00828565
0.269856 0.0216068 0.0181125
0.350896 0.028275 0.029221
0.434562 0.0356603 0.0413214
0.5252 0.0449378 0.0558785
0.615778 0.0565042 0.0734112
0.697063 0.0704814 0.0939498
0.766323 0.0871748 0.118181
0.833066 0.111437 0.153307
0.894087 0.148211 0.207202
0.943313 0.205768 0.292027
0.981628 0.308461 0.404654
1 0.444968 0.519997
1 0.559045 0.616541
1 0.648539 0.693568
1 0.720836 0.75639
1 0.78024 0.808423
1 0.831693 0.853758
1 0.873823 0.891066
1 0.908553 0.92195
1 0.932738 0.943526
1 0.932692 0.943481
1 0.932631 0.943435
1 0.93257 0.943374
1 0.932555 0.943358
1 0.932555 0.943358
1 0.93257 0.943358
0.00350958 0.0519722 0.00350958
0.00350958 0.0516365 0.00350958
0.00518807 0.0504921 0.00350958
0.0305333 0.0483101 0.00350958
0.0851301 0.0432136 0.00352483
0.139849 0.0341344 0.00411994
0.202823 0.0322728 0.0080415
0.276051 0.0326543 0.0172732
0.35758 0.0364233 0.0285801
0.443397 0.0423743 0.0413062
0.534493 0.05066 0.0563821
0.624216 0.0615091 0.0743572
0.70428 0.0750439 0.0953231
0.772778 0.0917067 0.120287
0.839673 0.116594 0.157031
0.89929 0.153719 0.212085
0.946578 0.214496 0.300649
0.984314 0.319997 0.413626
1 0.455848 0.528527
1 0.567086 0.623133
1 0.654505 0.698589
1 0.72636 0.761135
1 0.785458 0.81297
1 0.835386 0.856992
1 0.876982 0.893858
1 0.911818 0.924849
1 0.93257 0.943358
1 0.93257 0.943358
1 0.93257 0.943358
1 0.93254 0.943343
1 0.932479 0.943282
1 0.932403 0.943221
1 0.932326 0.943145
0.00350958 0.0885176 0.00350958
0.00350958 0.0891585 0.00350958
0.00354009 0.0893263 0.00350958
0.0141756 0.089189 0.00350958
0.0686351 0.0876936 0.00350958
0.136217 0.082475 0.00393683
0.203189 0.0728161 0.0068513
0.279149 0.0633707 0.014786
0.362585 0.0589914 0.0261692
0.449256 0.057557 0.0393225
0.541314 0.0619669 0.0551308
0.630869 0.0707561 0.0737163
0.710872 0.0830701 0.095491
0.778637 0.0990005 0.121248
0.84448 0.12343 0.158755
0.903243 0.161349 0.216251
0.949722 0.225101 0.308522
0.986664 0.332006 0.421302
1 0.464744 0.534676
1 0.57409 0.628534
1 0.661128 0.704005
1 0.730861 0.764904
1 0.789212 0.816175
1 0.838712 0.859892
1 0.880293 0.896773
1 0.914168 0.926925
1 0.932265 0.943084
1 0.932204 0.943038
1 0.932158 0.942977
1 0.932097 0.942931
1 0.932021 0.94287
1 0.93196 0.942809
1 0.931884 0.942733
0.00350958 0.135592 0.00352483
0.00350958 0.137209 0.00352483
0.00350958 0.138415 0.00352483
0.00527962 0.138949 0.00352483
0.0373083 0.138567 0.00352483
0.11664 0.136233 0.00361639
0.195941 0.131228 0.00497444
0.276326 0.122133 0.0103456
0.362402 0.110567 0.0206149
0.452186 0.0989548 0.0343328
0.545953 0.0917525 0.0509651
0.63534 0.0915236 0.0703899
0.715373 0.0992599 0.0931106
0.783475 0.112993 0.120027
0.849546 0.135897 0.159121
0.906737 0.174777 0.220691
0.952422 0.239063 0.314473
0.98912 0.347311 0.428962
1 0.476631 0.542138
1 0.582757 0.63476
1 0.667491 0.708888
1 0.735958 0.769039
1 0.794476 0.82063
1 0.842603 0.863249
1 0.883879 0.899916
1 0.917098 0.929534
1 0.931823 0.942672
1 0.931762 0.942626
1 0.931716 0.942565
1 0.931655 0.942504
1 0.931594 0.942443
1 0.931517 0.942382
1 0.931456 0.942321
0.00350958 0.193271 0.00369268
0.00350958 0.195163 0.00370794
0.00350958 0.196689 0.00370794
0.00369268 0.197742 0.0037232
0.0180362 0.198718 0.00369268
0.0800793 0.197559 0.00363165
0.173587 0.193973 0.00389105
0.263218 0.188586 0.00611887
0.355169 0.180789 0.0132906
0.449271 0.168353 0.0261387
0.545449 0.15259 0.0434119
0.636454 0.138949 0.0637675
0.717968 0.133883 0.0876326
0.786542 0.139483 0.115831
0.852415 0.158038 0.156741
0.90901 0.195377 0.221439
0.954833 0.259632 0.318547
0.989975 0.365545 0.434226
1 0.488441 0.547646
1 0.590448 0.639216
1 0.674784 0.714168
1 0.74165 0.773449
1 0.798917 0.824247
1 0.846464 0.866514
1 0.887678 0.903212
1 0.920027 0.932097
1 0.931395 0.94226
1 0.931289 0.942153
1 0.931167 0.942031
1 0.931044 0.941924
1 0.930907 0.941802
1 0.93077 0.941665
1 0.930617 0.941527
0.00350958 0.261402 0.0041352
0.00350958 0.263722 0.00415045
0.00350958 0.266194 0.00415045
0.00361639 0.267918 0.00415045
0.00485237 0.268162 0.00410468
0.0377966 0.268025 0.00402838
0.13196 0.266224 0.00392157
0.238346 0.262592 0.00418097
0.339391 0.255818 0.00717174
0.439353 0.246509 0.0168002
0.541466 0.232883 0.0335546
0.634394 0.216785 0.0542
0.717983 0.201602 0.079118
0.787198 0.192691 0.108248
0.85391 0.199939 0.152438
0.910903 0.230167 0.219287
0.956725 0.290761 0.319768
0.990631 0.390097 0.438544
1 0.504677 0.554467
1 0.601495 0.645258
1 0.68217 0.718898
1 0.747738 0.777905
1 0.804288 0.828534
1 0.851164 0.870436
1 0.891096 0.906142
1 0.92282 0.934524
1 0.93051 0.941405
1 0.930404 0.941299
1 0.930297 0.941192
1 0.930175 0.94107
1 0.930037 0.940932
1 0.929915 0.94081
1 0.929732 0.940627
0.00350958 0.338735 0.00483711
0.00350958 0.340963 0.00485237
0.00357061 0.343099 0.00485237
0.00364691 0.344518 0.00483711
0.00402838 0.346731 0.00480659
0.0100099 0.346593 0.00469978
0.0697642 0.345739 0.00454719
0.191714 0.343114 0.00434882
0.312261 0.338567 0.00454719
0.420111 0.331777 0.00831617
0.52903 0.321202 0.0219883
0.62649 0.306996 0.042237
0.71284 0.292729 0.0678264
0.783978 0.28069 0.0977646
0.852064 0.276448 0.142672
0.910979 0.29221 0.211109
0.958282 0.339971 0.317082
0.991455 0.421408 0.440894
1 0.521462 0.557641
1 0.61236 0.649165
1 0.689967 0.722911
1 0.75407 0.78204
1 0.808652 0.831647
1 0.854963 0.873442
1 0.893996 0.908537
1 0.925444 0.936767
1 0.929549 0.940444
1 0.929381 0.940276
1 0.929213 0.940108
1 0.929046 0.939925
1 0.928862 0.939757
1 0.928664 0.939544
1 0.92842 0.939284
0.00360113 0.416281 0.0059205
0.00361639 0.419074 0.00596628
0.00364691 0.42179 0.0059968
0.00369268 0.423011 0.00598154
0.00392157 0.424857 0.00593576
0.0053254 0.425147 0.00579843
0.0229953 0.425498 0.00561532
0.128603 0.423896 0.00534066
0.267063 0.420829 0.00505074
0.389609 0.415793 0.00495918
0.503182 0.409033 0.0108797
0.612055 0.39762 0.0296483
0.702113 0.385489 0.0541848
0.776928 0.373556 0.084184
0.848325 0.366186 0.129259
0.909575 0.37026 0.197604
0.957595 0.397223 0.305303
0.992096 0.458061 0.437659
1 0.543099 0.558968
1 0.625727 0.652522
1 0.697383 0.725002
1 0.759167 0.784329
1 0.81265 0.833997
1 0.858381 0.875883
1 0.895994 0.909987
1 0.927108 0.938094
1 0.928267 0.939116
1 0.92813 0.938964
1 0.927977 0.938796
1 0.92781 0.938613
1 0.92755 0.938354
1 0.927245 0.938018
1 0.926925 0.937682
0.00370794 0.493629 0.00787366
0.00370794 0.495857 0.00791943
0.00370794 0.49778 0.00794995
0.00376898 0.499596 0.00798047
0.00396735 0.502358 0.00796521
0.00466926 0.502998 0.00779736
0.00907912 0.50338 0.00753796
0.0426337 0.502846 0.007187
0.197314 0.50164 0.00683604
0.343038 0.4981 0.00642405
0.46453 0.492882 0.00717174
0.576684 0.484947 0.0167391
0.680858 0.475212 0.0388342
0.762814 0.464866 0.0674449
0.839216 0.454749 0.110918
0.904265 0.450645 0.176532
0.954314 0.463981 0.285069
0.991562 0.502708 0.427756
1 0.567651 0.554238
1 0.638956 0.651301
1 0.705577 0.725277
1 0.76405 0.785016
1 0.815381 0.83447
1 0.859419 0.875731
1 0.897185 0.910506
1 0.927047 0.937743
1 0.926863 0.937545
1 0.92668 0.937346
1 0.926482 0.937118
1 0.926238 0.936843
1 0.925933 0.936507
1 0.925628 0.936141
1 0.925322 0.93576
0.00381476 0.566247 0.0114137
0.00381476 0.568383 0.0115206
0.00384527 0.571221 0.0116732
0.00392157 0.57348 0.0117647
0.00411994 0.575036 0.0117952
0.00476081 0.576181 0.0117037
0.00791943 0.577646 0.0115358
0.026276 0.577707 0.0111391
0.104799 0.576562 0.0105898
0.271824 0.574334 0.00999466
0.420035 0.571191 0.00947585
0.539101 0.566018 0.0117342
0.646586 0.558633 0.0248264
0.740108 0.549477 0.0502632
0.826505 0.539544 0.0915999
0.897124 0.531731 0.153246
0.949081 0.533852 0.260243
0.989273 0.553704 0.411856
1 0.600137 0.547127
1 0.656931 0.647272
1 0.715114 0.72314
1 0.768872 0.783307
1 0.818326 0.83389
1 0.861006 0.875456
1 0.897505 0.909895
1 0.925292 0.935699
1 0.925093 0.935439
1 0.92488 0.93518
1 0.924666 0.93492
1 0.924453 0.93463
1 0.924224 0.934295
1 0.92401 0.933974
1 0.923766 0.933608
0.00404364 0.635248 0.0171359
0.00407416 0.637507 0.0174258
0.0041352 0.639521 0.0176699
0.00421149 0.641688 0.0179141
0.00445563 0.643214 0.0180209
0.00511177 0.64506 0.0180819
0.00749218 0.646052 0.0179294
0.0175021 0.646693 0.0176242
0.0615244 0.647028 0.0171817
0.185718 0.645808 0.0165408
0.357671 0.642878 0.0157931
0.496757 0.638987 0.0152743
0.608011 0.634424 0.0186923
0.704845 0.627512 0.0343633
0.805203 0.618311 0.0712902
0.883711 0.608652 0.130297
0.941344 0.604898 0.230274
0.985473 0.610666 0.388525
1 0.638086 0.532692
1 0.679545 0.638773
1 0.728298 0.718288
1 0.776013 0.780209
1 0.821195 0.831418
1 0.861738 0.873365
1 0.897566 0.908553
1 0.923583 0.933333
1 0.92343 0.933104
1 0.923262 0.93286
1 0.923079 0.932586
1 0.922942 0.932296
1 0.922774 0.931975
1 0.922576 0.931594
1 0.922332 0.931151
0.00447089 0.69543 0.025391
0.00453193 0.697307 0.0257572
0.00462348 0.699733 0.0262303
0.00474556 0.701518 0.0265507
0.00505074 0.703151 0.0267796
0.00576791 0.704753 0.0269322
0.00791943 0.705821 0.0268864
0.0150149 0.706661 0.0266728
0.0380407 0.706935 0.0262608
0.119829 0.706111 0.0255894
0.284474 0.704799 0.0249027
0.450202 0.701915 0.0242618
0.573602 0.697902 0.0241245
0.669078 0.693446 0.0284123
0.771954 0.686625 0.0513619
0.866667 0.676371 0.110307
0.931167 0.669291 0.200031
0.979538 0.667033 0.357809
0.99968 0.680446 0.517311
1 0.708339 0.628489
1 0.744854 0.712016
1 0.785199 0.775662
1 0.825727 0.828412
1 0.863783 0.871275
1 0.897841 0.906752
1 0.922332 0.930983
1 0.92221 0.930724
1 0.922057 0.930419
1 0.921889 0.930022
1 0.921706 0.92958
1 0.921508 0.929061
1 0.921309 0.928542
1 0.92108 0.927962
0.00552377 0.756207 0.0393835
0.00561532 0.758251 0.0400092
0.00573739 0.760098 0.0405585
0.00595102 0.761898 0.0410773
0.00640879 0.763943 0.0416114
0.00735485 0.765316 0.041886
0.00967422 0.766629 0.0420386
0.0153506 0.767468 0.0419318
0.0294499 0.768078 0.0416419
0.0700084 0.767956 0.0410468
0.198199 0.766461 0.0401007
0.385489 0.764172 0.0392004
0.530175 0.761669 0.0388952
0.635248 0.758419 0.0395666
0.732021 0.753933 0.045655
0.831006 0.745769 0.0861067
0.914626 0.736873 0.169162
0.96968 0.730694 0.317052
0.998749 0.732616 0.491341
1 0.746944 0.611353
1 0.770855 0.701946
1 0.801053 0.768399
1 0.833967 0.823407
1 0.867338 0.867292
1 0.898985 0.90399
1 0.921126 0.927489
1 0.921065 0.927092
1 0.920974 0.92665
1 0.920897 0.926162
1 0.920821 0.925628
1 0.920745 0.925109
1 0.920699 0.924544
1 0.920653 0.923919
0.00813306 0.814343 0.0626383
0.00834669 0.816464 0.0636454
0.00859083 0.818402 0.0645609
0.00900282 0.820127 0.0654154
0.00981155 0.821195 0.0661631
0.0113222 0.822293 0.0669108
0.0140993 0.823514 0.067689
0.0192416 0.823987 0.0678721
0.0298009 0.824323 0.0678721
0.0543069 0.823972 0.0673838
0.119524 0.822705 0.0663462
0.302831 0.821622 0.0658122
0.474586 0.818769 0.0648814
0.592935 0.816037 0.0652934
0.699565 0.812512 0.068513
0.791821 0.807935 0.0836347
0.882872 0.800748 0.140826
0.955047 0.792111 0.283833
0.996384 0.787778 0.463554
1 0.79176 0.591928
1 0.803754 0.687663
1 0.822965 0.759243
1 0.847532 0.817197
1 0.874876 0.86302
1 0.902342 0.900832
1 0.920943 0.922866
1 0.92105 0.922469
1 0.921157 0.921981
1 0.921248 0.921508
1 0.92134 0.920958
1 0.921431 0.920333
1 0.921691 0.919478
1 0.922057 0.918578
0.0158236 0.865812 0.104616
0.0163882 0.86775 0.106935
0.0168612 0.868971 0.1084
0.0174868 0.869963 0.109575
0.0185397 0.870893 0.110658
0.0203403 0.872007 0.11191
0.0232395 0.872557 0.112459
0.0284123 0.873091 0.112932
0.0381476 0.873426 0.113115
0.05832 0.873137 0.11252
0.105653 0.872267 0.111315
0.22533 0.870665 0.109621
0.408469 0.868818 0.108415
0.544945 0.866804 0.108309
0.665003 0.863828 0.11043
0.761456 0.860441 0.117769
0.841291 0.856397 0.141604
0.928923 0.848676 0.257481
0.985946 0.841321 0.435248
0.999832 0.838437 0.569543
1 0.842145 0.669673
1 0.851682 0.746807
1 0.867155 0.807706
1 0.88687 0.856794
1 0.90898 0.896559
1 0.922972 0.91693
1 0.923186 0.916396
1 0.923415 0.915831
1 0.923781 0.915206
1 0.924422 0.914397
1 0.925063 0.913603
1 0.92578 0.912688
1 0.926604 0.911665
0.0328679 0.912413 0.187869
0.0335241 0.913176 0.190433
0.0343938 0.914076 0.193561
0.0356146 0.915068 0.196918
0.0369268 0.915434 0.198199
0.0391089 0.915923 0.199939
0.0425422 0.916289 0.201236
0.0483253 0.916655 0.202579
0.0578927 0.916472 0.202167
0.0758373 0.916197 0.201602
0.112078 0.915328 0.199435
0.199466 0.914153 0.196872
0.352697 0.912245 0.193164
0.497536 0.910353 0.191257
0.627726 0.907912 0.191897
0.732815 0.905699 0.200122
0.814267 0.902678 0.22092
0.88925 0.898253 0.27657
0.962585 0.890822 0.416587
1 0.885344 0.551202
1 0.883955 0.651057
1 0.886061 0.731701
1 0.893324 0.796033
1 0.904738 0.848997
1 0.920027 0.890501
1 0.92903 0.908812
1 0.929702 0.908064
1 0.930449 0.90724
1 0.931212 0.906401
1 0.932052 0.905455
1 0.933028 0.904356
1 0.934585 0.902892
1 0.936156 0.90135
0.069337 0.949889 0.353262
0.0709544 0.950652 0.357427
0.0719615 0.951003 0.359335
0.0731975 0.951278 0.360876
0.074876 0.951492 0.362051
0.0779126 0.951904 0.364431
0.0816815 0.951934 0.364782
0.0875105 0.951812 0.364309
0.0972763 0.951553 0.363272
0.114809 0.951324 0.362554
0.146075 0.950576 0.359457
0.210895 0.949554 0.355535
0.341039 0.948409 0.351949
0.469612 0.947066 0.348867
0.59675 0.945342 0.347448
0.701015 0.943282 0.351064
0.788205 0.940948 0.362829
0.864988 0.938216 0.389273
0.926055 0.934524 0.439323
0.981613 0.928389 0.537133
0.999649 0.923796 0.636042
1 0.922301 0.715663
1 0.923461 0.782055
1 0.927749 0.837644
1 0.935927 0.882277
1 0.940368 0.89752
1 0.941238 0.896712
1 0.942245 0.895781
1 0.943389 0.894728
1 0.944686 0.893507
1 0.946059 0.892226
1 0.947677 0.890715
1 0.949477 0.889067
0.135058 0.975631 0.494423
0.13637 0.97583 0.495598
0.137911 0.976028 0.496757
0.140352 0.976303 0.498375
0.141665 0.976242 0.498085
0.143984 0.976181 0.497765
0.147982 0.976089 0.497398
0.155581 0.976135 0.497887
0.166506 0.975937 0.497093
0.183978 0.975479 0.494957
0.21529 0.974884 0.492348
0.278737 0.974243 0.489998
0.381155 0.973236 0.486259
0.479271 0.972198 0.483192
0.586191 0.970901 0.481163
0.683497 0.969589 0.482109
0.770138 0.967834 0.485588
0.846952 0.965667 0.496666
0.907362 0.963165 0.517662
0.952422 0.960327 0.554269
0.995224 0.955001 0.63151
1 0.951324 0.706355
1 0.949447 0.771038
1 0.950134 0.827298
1 0.953262 0.873884
1 0.954971 0.884321
1 0.955886 0.883543
1 0.957092 0.882506
1 0.958251 0.881498
1 0.959579 0.880323
1 0.961105 0.87892
1 0.962921 0.877256
1 0.964858 0.875517
0.26154 0.99321 0.597009
0.264118 0.993439 0.598413
0.265095 0.993469 0.598611
0.266026 0.993423 0.598398
0.267231 0.993317 0.597757
0.271519 0.993362 0.598123
0.275654 0.993164 0.59704
0.283116 0.99295 0.595911
0.295842 0.992676 0.594522
0.317876 0.992401 0.59324
0.350545 0.991897 0.590814
0.397772 0.991272 0.587991
0.456504 0.9906 0.585382
0.520806 0.989868 0.583017
0.60119 0.988968 0.581231
0.682139 0.987854 0.580102
0.760739 0.986603 0.581201
0.834546 0.98497 0.586511
0.894972 0.983078 0.597177
0.937438 0.98114 0.614237
0.971206 0.97879 0.641382
0.996521 0.974777 0.70161
1 0.971435 0.764599
1 0.969772 0.818235
1 0.969696 0.865568
1 0.970611 0.870634
1 0.971481 0.869917
1 0.972457 0.869123
1 0.97351 0.868223
1 0.974914 0.867033
1 0.976349 0.865797
1 0.978012 0.864332
1 0.979721 0.862776
0.441199 1 0.676081
0.441779 1 0.676234
0.441199 1 0.675761
0.442069 1 0.675746
0.441474 1 0.6748
0.442145 1 0.673991
0.44387 1 0.673014
0.449027 1 0.672648
0.454932 1 0.671138
0.464973 1 0.669413
0.4804 1 0.667155
0.504982 1 0.6654
0.536629 1 0.663035
0.575967 1 0.660548
0.631922 1 0.658732
0.694942 0.999649 0.658167
0.761196 0.99884 0.657847
0.828687 0.997772 0.659586
0.88574 0.996597 0.664805
0.929107 0.995636 0.67454
0.960128 0.994324 0.688136
0.986587 0.992416 0.710185
1 0.98883 0.759426
1 0.986007 0.813794
1 0.984436 0.858732
1 0.985077 0.858137
1 0.985809 0.857466
1 0.986786 0.856565
1 0.987732 0.855756
1 0.988739 0.854932
1 0.989883 0.854017
1 0.991379 0.852796
1 0.992905 0.851545
0.567483 1 0.737835
0.567834 1 0.737957
0.567163 1 0.737469
0.566445 1 0.736843
0.565347 1 0.735851
0.565164 1 0.735103
0.564981 1 0.733974
0.566293 1 0.733074
0.568505 1 0.731777
0.573312 1 0.730571
0.580392 1 0.72871
0.59205 1 0.726635
0.609186 1 0.724224
0.633814 1 0.722408
0.671031 1 0.720668
0.716976 1 0.719402
0.770047 1 0.718639
0.828794 1 0.719799
0.880766 1 0.722148
0.922194 1 0.727077
0.953155 0.999985 0.735256
0.977066 1 0.746303
0.994171 1 0.76437
0.999908 0.998291 0.808392
1 0.996521 0.84799
1 0.996887 0.847471
1 0.997208 0.846983
1 0.997589 0.846418
1 0.998047 0.845747
1 0.998611 0.844877
1 0.999207 0.843976
1 0.999908 0.842878
1 1 0.840284
0.65951 1 0.788678
0.658549 1 0.788067
0.657298 1 0.787289
0.656733 1 0.786831
0.655329 1 0.785794
0.653788 1 0.784543
0.652827 1 0.783383
0.653056 1 0.782559
0.653025 1 0.781033
0.654185 1 0.779385
0.657069 1 0.777462
0.663569 1 0.775845
0.672953 1 0.773709
0.687388 1 0.771496
0.712581 1 0.770153
0.745724 1 0.769146
0.786648 1 0.768688
0.834424 1 0.768338
0.880064 1 0.769207
0.918151 1 0.772457
0.948425 1 0.777173
0.971572 1 0.783886
0.989517 1 0.793011
1 1 0.80882
1 1 0.831861
1 1 0.8309
1 1 0.829877
1 1 0.828397
1 1 0.827893
1 1 0.828626
1 1 0.82948
1 1 0.830564
1 1 0.831739
0.702266 1 0.813825
0.702327 1 0.813825
0.702434 1 0.813825
0.702617 1 0.813825
0.702907 1 0.813825
0.70338 1 0.813809
0.704097 1 0.813794
0.705196 1 0.813779
0.706844 1 0.813748
0.709361 1 0.813703
0.713115 1 0.813642
0.718669 1 0.81355
0.726284 1 0.813428
0.737285 1 0.813245
0.753857 1 0.81265
0.775891 1 0.811246
0.8056 1 0.810468
0.843946 1 0.81033
0.882383 1 0.810666
0.916091 1 0.811902
0.944686 1 0.814084
0.9673 1 0.817472
0.98555 1 0.822416
0.998276 1 0.829496
1 1 0.834211
1 1 0.834211
1 1 0.834211
1 1 0.834211
1 1 0.834211
1 1 0.834211
1 1 0.834211
1 1 0.834226
1 1 0.834226
0.702281 1 0.81384
0.702342 1 0.81384
0.70248 1 0.813825
0.702678 1 0.813825
0.703014 1 0.813825
0.703548 1 0.813809
0.704341 1 0.813794
0.705562 1 0.813779
0.707408 1 0.813748
0.71017 1 0.813703
0.714244 1 0.813626
0.720317 1 0.813535
0.72845 1 0.813397
0.740169 1 0.813199
0.757748 1 0.812894
0.781491 1 0.812512
0.81207 1 0.812039
0.850111 1 0.811627
0.887541 1 0.811643
0.920729 1 0.812467
0.948409 1 0.814557
0.970352 1 0.818097
0.987869 1 0.823285
0.998734 1 0.830762
1 1 0.834211
1 1 0.834211
1 1 0.834211
1 1 0.834211
1 1 0.834211
1 1 0.834226
1 1 0.834226
1 1 0.834226
1 1 0.834226
0.702296 1 0.81384
0.702373 1 0.81384
0.70251 1 0.81384
0.702754 1 0.81384
0.70312 1 0.813825
0.7037 1 0.813809
0.704601 1 0.813794
0.705943 1 0.813779
0.707958 1 0.813748
0.710964 1 0.813687
0.715419 1 0.813626
0.72192 1 0.813504
0.730541 1 0.813367
0.74316 1 0.813153
0.761547 1 0.812833
0.786404 1 0.812436
0.81767 1 0.811978
0.856428 1 0.811582
0.893217 1 0.811719
0.925521 1 0.812665
0.95201 1 0.815015
0.973449 1 0.818738
0.99028 1 0.824445
0.999222 1 0.832074
1 1 0.834211
1 1 0.834211
1 1 0.834211
1 1 0.834226
1 1 0.834226
1 1 0.834226
1 1 0.834226
1 1 0.834226
1 1 0.834226
0.702312 1 0.813855
0.702403 1 0.813855
0.702571 1 0.81384
0.702831 1 0.81384
0.703243 1 0.81384
0.703883 1 0.813825
0.70486 1 0.813809
0.70634 1 0.813779
0.708553 1 0.813748
