apps/lut-action/luts/s709_V1.cube
LUT_3D_SIZE 5
0.000000 0.000000 0.000000
0.172496 0.000000 0.000000
0.627637 0.000000 0.000000
0.959934 0.000000 0.000000
1.000000 0.000000 0.000000
0.000000 0.188526 0.000000
0.162545 0.167680 0.000000
0.626123 0.000000 0.000000
0.959892 0.000000 0.000000
1.000000 0.000000 0.000000
0.000000 0.649079 0.063115
0.072416 0.646162 0.042261
0.613718 0.620999 0.000000
0.959571 0.000000 0.000000
1.000000 0.000000 0.000000
0.000000 0.965559 0.437824
0.000000 0.965476 0.431751
0.432521 0.964832 0.377115
0.956408 0.958244 0.000000
1.000000 0.000000 0.000000
0.000000 1.000000 0.880239
0.000000 1.000000 0.879857
0.000000 1.000000 0.876828
0.875237 1.000000 0.840048
1.000000 1.000000 0.000000
0.000000 0.000000 0.145173
0.154353 0.000000 0.128222
0.624950 0.000000 0.000000
0.959861 0.000000 0.000000
1.000000 0.000000 0.000000
0.000000 0.167657 0.151708
0.144660 0.144911 0.136050
0.623409 0.000000 0.000000
0.959820 0.000000 0.000000
1.000000 0.000000 0.000000
0.000000 0.646159 0.204781
0.047357 0.643180 0.188829
0.610751 0.617416 0.048748
0.959498 0.000000 0.000000
1.000000 0.000000 0.000000
0.000000 0.965476 0.481538
0.000000 0.965394 0.476553
0.425351 0.964749 0.433714
0.956330 0.958149 0.000000
1.000000 0.000000 0.000000
0.000000 1.000000 0.883293
0.000000 1.000000 0.882921
0.000000 1.000000 0.879979
0.874785 1.000000 0.844881
1.000000 1.000000 0.000000
0.000000 0.000000 0.583107
0.000000 0.000000 0.580136
0.602170 0.000000 0.554616
0.959291 0.000000 0.000000
1.000000 0.000000 0.000000
0.000000 0.000000 0.584388
0.000000 0.000000 0.581445
0.600533 0.000000 0.556045
0.959250 0.000000 0.000000
1.000000 0.000000 0.000000
0.000000 0.620967 0.593998
0.000000 0.617387 0.591257
0.587019 0.587603 0.567747
0.958924 0.000000 0.000000
1.000000 0.000000 0.000000
0.000000 0.964831 0.668851
0.000000 0.964748 0.666913
0.359871 0.964094 0.650820
0.955718 0.957400 0.354372
1.000000 0.000000 0.000000
0.000000 1.000000 0.903157
0.000000 1.000000 0.902895
0.000000 1.000000 0.900816
0.871198 1.000000 0.875771
1.000000 1.000000 0.000000
0.000000 0.000000 0.946530
0.000000 0.000000 0.946427
0.000000 0.000000 0.945613
0.953140 0.000000 0.936887
1.000000 0.000000 0.000000
0.000000 0.000000 0.946575
0.000000 0.000000 0.946472
0.000000 0.000000 0.945659
0.953081 0.000000 0.936952
1.000000 0.000000 0.000000
0.000000 0.000000 0.946927
0.000000 0.000000 0.946825
0.000000 0.000000 0.946017
0.952616 0.000000 0.937452
1.000000 0.000000 0.000000
0.000000 0.958236 0.950182
0.000000 0.958140 0.950084
0.000000 0.957392 0.949317
0.948014 0.948216 0.941513
1.000000 0.000000 0.000000
0.000000 1.000000 0.969721
0.000000 1.000000 0.969682
0.000000 1.000000 0.969374
0.824649 1.000000 0.966060
1.000000 1.000000 0.818703
0.000000 0.000000 1.000000
0.000000 0.000000 1.000000
0.000000 0.000000 1.000000
0.000000 0.000000 1.000000
1.000000 0.000000 1.000000
0.000000 0.000000 1.000000
0.000000 0.000000 1.000000
0.000000 0.000000 1.000000
0.000000 0.000000 1.000000
1.000000 0.000000 1.000000
0.000000 0.000000 1.000000
0.000000 0.000000 1.000000
0.000000 0.000000 1.000000
0.000000 0.000000 1.000000
1.000000 0.000000 1.000000
0.000000 0.000000 1.000000
0.000000 0.000000 1.000000
0.000000 0.000000 1.000000
0.000000 0.000000 1.000000
1.000000 0.000000 1.000000
0.000000 1.000000 1.000000
0.000000 1.000000 1.000000
0.000000 1.000000 1.000000
0.000000 1.000000 1.000000
1.000000 1.000000 1.000000
