apps/lut-action/luts/s709_V1.cube
LUT_3D_SIZE 33
0.000000 0.000000 0.000000
0.004012 0.000000 0.000000
0.021691 0.000000 0.000000
0.039459 0.000000 0.000000
0.059514 0.000000 0.000000
0.081016 0.000000 0.000000
0.105887 0.000000 0.000000
0.136510 0.000000 0.000000
0.172496 0.000000 0.000000
0.216723 0.000000 0.000000
0.269565 0.000000 0.000000
0.328705 0.000000 0.000000
0.389090 0.000000 0.000000
0.449059 0.000000 0.000000
0.508629 0.000000 0.000000
0.568708 0.000000 0.000000
0.627637 0.000000 0.000000
0.685289 0.000000 0.000000
0.741509 0.000000 0.000000
0.796306 0.000000 0.000000
0.845312 0.000000 0.000000
0.885398 0.000000 0.000000
0.917457 0.000000 0.000000
0.941830 0.000000 0.000000
0.959934 0.000000 0.000000
0.972984 0.000000 0.000000
0.981903 0.000000 0.000000
0.987417 0.000000 0.000000
0.990773 0.000000 0.000000
0.994689 0.000000 0.000000
0.999879 0.000000 0.000000
1.000000 0.000000 0.000000
1.000000 0.000000 0.000000
0.000000 0.005847 0.000000
0.002892 0.003339 0.000000
0.020571 0.000832 0.000000
0.038292 0.000000 0.000000
0.058240 0.000000 0.000000
0.079771 0.000000 0.000000
0.104685 0.000000 0.000000
0.135396 0.000000 0.000000
0.171611 0.000000 0.000000
0.215939 0.000000 0.000000
0.268755 0.000000 0.000000
0.328071 0.000000 0.000000
0.388628 0.000000 0.000000
0.448724 0.000000 0.000000
0.508351 0.000000 0.000000
0.568506 0.000000 0.000000
0.627491 0.000000 0.000000
0.685184 0.000000 0.000000
0.741433 0.000000 0.000000
0.796250 0.000000 0.000000
0.845276 0.000000 0.000000
0.885375 0.000000 0.000000
0.917444 0.000000 0.000000
0.941823 0.000000 0.000000
0.959930 0.000000 0.000000
0.972982 0.000000 0.000000
0.981902 0.000000 0.000000
0.987416 0.000000 0.000000
0.990773 0.000000 0.000000
0.994689 0.000000 0.000000
0.999878 0.000000 0.000000
1.000000 0.000000 0.000000
1.000000 0.000000 0.000000
0.000000 0.025488 0.000000
0.001772 0.022980 0.000000
0.019451 0.020472 0.000000
0.037131 0.017965 0.000000
0.056967 0.015457 0.000000
0.078526 0.012949 0.000000
0.103483 0.009812 0.000000
0.134283 0.005410 0.000000
0.170716 0.000000 0.000000
0.215156 0.000000 0.000000
0.267944 0.000000 0.000000
0.327437 0.000000 0.000000
0.388160 0.000000 0.000000
0.448385 0.000000 0.000000
0.508074 0.000000 0.000000
0.568304 0.000000 0.000000
0.627345 0.000000 0.000000
0.685078 0.000000 0.000000
0.741356 0.000000 0.000000
0.796193 0.000000 0.000000
0.845240 0.000000 0.000000
0.885353 0.000000 0.000000
0.917430 0.000000 0.000000
0.941817 0.000000 0.000000
0.959926 0.000000 0.000000
0.972979 0.000000 0.000000
0.981901 0.000000 0.000000
0.987416 0.000000 0.000000
0.990772 0.000000 0.000000
0.994689 0.000000 0.000000
0.999878 0.000000 0.000000
1.000000 0.000000 0.000000
1.000000 0.000000 0.000000
0.000000 0.045495 0.000000
0.000652 0.042846 0.000000
0.018332 0.040233 0.000000
0.036011 0.037619 0.000000
0.055694 0.035098 0.000000
0.077281 0.032590 0.000000
0.102281 0.029452 0.000000
0.133169 0.025051 0.000000
0.169754 0.019219 0.000000
0.214365 0.011490 0.000000
0.267134 0.001249 0.000000
0.326802 0.000000 0.000000
0.387692 0.000000 0.000000
0.448047 0.000000 0.000000
0.507817 0.000000 0.000000
0.568102 0.000000 0.000000
0.627199 0.000000 0.000000
0.684972 0.000000 0.000000
0.741279 0.000000 0.000000
0.796136 0.000000 0.000000
0.845204 0.000000 0.000000
0.885330 0.000000 0.000000
0.917416 0.000000 0.000000
0.941810 0.000000 0.000000
0.959922 0.000000 0.000000
0.972977 0.000000 0.000000
0.981900 0.000000 0.000000
0.987415 0.000000 0.000000
0.990772 0.000000 0.000000
0.994688 0.000000 0.000000
0.999878 0.000000 0.000000
1.000000 0.000000 0.000000
1.000000 0.000000 0.000000
0.000000 0.069243 0.000000
0.000000 0.065873 0.000000
0.017212 0.062588 0.000000
0.034891 0.059737 0.000000
0.054421 0.056885 0.000000
0.076035 0.054015 0.000000
0.101079 0.050251 0.000000
0.132056 0.045005 0.000000
0.168791 0.038926 0.000000
0.213529 0.031131 0.000000
0.266324 0.020890 0.000000
0.326145 0.007319 0.000000
0.387225 0.000000 0.000000
0.447708 0.000000 0.000000
0.507560 0.000000 0.000000
0.567900 0.000000 0.000000
0.627052 0.000000 0.000000
0.684866 0.000000 0.000000
0.741202 0.000000 0.000000
0.796079 0.000000 0.000000
0.845168 0.000000 0.000000
0.885308 0.000000 0.000000
0.917402 0.000000 0.000000
0.941803 0.000000 0.000000
0.959918 0.000000 0.000000
0.972975 0.000000 0.000000
0.981898 0.000000 0.000000
0.987415 0.000000 0.000000
0.990772 0.000000 0.000000
0.994688 0.000000 0.000000
0.999877 0.000000 0.000000
1.000000 0.000000 0.000000
1.000000 0.000000 0.000000
0.000000 0.092683 0.000000
0.000000 0.089833 0.000000
0.016092 0.086720 0.000000
0.033772 0.083606 0.000000
0.053080 0.080626 0.000000
0.074790 0.077838 0.000000
0.099877 0.074349 0.000000
0.130942 0.068656 0.000000
0.167829 0.061162 0.000000
0.212694 0.052265 0.000000
0.265513 0.040668 0.000000
0.325487 0.026960 0.000000
0.386757 0.008978 0.000000
0.447369 0.000000 0.000000
0.507304 0.000000 0.000000
0.567698 0.000000 0.000000
0.626906 0.000000 0.000000
0.684759 0.000000 0.000000
0.741125 0.000000 0.000000
0.796022 0.000000 0.000000
0.845132 0.000000 0.000000
0.885285 0.000000 0.000000
0.917388 0.000000 0.000000
0.941796 0.000000 0.000000
0.959914 0.000000 0.000000
0.972972 0.000000 0.000000
0.981897 0.000000 0.000000
0.987414 0.000000 0.000000
0.990772 0.000000 0.000000
0.994688 0.000000 0.000000
0.999877 0.000000 0.000000
1.000000 0.000000 0.000000
1.000000 0.000000 0.000000
0.000000 0.118370 0.000000
0.000000 0.116038 0.000000
0.014691 0.113453 0.000000
0.032370 0.110795 0.000000
0.051399 0.108137 0.000000
0.073220 0.105454 0.000000
0.098392 0.102085 0.000000
0.129562 0.097403 0.000000
0.166625 0.091281 0.000000
0.211648 0.081702 0.000000
0.264523 0.069694 0.000000
0.324664 0.053180 0.000000
0.386172 0.033553 0.000000
0.446945 0.009724 0.000000
0.506982 0.000000 0.000000
0.567445 0.000000 0.000000
0.626723 0.000000 0.000000
0.684627 0.000000 0.000000
0.741029 0.000000 0.000000
0.795951 0.000000 0.000000
0.845087 0.000000 0.000000
0.885257 0.000000 0.000000
0.917371 0.000000 0.000000
0.941787 0.000000 0.000000
0.959909 0.000000 0.000000
0.972969 0.000000 0.000000
0.981896 0.000000 0.000000
0.987414 0.000000 0.000000
0.990771 0.000000 0.000000
0.994687 0.000000 0.000000
0.999877 0.000000 0.000000
1.000000 0.000000 0.000000
1.000000 0.000000 0.000000
0.000000 0.149883 0.000000
0.000000 0.147861 0.000000
0.012725 0.145840 0.000000
0.030405 0.143778 0.000000
0.049041 0.141544 0.000000
0.070579 0.139310 0.000000
0.096330 0.136411 0.000000
0.127699 0.132034 0.000000
0.164936 0.126403 0.000000
0.210182 0.119145 0.000000
0.263311 0.108797 0.000000
0.323509 0.094358 0.000000
0.385342 0.073561 0.000000
0.446347 0.044488 0.000000
0.506531 0.012620 0.000000
0.567087 0.000000 0.000000
0.626466 0.000000 0.000000
0.684441 0.000000 0.000000
0.740894 0.000000 0.000000
0.795851 0.000000 0.000000
0.845024 0.000000 0.000000
0.885218 0.000000 0.000000
0.917346 0.000000 0.000000
0.941775 0.000000 0.000000
0.959902 0.000000 0.000000
0.972965 0.000000 0.000000
0.981894 0.000000 0.000000
0.987413 0.000000 0.000000
0.990771 0.000000 0.000000
0.994687 0.000000 0.000000
0.999876 0.000000 0.000000
1.000000 0.000000 0.000000
1.000000 0.000000 0.000000
0.000000 0.188526 0.000000
0.000000 0.186335 0.000000
0.010121 0.184145 0.000000
0.027801 0.182033 0.000000
0.045916 0.180203 0.000000
0.067080 0.178373 0.000000
0.093596 0.176019 0.000000
0.125231 0.172543 0.000000
0.162545 0.167680 0.000000
0.208200 0.160728 0.000000
0.261704 0.151432 0.000000
0.321965 0.139994 0.000000
0.384225 0.122761 0.000000
0.445544 0.098418 0.000000
0.505943 0.060934 0.000000
0.566613 0.016459 0.000000
0.626123 0.000000 0.000000
0.684193 0.000000 0.000000
0.740714 0.000000 0.000000
0.795719 0.000000 0.000000
0.844940 0.000000 0.000000
0.885166 0.000000 0.000000
0.917314 0.000000 0.000000
0.941759 0.000000 0.000000
0.959892 0.000000 0.000000
0.972960 0.000000 0.000000
0.981891 0.000000 0.000000
0.987413 0.000000 0.000000
0.990770 0.000000 0.000000
0.994686 0.000000 0.000000
0.999876 0.000000 0.000000
1.000000 0.000000 0.000000
1.000000 0.000000 0.000000
0.000000 0.237585 0.000516
0.000000 0.235552 0.000000
0.006670 0.233519 0.000000
0.024350 0.231432 0.000000
0.042229 0.229265 0.000000
0.062536 0.227098 0.000000
0.089742 0.224526 0.000000
0.121973 0.221120 0.000000
0.159296 0.216913 0.000000
0.205444 0.211308 0.000000
0.259556 0.203307 0.000000
0.319858 0.191347 0.000000
0.382746 0.176630 0.000000
0.444481 0.156001 0.000000
0.505169 0.127619 0.000000
0.565983 0.083732 0.000000
0.625669 0.021545 0.000000
0.683864 0.000000 0.000000
0.740476 0.000000 0.000000
0.795543 0.000000 0.000000
0.844829 0.000000 0.000000
0.885097 0.000000 0.000000
0.917271 0.000000 0.000000
0.941738 0.000000 0.000000
0.959880 0.000000 0.000000
0.972953 0.000000 0.000000
0.981887 0.000000 0.000000
0.987412 0.000000 0.000000
0.990769 0.000000 0.000000
0.994685 0.000000 0.000000
0.999875 0.000000 0.000000
1.000000 0.000000 0.000000
1.000000 0.000000 0.000000
0.000000 0.292969 0.003659
0.000000 0.291429 0.001903
0.002097 0.289828 0.000146
0.019776 0.288217 0.000000
0.037463 0.286607 0.000000
0.057337 0.284935 0.000000
0.084064 0.282826 0.000000
0.117720 0.279804 0.000000
0.155112 0.275686 0.000000
0.201724 0.269965 0.000000
0.256591 0.262865 0.000000
0.317041 0.254173 0.000000
0.380740 0.241285 0.000000
0.443050 0.221913 0.000000
0.504137 0.197560 0.000000
0.565142 0.162328 0.000000
0.625064 0.111104 0.000000
0.683427 0.028284 0.000000
0.740160 0.000000 0.000000
0.795309 0.000000 0.000000
0.844682 0.000000 0.000000
0.885005 0.000000 0.000000
0.917214 0.000000 0.000000
0.941710 0.000000 0.000000
0.959864 0.000000 0.000000
0.972944 0.000000 0.000000
0.981883 0.000000 0.000000
0.987410 0.000000 0.000000
0.990768 0.000000 0.000000
0.994684 0.000000 0.000000
0.999874 0.000000 0.000000
1.000000 0.000000 0.000000
1.000000 0.000000 0.000000
0.000000 0.351721 0.007825
0.000000 0.350557 0.006068
0.000000 0.349359 0.004311
0.013717 0.348160 0.002555
0.031396 0.346961 0.000798
0.050230 0.345724 0.000000
0.077087 0.344175 0.000000
0.111605 0.341963 0.000000
0.149791 0.338978 0.000000
0.196523 0.334888 0.000000
0.252537 0.329229 0.000000
0.313193 0.321309 0.000000
0.378043 0.310527 0.000000
0.441135 0.297227 0.000000
0.502757 0.276650 0.000000
0.564021 0.247970 0.000000
0.624259 0.205106 0.000000
0.682847 0.142563 0.000000
0.739740 0.037215 0.000000
0.795000 0.000000 0.000000
0.844488 0.000000 0.000000
0.884883 0.000000 0.000000
0.917138 0.000000 0.000000
0.941672 0.000000 0.000000
0.959842 0.000000 0.000000
0.972932 0.000000 0.000000
0.981876 0.000000 0.000000
0.987408 0.000000 0.000000
0.990766 0.000000 0.000000
0.994683 0.000000 0.000000
0.999872 0.000000 0.000000
1.000000 0.000000 0.000000
1.000000 0.000000 0.000000
0.000000 0.411370 0.013344
0.000000 0.410426 0.011587
0.000000 0.409481 0.009831
0.005687 0.408574 0.008074
0.023366 0.407689 0.006318
0.041205 0.406804 0.004561
0.067089 0.405680 0.002363
0.103038 0.404092 0.000000
0.143226 0.401947 0.000000
0.189106 0.399050 0.000000
0.246901 0.395110 0.000000
0.308926 0.389668 0.000000
0.374374 0.382074 0.000000
0.438549 0.371227 0.000000
0.500904 0.356290 0.000000
0.562521 0.335851 0.000000
0.623185 0.304126 0.000000
0.682073 0.256150 0.000000
0.739182 0.179436 0.000000
0.794588 0.050198 0.000000
0.844228 0.000000 0.000000
0.884721 0.000000 0.000000
0.917039 0.000000 0.000000
0.941623 0.000000 0.000000
0.959814 0.000000 0.000000
0.972916 0.000000 0.000000
0.981868 0.000000 0.000000
0.987404 0.000000 0.000000
0.990764 0.000000 0.000000
0.994681 0.000000 0.000000
0.999870 0.000000 0.000000
1.000000 0.000000 0.000000
1.000000 0.000000 0.000000
0.000000 0.472037 0.020658
0.000000 0.471311 0.018901
0.000000 0.470575 0.017145
0.000000 0.469840 0.015388
0.012726 0.469102 0.013631
0.030405 0.468354 0.011875
0.054369 0.467418 0.009677
0.091786 0.466091 0.006594
0.133321 0.464317 0.002509
0.180243 0.461925 0.000000
0.238930 0.458792 0.000000
0.303081 0.454920 0.000000
0.369344 0.449675 0.000000
0.435041 0.442371 0.000000
0.498404 0.431997 0.000000
0.560509 0.416806 0.000000
0.621749 0.396034 0.000000
0.681042 0.363563 0.000000
0.738438 0.312599 0.000000
0.794040 0.225845 0.000000
0.843883 0.069190 0.000000
0.884506 0.000000 0.000000
0.916907 0.000000 0.000000
0.941557 0.000000 0.000000
0.959776 0.000000 0.000000
0.972896 0.000000 0.000000
0.981857 0.000000 0.000000
0.987401 0.000000 0.000000
0.990762 0.000000 0.000000
0.994678 0.000000 0.000000
0.999867 0.000000 0.000000
1.000000 0.000000 0.000000
1.000000 0.000000 0.000000
0.000000 0.531981 0.030349
0.000000 0.531453 0.028593
0.000000 0.530925 0.026836
0.000000 0.530391 0.025080
0.000000 0.529857 0.023323
0.016305 0.529323 0.021566
0.038474 0.528648 0.019368
0.075152 0.527699 0.016285
0.119847 0.526428 0.012200
0.169256 0.524726 0.006787
0.227212 0.522441 0.000000
0.294846 0.519348 0.000000
0.362413 0.515141 0.000000
0.430237 0.509359 0.000000
0.495020 0.502070 0.000000
0.557797 0.492057 0.000000
0.619823 0.477479 0.000000
0.679664 0.455821 0.000000
0.737447 0.424664 0.000000
0.793311 0.373691 0.000000
0.843426 0.281371 0.000000
0.884222 0.093837 0.000000
0.916731 0.000000 0.000000
0.941470 0.000000 0.000000
0.959725 0.000000 0.000000
0.972867 0.000000 0.000000
0.981841 0.000000 0.000000
0.987395 0.000000 0.000000
0.990758 0.000000 0.000000
0.994674 0.000000 0.000000
0.999864 0.000000 0.000000
1.000000 0.000000 0.000000
1.000000 0.000000 0.000000
0.000000 0.591043 0.043441
0.000000 0.590660 0.041610
0.000000 0.590276 0.039779
0.000000 0.589889 0.037949
0.000000 0.589502 0.036165
0.000000 0.589116 0.034409
0.019742 0.588627 0.032211
0.052265 0.587942 0.029128
0.100562 0.587027 0.025042
0.152425 0.585806 0.019629
0.213208 0.584170 0.012455
0.282859 0.581973 0.002950
0.353974 0.579004 0.000000
0.423590 0.574972 0.000000
0.490396 0.569439 0.000000
0.554302 0.561756 0.000000
0.617230 0.551412 0.000000
0.677816 0.537356 0.000000
0.736124 0.516131 0.000000
0.792339 0.485007 0.000000
0.842816 0.434354 0.000000
0.883843 0.340500 0.000000
0.916498 0.122146 0.000000
0.941355 0.000000 0.000000
0.959660 0.000000 0.000000
0.972830 0.000000 0.000000
0.981820 0.000000 0.000000
0.987388 0.000000 0.000000
0.990753 0.000000 0.000000
0.994669 0.000000 0.000000
0.999859 0.000000 0.000000
1.000000 0.000000 0.000000
1.000000 0.000000 0.000000
0.000000 0.649079 0.063115
0.000000 0.648799 0.061108
0.000000 0.648519 0.059111
0.000000 0.648238 0.057113
0.000000 0.647957 0.055116
0.000000 0.647676 0.053050
0.000000 0.647321 0.050413
0.026014 0.646824 0.046714
0.072416 0.646162 0.042261
0.130282 0.645280 0.036646
0.192830 0.644103 0.029473
0.265082 0.642527 0.019967
0.342056 0.640409 0.007371
0.414205 0.637554 0.000000
0.484004 0.633675 0.000000
0.549828 0.628365 0.000000
0.613718 0.620999 0.000000
0.675330 0.610606 0.000000
0.734349 0.596331 0.000000
0.791041 0.575922 0.000000
0.842004 0.544609 0.000000
0.883339 0.494325 0.000000
0.916188 0.400535 0.000000
0.941201 0.155226 0.000000
0.959571 0.000000 0.000000
0.972780 0.000000 0.000000
0.981794 0.000000 0.000000
0.987380 0.000000 0.000000
0.990747 0.000000 0.000000
0.994663 0.000000 0.000000
0.999852 0.000000 0.000000
1.000000 0.000000 0.000000
1.000000 0.000000 0.000000
0.000000 0.706632 0.090896
0.000000 0.706412 0.088715
0.000000 0.706191 0.086534
0.000000 0.705971 0.084354
0.000000 0.705749 0.082173
0.000000 0.705528 0.080178
0.000000 0.705250 0.077734
0.000000 0.704859 0.074306
0.034324 0.704340 0.069028
0.097300 0.703649 0.061953
0.165775 0.702729 0.053765
0.242994 0.701499 0.042738
0.324136 0.699854 0.029921
0.402080 0.697646 0.013230
0.475022 0.694850 0.000000
0.543660 0.691115 0.000000
0.608926 0.686006 0.000000
0.671966 0.678932 0.000000
0.731961 0.668975 0.000000
0.789302 0.654601 0.000000
0.840920 0.634588 0.000000
0.882666 0.603345 0.000000
0.915776 0.553607 0.000000
0.940998 0.460341 0.000000
0.959453 0.196567 0.000000
0.972715 0.000000 0.000000
0.981760 0.000000 0.000000
0.987368 0.000000 0.000000
0.990738 0.000000 0.000000
0.994654 0.000000 0.000000
0.999844 0.000000 0.000000
1.000000 0.000000 0.000000
1.000000 0.000000 0.000000
0.000000 0.762663 0.121769
0.000000 0.762505 0.120135
0.000000 0.762346 0.118502
0.000000 0.762187 0.116868
0.000000 0.762028 0.115196
0.000000 0.761868 0.113334
0.000000 0.761668 0.111004
0.000000 0.761387 0.107736
0.000000 0.761015 0.103354
0.045744 0.760519 0.097581
0.126393 0.759861 0.089835
0.209204 0.758982 0.078423
0.299043 0.757810 0.062642
0.384831 0.756241 0.043357
0.462111 0.754136 0.020993
0.535019 0.751298 0.000000
0.602438 0.747449 0.000000
0.667382 0.742212 0.000000
0.728735 0.735412 0.000000
0.786965 0.725858 0.000000
0.839468 0.712107 0.000000
0.881770 0.691994 0.000000
0.915226 0.662007 0.000000
0.940726 0.612957 0.000000
0.959298 0.520928 0.000000
0.972628 0.246866 0.000000
0.981712 0.000000 0.000000
0.987352 0.000000 0.000000
0.990727 0.000000 0.000000
0.994643 0.000000 0.000000
0.999833 0.000000 0.000000
1.000000 0.000000 0.000000
1.000000 0.000000 0.000000
0.000000 0.815797 0.157656
0.000000 0.815687 0.156066
0.000000 0.815576 0.154508
0.000000 0.815466 0.152949
0.000000 0.815355 0.151390
0.000000 0.815244 0.149879
0.000000 0.815105 0.148107
0.000000 0.814911 0.145622
0.000000 0.814652 0.142132
0.000000 0.814309 0.137298
0.062787 0.813852 0.130165
0.160825 0.813245 0.121168
0.260633 0.812437 0.108607
0.358162 0.811358 0.090831
0.445058 0.809915 0.063625
0.522644 0.807978 0.031281
0.594096 0.805370 0.000000
0.661070 0.801835 0.000000
0.724341 0.797007 0.000000
0.783868 0.790338 0.000000
0.837517 0.781103 0.000000
0.880570 0.767938 0.000000
0.914492 0.748355 0.000000
0.940365 0.719186 0.000000
0.959091 0.671225 0.000000
0.972513 0.580520 0.000000
0.981650 0.302978 0.000000
0.987331 0.000000 0.000000
0.990712 0.000000 0.000000
0.994628 0.000000 0.000000
0.999818 0.000000 0.000000
1.000000 0.000000 0.000000
1.000000 0.000000 0.000000
0.000000 0.861670 0.202423
0.000000 0.861600 0.200916
0.000000 0.861530 0.199408
0.000000 0.861460 0.197900
0.000000 0.861390 0.196392
0.000000 0.861319 0.194782
0.000000 0.861231 0.192744
0.000000 0.861107 0.189885
0.000000 0.860943 0.186271
0.000000 0.860725 0.181689
0.000000 0.860436 0.176420
0.086560 0.860051 0.168743
0.203511 0.859540 0.157308
0.318454 0.858858 0.143102
0.418980 0.857951 0.122157
0.504700 0.856735 0.091989
0.582187 0.855107 0.045235
0.652251 0.852916 0.000000
0.718298 0.849950 0.000000
0.779656 0.845903 0.000000
0.834883 0.840328 0.000000
0.878960 0.832530 0.000000
0.913512 0.820692 0.000000
0.939884 0.802667 0.000000
0.958815 0.774711 0.000000
0.972359 0.728015 0.000000
0.981568 0.639011 0.000000
0.987303 0.362235 0.000000
0.990692 0.000000 0.000000
0.994609 0.000000 0.000000
0.999798 0.000000 0.000000
1.000000 0.000000 0.000000
1.000000 0.000000 0.000000
0.000000 0.898365 0.255386
0.000000 0.898327 0.254207
0.000000 0.898289 0.253007
0.000000 0.898250 0.251808
0.000000 0.898212 0.250609
0.000000 0.898174 0.249387
0.000000 0.898126 0.247803
0.000000 0.898059 0.245580
0.000000 0.897970 0.242536
0.000000 0.897851 0.238398
0.000000 0.897695 0.232582
0.000000 0.897485 0.224526
0.114428 0.897208 0.215260
0.254484 0.896840 0.202421
0.379397 0.896349 0.182803
0.479591 0.895696 0.158636
0.564633 0.894822 0.123458
0.640631 0.893526 0.066834
0.709874 0.891706 0.000000
0.773868 0.889244 0.000000
0.831306 0.885891 0.000000
0.876786 0.881279 0.000000
0.912195 0.874844 0.000000
0.939239 0.865678 0.000000
0.958447 0.850647 0.000000
0.972155 0.826948 0.000000
0.981458 0.783172 0.000000
0.987266 0.696255 0.000000
0.990666 0.423370 0.000000
0.994583 0.000000 0.000000
0.999772 0.000000 0.000000
1.000000 0.000000 0.000000
1.000000 0.000000 0.000000
0.000000 0.927096 0.313612
0.000000 0.927073 0.312558
0.000000 0.927051 0.311638
0.000000 0.927028 0.310718
0.000000 0.927005 0.309797
0.000000 0.926982 0.308877
0.000000 0.926952 0.307683
0.000000 0.926911 0.306007
0.000000 0.926857 0.303749
0.000000 0.926786 0.300689
0.000000 0.926691 0.296477
0.000000 0.926566 0.290636
0.000000 0.926399 0.282372
0.146163 0.926176 0.270401
0.310906 0.925882 0.255700
0.439842 0.925490 0.234131
0.539410 0.924966 0.203933
0.623769 0.924267 0.160360
0.697887 0.923332 0.095310
0.765811 0.922075 0.000000
0.826174 0.920376 0.000000
0.873839 0.917863 0.000000
0.910421 0.914090 0.000000
0.938206 0.908835 0.000000
0.957955 0.901371 0.000000
0.971883 0.889823 0.000000
0.981313 0.870384 0.000000
0.987216 0.834287 0.000000
0.990632 0.752747 0.000000
0.994548 0.483762 0.000000
0.999737 0.000000 0.000000
1.000000 0.000000 0.000000
1.000000 0.000000 0.000000
0.000000 0.949178 0.376218
0.000000 0.949164 0.375417
0.000000 0.949151 0.374599
0.000000 0.949137 0.373782
0.000000 0.949124 0.372964
0.000000 0.949110 0.372146
0.000000 0.949093 0.371095
0.000000 0.949069 0.369618
0.000000 0.949037 0.367638
0.000000 0.948994 0.364967
0.000000 0.948939 0.361426
0.000000 0.948864 0.357206
0.000000 0.948765 0.351464
0.000000 0.948634 0.343401
0.183895 0.948460 0.331762
0.371742 0.948228 0.314328
0.499652 0.947920 0.292218
0.598334 0.947509 0.257304
0.681603 0.946961 0.205870
0.754374 0.946227 0.127431
0.818736 0.945240 0.000000
0.869802 0.943908 0.000000
0.908015 0.942099 0.000000
0.936779 0.939619 0.000000
0.957296 0.935503 0.000000
0.971518 0.929512 0.000000
0.981119 0.920776 0.000000
0.987152 0.905198 0.000000
0.990586 0.876293 0.000000
0.994502 0.806701 0.000000
0.999692 0.543406 0.000000
1.000000 0.000000 0.000000
1.000000 0.000000 0.000000
0.000000 0.965559 0.437824
0.000000 0.965551 0.437252
0.000000 0.965542 0.436675
0.000000 0.965534 0.436090
0.000000 0.965526 0.435505
0.000000 0.965518 0.434920
0.000000 0.965508 0.434185
0.000000 0.965494 0.433138
0.000000 0.965476 0.431751
0.000000 0.965452 0.429875
0.000000 0.965420 0.427353
0.000000 0.965376 0.423938
0.000000 0.965319 0.419259
0.000000 0.965243 0.412796
0.000000 0.965143 0.404686
0.232549 0.965009 0.393580
0.432521 0.964832 0.377115
0.559151 0.964595 0.353019
0.656729 0.964281 0.316411
0.737987 0.963861 0.259389
0.808203 0.963298 0.165477
0.864171 0.962543 0.001991
0.904728 0.961524 0.000000
0.934845 0.960140 0.000000
0.956408 0.958244 0.000000
0.971029 0.955615 0.000000
0.980859 0.951081 0.000000
0.987065 0.944221 0.000000
0.990525 0.932581 0.000000
0.994442 0.910016 0.000000
0.999631 0.854034 0.000000
1.000000 0.602175 0.000000
1.000000 0.000000 0.000000
0.000000 0.976882 0.498446
0.000000 0.976879 0.498031
0.000000 0.976876 0.497615
0.000000 0.976873 0.497194
0.000000 0.976870 0.496772
0.000000 0.976866 0.496350
0.000000 0.976862 0.495822
0.000000 0.976857 0.495072
0.000000 0.976849 0.494076
0.000000 0.976839 0.492741
0.000000 0.976826 0.490953
0.000000 0.976809 0.488547
0.000000 0.976785 0.485286
0.000000 0.976754 0.480839
0.000000 0.976714 0.474705
0.000000 0.976660 0.466115
0.288285 0.976588 0.454522
0.492591 0.976492 0.438840
0.618524 0.976366 0.414551
0.714150 0.976197 0.379081
0.792868 0.975897 0.319061
0.855300 0.975480 0.211554
0.900182 0.974920 0.006101
0.932205 0.974163 0.000000
0.955208 0.973137 0.000000
0.970373 0.971732 0.000000
0.980511 0.969786 0.000000
0.986893 0.967019 0.000000
0.990445 0.961763 0.000000
0.994361 0.953497 0.000000
0.999550 0.936453 0.000000
1.000000 0.892634 0.000000
1.000000 0.660779 0.000000
0.000000 0.984184 0.558447
0.000000 0.984182 0.558107
0.000000 0.984180 0.557766
0.000000 0.984179 0.557426
0.000000 0.984177 0.557083
0.000000 0.984175 0.556738
0.000000 0.984173 0.556308
0.000000 0.984170 0.555717
0.000000 0.984167 0.554993
0.000000 0.984161 0.554031
0.000000 0.984155 0.552748
0.000000 0.984146 0.551028
0.000000 0.984134 0.548715
0.000000 0.984118 0.545585
0.000000 0.984097 0.541322
0.000000 0.984069 0.535456
0.000000 0.984033 0.527263
0.347447 0.983984 0.515590
0.551953 0.983919 0.499536
0.676571 0.983832 0.476368
0.769899 0.983717 0.440693
0.842446 0.983564 0.381567
0.893688 0.983359 0.265568
0.928559 0.983082 0.011547
0.953201 0.982711 0.000000
0.969484 0.982013 0.000000
0.980042 0.981011 0.000000
0.986655 0.979624 0.000000
0.990338 0.977669 0.000000
0.994254 0.974341 0.000000
