apps/lut-action/luts/s709_V1.cube
LUT_3D_SIZE 9
0.000000 0.000000 0.000000
0.059514 0.000000 0.000000
0.172496 0.000000 0.000000
0.389090 0.000000 0.000000
0.627637 0.000000 0.000000
0.845312 0.000000 0.000000
0.959934 0.000000 0.000000
0.990773 0.000000 0.000000
1.000000 0.000000 0.000000
0.000000 0.069243 0.000000
0.054421 0.056885 0.000000
0.168791 0.038926 0.000000
0.387225 0.000000 0.000000
0.627052 0.000000 0.000000
0.845168 0.000000 0.000000
0.959918 0.000000 0.000000
0.990772 0.000000 0.000000
1.000000 0.000000 0.000000
0.000000 0.188526 0.000000
0.045916 0.180203 0.000000
0.162545 0.167680 0.000000
0.384225 0.122761 0.000000
0.626123 0.000000 0.000000
0.844940 0.000000 0.000000
0.959892 0.000000 0.000000
0.990770 0.000000 0.000000
1.000000 0.000000 0.000000
0.000000 0.411370 0.013344
0.023366 0.407689 0.006318
0.143226 0.401947 0.000000
0.374374 0.382074 0.000000
0.623185 0.304126 0.000000
0.844228 0.000000 0.000000
0.959814 0.000000 0.000000
0.990764 0.000000 0.000000
1.000000 0.000000 0.000000
0.000000 0.649079 0.063115
0.000000 0.647957 0.055116
0.072416 0.646162 0.042261
0.342056 0.640409 0.007371
0.613718 0.620999 0.000000
0.842004 0.544609 0.000000
0.959571 0.000000 0.000000
0.990747 0.000000 0.000000
1.000000 0.000000 0.000000
0.000000 0.861670 0.202423
0.000000 0.861390 0.196392
0.000000 0.860943 0.186271
0.203511 0.859540 0.157308
0.582187 0.855107 0.045235
0.834883 0.840328 0.000000
0.958815 0.774711 0.000000
0.990692 0.000000 0.000000
1.000000 0.000000 0.000000
0.000000 0.965559 0.437824
0.000000 0.965526 0.435505
0.000000 0.965476 0.431751
0.000000 0.965319 0.419259
0.432521 0.964832 0.377115
0.808203 0.963298 0.165477
0.956408 0.958244 0.000000
0.990525 0.932581 0.000000
1.000000 0.000000 0.000000
0.000000 0.992110 0.676656
0.000000 0.992107 0.675950
0.000000 0.992103 0.674823
0.000000 0.992090 0.671251
0.000000 0.992051 0.659633
0.669558 0.991929 0.619563
0.946316 0.991555 0.388851
0.990010 0.990400 0.000000
1.000000 0.985401 0.000000
0.000000 1.000000 0.880239
0.000000 1.000000 0.880092
0.000000 1.000000 0.879857
0.000000 1.000000 0.879124
0.000000 1.000000 0.876828
0.000000 1.000000 0.869428
0.875237 1.000000 0.840048
0.988234 1.000000 0.630636
1.000000 1.000000 0.000000
0.000000 0.000000 0.048058
0.050299 0.000000 0.040364
0.165837 0.000000 0.029117
0.385789 0.000000 0.000000
0.626603 0.000000 0.000000
0.845058 0.000000 0.000000
0.959906 0.000000 0.000000
0.990771 0.000000 0.000000
1.000000 0.000000 0.000000
0.000000 0.056874 0.051752
0.044965 0.045010 0.043573
0.161767 0.028818 0.032195
0.383871 0.000000 0.000000
0.626014 0.000000 0.000000
0.844914 0.000000 0.000000
0.959889 0.000000 0.000000
0.990770 0.000000 0.000000
1.000000 0.000000 0.000000
0.000000 0.180196 0.057431
0.037575 0.172547 0.049170
0.155207 0.158550 0.037069
0.380787 0.113128 0.002380
0.625078 0.000000 0.000000
0.844685 0.000000 0.000000
0.959864 0.000000 0.000000
0.990768 0.000000 0.000000
1.000000 0.000000 0.000000
0.000000 0.407685 0.076222
0.015449 0.404094 0.067392
0.136029 0.398176 0.054061
0.370648 0.377613 0.017580
0.622118 0.298368 0.000000
0.843972 0.000000 0.000000
0.959786 0.000000 0.000000
0.990762 0.000000 0.000000
1.000000 0.000000 0.000000
0.000000 0.647956 0.126153
0.000000 0.646825 0.119553
0.061974 0.645015 0.108327
0.337975 0.639213 0.068807
0.612577 0.619623 0.000000
0.841743 0.542674 0.000000
0.959542 0.000000 0.000000
0.990745 0.000000 0.000000
1.000000 0.000000 0.000000
0.000000 0.861390 0.246742
0.000000 0.861107 0.241521
0.000000 0.860660 0.232691
0.196776 0.859253 0.205826
0.580890 0.854810 0.111351
0.834606 0.839993 0.000000
0.958786 0.774127 0.000000
0.990690 0.000000 0.000000
1.000000 0.000000 0.000000
0.000000 0.965526 0.455239
0.000000 0.965494 0.453222
0.000000 0.965445 0.449956
0.000000 0.965287 0.439206
0.429793 0.964800 0.400615
0.807834 0.963264 0.212583
0.956379 0.958208 0.000000
0.990523 0.932496 0.000000
1.000000 0.000000 0.000000
0.000000 0.992107 0.682271
0.000000 0.992105 0.681592
0.000000 0.992100 0.680510
0.000000 0.992088 0.677081
0.000000 0.992048 0.665951
0.668720 0.991927 0.627215
0.946270 0.991552 0.410474
0.990008 0.990398 0.000000
1.000000 0.985395 0.000000
0.000000 1.000000 0.881432
0.000000 1.000000 0.881285
0.000000 1.000000 0.881054
0.000000 1.000000 0.880328
0.000000 1.000000 0.878059
0.000000 1.000000 0.870746
0.875062 1.000000 0.841942
0.988231 1.000000 0.637719
1.000000 1.000000 0.000000
0.000000 0.000000 0.145173
0.036600 0.000000 0.139016
0.154353 0.000000 0.128222
0.380363 0.000000 0.093067
0.624950 0.000000 0.000000
0.844654 0.000000 0.000000
0.959861 0.000000 0.000000
0.990768 0.000000 0.000000
1.000000 0.000000 0.000000
0.000000 0.038898 0.147655
0.032121 0.028802 0.141759
0.150378 0.012922 0.131204
0.378371 0.000000 0.096299
0.624356 0.000000 0.000000
0.844511 0.000000 0.000000
0.959845 0.000000 0.000000
0.990767 0.000000 0.000000
1.000000 0.000000 0.000000
0.000000 0.167657 0.151708
0.025030 0.158534 0.145920
0.144660 0.144911 0.136050
0.375149 0.096205 0.101464
0.623409 0.000000 0.000000
0.844282 0.000000 0.000000
0.959820 0.000000 0.000000
0.990765 0.000000 0.000000
1.000000 0.000000 0.000000
0.000000 0.401937 0.165567
0.002916 0.398169 0.159074
0.123861 0.391949 0.149206
0.364531 0.370217 0.117388
0.620412 0.288596 0.000976
0.843565 0.000000 0.000000
0.959741 0.000000 0.000000
0.990759 0.000000 0.000000
1.000000 0.000000 0.000000
0.000000 0.646159 0.204781
0.000000 0.645013 0.198906
0.047357 0.643180 0.188829
0.331226 0.637298 0.160065
0.610751 0.617416 0.048748
0.841329 0.539555 0.000000
0.959498 0.000000 0.000000
0.990741 0.000000 0.000000
1.000000 0.000000 0.000000
0.000000 0.860942 0.305915
0.000000 0.860659 0.301991
0.000000 0.860209 0.295490
0.185429 0.858798 0.272222
0.578812 0.854338 0.191458
0.834168 0.839460 0.000000
0.958742 0.773197 0.000000
0.990687 0.000000 0.000000
1.000000 0.000000 0.000000
0.000000 0.965476 0.481538
0.000000 0.965445 0.479631
0.000000 0.965394 0.476553
0.000000 0.965236 0.466471
0.425351 0.964749 0.433714
0.807248 0.963212 0.278597
0.956330 0.958149 0.000000
0.990520 0.932359 0.000000
1.000000 0.000000 0.000000
0.000000 0.992103 0.690721
0.000000 0.992100 0.690082
0.000000 0.992096 0.689064
0.000000 0.992084 0.685842
0.000000 0.992044 0.675410
0.667383 0.991923 0.638530
0.946199 0.991548 0.442561
0.990004 0.990394 0.000000
1.000000 0.985385 0.000000
0.000000 1.000000 0.883293
0.000000 1.000000 0.883150
0.000000 1.000000 0.882921
0.000000 1.000000 0.882209
0.000000 1.000000 0.879979
0.000000 1.000000 0.872798
0.874785 1.000000 0.844881
0.988227 1.000000 0.648235
1.000000 1.000000 0.000000
0.000000 0.000000 0.343634
0.000000 0.000000 0.340066
0.118813 0.000000 0.334187
0.361863 0.000000 0.313732
0.619670 0.000000 0.245168
0.843389 0.000000 0.000000
0.959722 0.000000 0.000000
0.990758 0.000000 0.000000
1.000000 0.000000 0.000000
0.000000 0.000000 0.345154
0.000000 0.000000 0.341636
0.114526 0.000000 0.335849
0.359797 0.000000 0.315687
0.619052 0.000000 0.247388
0.843244 0.000000 0.000000
0.959706 0.000000 0.000000
0.990757 0.000000 0.000000
1.000000 0.000000 0.000000
0.000000 0.122687 0.347540
0.000000 0.113056 0.344091
0.107004 0.096151 0.338420
0.356677 0.038231 0.318740
0.618068 0.000000 0.250844
0.843012 0.000000 0.000000
0.959681 0.000000 0.000000
0.990755 0.000000 0.000000
1.000000 0.000000 0.000000
0.000000 0.382040 0.354661
0.000000 0.377582 0.351421
0.082228 0.370193 0.346103
0.346359 0.346925 0.327769
0.614955 0.254816 0.260862
0.842288 0.000000 0.000000
0.959602 0.000000 0.000000
0.990749 0.000000 0.000000
1.000000 0.000000 0.000000
0.000000 0.640400 0.376653
0.000000 0.639205 0.373411
0.007594 0.637292 0.368113
0.308415 0.631148 0.351909
0.604901 0.610305 0.292808
0.840029 0.529339 0.000000
0.959359 0.000000 0.000000
0.990731 0.000000 0.000000
1.000000 0.000000 0.000000
0.000000 0.859538 0.432374
0.000000 0.859251 0.429952
0.000000 0.858796 0.426026
0.152540 0.857368 0.412944
0.572124 0.852855 0.369489
0.832790 0.837784 0.150625
0.958599 0.770256 0.000000
0.990677 0.000000 0.000000
1.000000 0.000000 0.000000
0.000000 0.965319 0.545642
0.000000 0.965286 0.544304
0.000000 0.965236 0.542155
0.000000 0.965079 0.535227
0.410540 0.964589 0.511316
0.805405 0.963048 0.416385
0.956181 0.957966 0.000000
0.990510 0.931932 0.000000
1.000000 0.000000 0.000000
0.000000 0.992090 0.715540
0.000000 0.992088 0.714960
0.000000 0.992084 0.714036
0.000000 0.992071 0.711115
0.000000 0.992031 0.701717
0.663130 0.991910 0.670464
0.945975 0.991535 0.517785
0.989994 0.990381 0.000000
1.000000 0.985354 0.000000
0.000000 1.000000 0.888895
0.000000 1.000000 0.888759
0.000000 1.000000 0.888544
0.000000 1.000000 0.887867
0.000000 1.000000 0.885755
0.000000 1.000000 0.878964
0.873918 1.000000 0.853621
0.988214 1.000000 0.678971
1.000000 1.000000 0.000000
0.000000 0.000000 0.583107
0.000000 0.000000 0.581964
0.000000 0.000000 0.580136
0.297922 0.000000 0.574275
0.602170 0.000000 0.554616
0.839404 0.000000 0.481799
0.959291 0.000000 0.000000
0.990727 0.000000 0.000000
1.000000 0.000000 0.000000
0.000000 0.000000 0.583604
0.000000 0.000000 0.582466
0.000000 0.000000 0.580645
0.295258 0.000000 0.574805
0.601540 0.000000 0.555162
0.839253 0.000000 0.482624
0.959275 0.000000 0.000000
0.990725 0.000000 0.000000
1.000000 0.000000 0.000000
0.000000 0.000000 0.584388
0.000000 0.000000 0.583257
0.000000 0.000000 0.581445
0.290887 0.000000 0.575641
0.600533 0.000000 0.556045
0.839014 0.000000 0.483922
0.959250 0.000000 0.000000
0.990724 0.000000 0.000000
1.000000 0.000000 0.000000
0.000000 0.303992 0.586805
0.000000 0.298234 0.585693
0.000000 0.288461 0.583914
0.275997 0.254708 0.578214
0.597346 0.129220 0.559003
0.838266 0.000000 0.487886
0.959170 0.000000 0.000000
0.990718 0.000000 0.000000
1.000000 0.000000 0.000000
0.000000 0.620967 0.593998
0.000000 0.619591 0.592943
0.000000 0.617387 0.591257
0.226308 0.610282 0.585860
0.587019 0.587603 0.567747
0.835931 0.493877 0.499402
0.958924 0.000000 0.000000
0.990700 0.000000 0.000000
1.000000 0.000000 0.000000
0.000000 0.855100 0.615140
0.000000 0.854803 0.614137
0.000000 0.854332 0.612536
0.025991 0.852850 0.607422
0.549940 0.848162 0.591691
0.828401 0.832465 0.532441
0.958159 0.760783 0.000000
0.990646 0.000000 0.000000
1.000000 0.000000 0.000000
0.000000 0.964831 0.668851
0.000000 0.964799 0.668104
0.000000 0.964748 0.666913
0.000000 0.964588 0.663133
0.359871 0.964094 0.650820
0.799559 0.962537 0.608736
0.955718 0.957400 0.354372
0.990479 0.930599 0.000000
1.000000 0.000000 0.000000
0.000000 0.992051 0.775417
0.000000 0.992048 0.775010
0.000000 0.992044 0.774365
0.000000 0.992031 0.772330
0.000000 0.991992 0.765868
0.649294 0.991870 0.743858
0.945278 0.991496 0.654034
0.989963 0.990342 0.000000
1.000000 0.985259 0.000000
0.000000 1.000000 0.903157
0.000000 1.000000 0.903055
0.000000 1.000000 0.902895
0.000000 1.000000 0.902389
0.000000 1.000000 0.900816
0.000000 1.000000 0.895788
0.871198 1.000000 0.875771
0.988173 1.000000 0.749768
1.000000 1.000000 0.000000
0.000000 0.000000 0.808829
0.000000 0.000000 0.808503
0.000000 0.000000 0.807985
0.000000 0.000000 0.806359
0.538546 0.000000 0.801221
0.825997 0.000000 0.784118
0.957939 0.000000 0.716155
0.990631 0.000000 0.000000
1.000000 0.000000 0.000000
0.000000 0.000000 0.808971
0.000000 0.000000 0.808646
0.000000 0.000000 0.808128
0.000000 0.000000 0.806504
0.537646 0.000000 0.801372
0.825814 0.000000 0.784284
0.957923 0.000000 0.716407
0.990630 0.000000 0.000000
1.000000 0.000000 0.000000
0.000000 0.000000 0.809196
0.000000 0.000000 0.808872
0.000000 0.000000 0.808355
0.000000 0.000000 0.806734
0.536211 0.000000 0.801610
0.825524 0.000000 0.784548
0.957897 0.000000 0.716806
0.990628 0.000000 0.000000
1.000000 0.000000 0.000000
0.000000 0.000000 0.809896
0.000000 0.000000 0.809573
0.000000 0.000000 0.809060
0.000000 0.000000 0.807447
0.531633 0.000000 0.802349
0.824615 0.000000 0.785368
0.957815 0.000000 0.718042
0.990622 0.000000 0.000000
1.000000 0.000000 0.000000
0.000000 0.544469 0.812034
0.000000 0.542535 0.811715
0.000000 0.539416 0.811211
0.000000 0.529200 0.809621
0.516463 0.493756 0.804606
0.821775 0.318648 0.787881
0.957562 0.000000 0.721789
0.990604 0.000000 0.000000
1.000000 0.000000 0.000000
0.000000 0.840304 0.818418
0.000000 0.839969 0.818114
0.000000 0.839437 0.817632
0.000000 0.837761 0.816117
0.462203 0.832448 0.811340
0.812622 0.813146 0.795459
0.956774 0.727925 0.732750
0.990550 0.000000 0.000000
1.000000 0.000000 0.000000
0.000000 0.963296 0.835764
0.000000 0.963262 0.835520
0.000000 0.963210 0.835133
0.000000 0.963046 0.833921
0.090836 0.962535 0.830106
0.779957 0.960927 0.816503
0.954083 0.955611 0.763278
0.990383 0.926337 0.000000
1.000000 0.000000 0.000000
0.000000 0.991929 0.874665
0.000000 0.991927 0.874509
0.000000 0.991923 0.874262
0.000000 0.991910 0.873489
0.000000 0.991870 0.871069
0.600571 0.991749 0.863086
0.943080 0.991374 0.831084
0.989867 0.990220 0.594167
1.000000 0.984964 0.000000
0.000000 1.000000 0.932864
0.000000 1.000000 0.932805
0.000000 1.000000 0.932709
0.000000 1.000000 0.932412
0.000000 1.000000 0.931487
0.000000 1.000000 0.928564
0.862080 1.000000 0.918717
0.988046 1.000000 0.865285
1.000000 1.000000 0.000000
0.000000 0.000000 0.946530
0.000000 0.000000 0.946490
0.000000 0.000000 0.946427
0.000000 0.000000 0.946229
0.000000 0.000000 0.945613
0.769184 0.000000 0.943677
0.953140 0.000000 0.936887
0.990335 0.000000 0.903554
1.000000 0.000000 0.000000
0.000000 0.000000 0.946547
0.000000 0.000000 0.946508
0.000000 0.000000 0.946444
0.000000 0.000000 0.946246
0.000000 0.000000 0.945630
0.768913 0.000000 0.943696
0.953117 0.000000 0.936912
0.990334 0.000000 0.903599
1.000000 0.000000 0.000000
0.000000 0.000000 0.946575
0.000000 0.000000 0.946535
0.000000 0.000000 0.946472
0.000000 0.000000 0.946274
0.000000 0.000000 0.945659
0.768484 0.000000 0.943725
0.953081 0.000000 0.936952
0.990332 0.000000 0.903668
1.000000 0.000000 0.000000
0.000000 0.000000 0.946662
0.000000 0.000000 0.946622
0.000000 0.000000 0.946558
0.000000 0.000000 0.946361
0.000000 0.000000 0.945747
0.767135 0.000000 0.943814
0.952968 0.000000 0.937074
0.990326 0.000000 0.903887
1.000000 0.000000 0.000000
0.000000 0.000000 0.946927
0.000000 0.000000 0.946887
0.000000 0.000000 0.946825
0.000000 0.000000 0.946628
0.000000 0.000000 0.946017
0.762894 0.000000 0.944093
0.952616 0.000000 0.937452
0.990309 0.000000 0.904557
1.000000 0.000000 0.000000
0.000000 0.774581 0.947741
0.000000 0.773997 0.947701
0.000000 0.773067 0.947639
0.000000 0.770127 0.947445
0.000000 0.760655 0.946841
0.748957 0.727811 0.944943
0.951521 0.560049 0.938605
0.990255 0.000000 0.906593
1.000000 0.000000 0.000000
0.000000 0.958236 0.950182
0.000000 0.958199 0.950144
0.000000 0.958140 0.950084
0.000000 0.957958 0.949898
0.000000 0.957392 0.949317
0.698299 0.955605 0.947493
0.948014 0.948216 0.941513
0.990087 0.910026 0.912601
1.000000 0.000000 0.000000
0.000000 0.991554 0.956684
0.000000 0.991552 0.956658
0.000000 0.991548 0.956616
0.000000 0.991535 0.956484
0.000000 0.991496 0.956076
0.243688 0.991374 0.954761
0.935012 0.991000 0.949464
0.989572 0.989845 0.927400
1.000000 0.984021 0.000000
0.000000 1.000000 0.969721
0.000000 1.000000 0.969706
0.000000 1.000000 0.969682
0.000000 1.000000 0.969607
0.000000 1.000000 0.969374
0.000000 1.000000 0.968647
0.824649 1.000000 0.966060
0.987646 1.000000 0.955125
1.000000 1.000000 0.818703
0.000000 0.000000 0.988272
0.000000 0.000000 0.988270
0.000000 0.000000 0.988266
0.000000 0.000000 0.988254
0.000000 0.000000 0.988218
0.000000 0.000000 0.988106
0.930094 0.000000 0.987753
0.989424 0.000000 0.986360
1.000000 0.000000 0.978239
0.000000 0.000000 0.988273
0.000000 0.000000 0.988271
0.000000 0.000000 0.988267
0.000000 0.000000 0.988255
0.000000 0.000000 0.988219
0.000000 0.000000 0.988107
0.930056 0.000000 0.987754
0.989423 0.000000 0.986362
1.000000 0.000000 0.978243
0.000000 0.000000 0.988275
0.000000 0.000000 0.988272
0.000000 0.000000 0.988269
0.000000 0.000000 0.988257
0.000000 0.000000 0.988220
0.000000 0.000000 0.988108
0.929993 0.000000 0.987755
0.989421 0.000000 0.986364
1.000000 0.000000 0.978249
0.000000 0.000000 0.988280
0.000000 0.000000 0.988277
0.000000 0.000000 0.988274
0.000000 0.000000 0.988262
0.000000 0.000000 0.988225
0.000000 0.000000 0.988113
0.929796 0.000000 0.987761
0.989415 0.000000 0.986373
1.000000 0.000000 0.978267
0.000000 0.000000 0.988295
0.000000 0.000000 0.988293
0.000000 0.000000 0.988289
0.000000 0.000000 0.988278
0.000000 0.000000 0.988242
0.000000 0.000000 0.988129
0.929187 0.000000 0.987777
0.989398 0.000000 0.986401
1.000000 0.000000 0.978325
0.000000 0.000000 0.988344
0.000000 0.000000 0.988342
0.000000 0.000000 0.988338
0.000000 0.000000 0.988327
0.000000 0.000000 0.988290
0.000000 0.000000 0.988179
0.927280 0.000000 0.987828
0.989343 0.000000 0.986486
1.000000 0.000000 0.978500
0.000000 0.932523 0.988494
0.000000 0.932437 0.988491
0.000000 0.932300 0.988487
0.000000 0.931873 0.988475
0.000000 0.930540 0.988440
0.000000 0.926279 0.988330
0.921083 0.909964 0.987983
0.989176 0.789102 0.986743
1.000000 0.000000 0.979033
0.000000 0.990399 0.988941
0.000000 0.990396 0.988939
0.000000 0.990392 0.988935
0.000000 0.990379 0.988924
0.000000 0.990340 0.988889
0.000000 0.990218 0.988783
0.894005 0.989844 0.988449
0.988546 0.988583 0.987359
1.000000 0.979942 0.980615
0.000000 1.000000 0.990066
0.000000 1.000000 0.990064
0.000000 1.000000 0.990062
0.000000 1.000000 0.990053
0.000000 1.000000 0.990025
0.000000 1.000000 0.989940
0.481308 1.000000 0.989678
0.985944 1.000000 0.988810
1.000000 1.000000 0.984252
0.000000 0.000000 1.000000
0.000000 0.000000 1.000000
0.000000 0.000000 1.000000
0.000000 0.000000 1.000000
0.000000 0.000000 1.000000
0.000000 0.000000 1.000000
0.000000 0.000000 1.000000
0.984850 0.000000 1.000000
1.000000 0.000000 1.000000
0.000000 0.000000 1.000000
0.000000 0.000000 1.000000
0.000000 0.000000 1.000000
0.000000 0.000000 1.000000
0.000000 0.000000 1.000000
0.000000 0.000000 1.000000
0.000000 0.000000 1.000000
0.984847 0.000000 1.000000
1.000000 0.000000 1.000000
0.000000 0.000000 1.000000
0.000000 0.000000 1.000000
0.000000 0.000000 1.000000
0.000000 0.000000 1.000000
0.000000 0.000000 1.000000
0.000000 0.000000 1.000000
0.000000 0.000000 1.000000
0.984843 0.000000 1.000000
1.000000 0.000000 1.000000
0.000000 0.000000 1.000000
0.000000 0.000000 1.000000
0.000000 0.000000 1.000000
0.000000 0.000000 1.000000
0.000000 0.000000 1.000000
0.000000 0.000000 1.000000
0.000000 0.000000 1.000000
0.984829 0.000000 1.000000
1.000000 0.000000 1.000000
0.000000 0.000000 1.000000
0.000000 0.000000 1.000000
0.000000 0.000000 1.000000
0.000000 0.000000 1.000000
0.000000 0.000000 1.000000
0.000000 0.000000 1.000000
0.000000 0.000000 1.000000
0.984787 0.000000 1.000000
1.000000 0.000000 1.000000
0.000000 0.000000 1.000000
0.000000 0.000000 1.000000
0.000000 0.000000 1.000000
0.000000 0.000000 1.000000
0.000000 0.000000 1.000000
0.000000 0.000000 1.000000
0.000000 0.000000 1.000000
0.984651 0.000000 1.000000
1.000000 0.000000 1.000000
0.000000 0.000000 1.000000
0.000000 0.000000 1.000000
0.000000 0.000000 1.000000
0.000000 0.000000 1.000000
0.000000 0.000000 1.000000
0.000000 0.000000 1.000000
0.000000 0.000000 1.000000
0.984230 0.000000 1.000000
1.000000 0.000000 1.000000
0.000000 0.985388 1.000000
0.000000 0.985382 1.000000
0.000000 0.985372 1.000000
0.000000 0.985341 1.000000
0.000000 0.985246 1.000000
0.000000 0.984951 1.000000
0.000000 0.984009 1.000000
0.982869 0.979926 1.000000
1.000000 0.939190 1.000000
0.000000 1.000000 1.000000
0.000000 1.000000 1.000000
0.000000 1.000000 1.000000
0.000000 1.000000 1.000000
0.000000 1.000000 1.000000
0.000000 1.000000 1.000000
0.000000 1.000000 1.000000
0.975635 1.000000 1.000000
1.000000 1.000000 1.000000
