apps/lut-action/luts/TAM_NIGHT EXT +0.0.cube
TITLE "Generated by Resolve"
LUT_3D_SIZE 9
0.0100557 0.0117494 0.0117037
0.0167239 0.014313 0.0126192
0.0644694 0.0310979 0.0194858
0.162066 0.0415198 0
0.468132 0.0755779 0
0.676204 0.187335 0.0208438
0.822049 0.431983 0.244572
0.915953 0.650401 0.494209
0.953216 0.746197 0.605631
0.00520333 0.041062 0.0260777
0.0242924 0.0289006 0.0191501
0.103517 0.0505989 0.0168307
0.229587 0.06421 0
0.513832 0.09131 0
0.716594 0.232578 0.0464942
0.84535 0.489494 0.307042
0.93164 0.688746 0.539559
0.953216 0.746197 0.605631
0.000671397 0.145251 0.040238
0.00415045 0.128283 0.0332189
0.165667 0.141558 0.00315862
0.340993 0.149691 0
0.562676 0.130236 0
0.747524 0.280201 0.0916609
0.864286 0.53753 0.361028
0.941512 0.714656 0.569863
0.953216 0.746197 0.605631
0 0.372671 0.0752728
0 0.377493 0.0754101
0.132036 0.315526 0
0.566323 0.398871 0
0.731502 0.396033 0
0.777111 0.337545 0.142321
0.886854 0.583734 0.414893
0.94995 0.737057 0.594965
0.953216 0.746197 0.605631
0 0.540749 0.0567788
0 0.544778 0.0558785
0 0.546075 0.0555886
0.414435 0.640299 0
0.922835 0.731167 0
0.993133 0.796109 0.0030518
0.932479 0.672877 0.473213
0.952819 0.745083 0.604334
0.953216 0.746197 0.605631
0 0.622721 0.0407111
0 0.625559 0.0400244
0 0.626657 0.0397345
0 0.627344 0.0395514
0.891615 0.866423 0
0.995377 0.88809 0
0.997848 0.938598 0.295613
0.998825 0.95172 0.509941
0.998825 0.953048 0.504173
0 0.672801 0.0264134
0 0.674662 0.0258183
0 0.675486 0.0255436
0 0.67599 0.025391
0 0.676478 0.0252384
0.995926 0.925872 0
0.996979 0.925032 0
0.997726 0.94197 0.00177005
0.997635 0.939818 0
0 0.691936 0.019852
0 0.691936 0.019852
0 0.691936 0.019852
0 0.691936 0.019852
0 0.691936 0.019852
0.994507 0.93312 0
0.997024 0.933639 0
0.997345 0.933379 0
0.997345 0.933379 0
0 0.691936 0.019852
0 0.691936 0.019852
0 0.691936 0.019852
0 0.691936 0.019852
0 0.691936 0.019852
0.995911 0.934035 0
0.997101 0.933562 0
0.997345 0.933379 0
0.997345 0.933379 0
0.018143 0.0244755 0.0426032
0.0229038 0.0194858 0.0268864
0.0731975 0.0335699 0.0349889
0.173587 0.0413214 0.00146487
0.473457 0.0772106 0
0.681743 0.19147 0.0234073
0.824872 0.438544 0.251438
0.917861 0.654917 0.499489
0.953216 0.746197 0.605631
0.00489815 0.0425727 0.0493324
0.0317693 0.0463417 0.0499733
0.110582 0.0557717 0.0418402
0.242588 0.0661479 0
0.42414 0.0665293 0
0.720851 0.23827 0.0507668
0.847791 0.495811 0.314092
0.932906 0.692164 0.543862
0.953216 0.746197 0.605631
0.000534066 0.142138 0.0668498
0.00329595 0.147066 0.0600137
0.170367 0.156283 0.0320745
0.358007 0.160952 0.00239567
0.537301 0.159228 0
0.751019 0.28603 0.0970626
0.867582 0.543938 0.3682
0.942733 0.717815 0.573343
0.953216 0.746197 0.605631
0 0.369909 0.0892348
0 0.377295 0.0899672
0.0548867 0.326757 0.000396735
0.581384 0.430823 0.00199893
0.741756 0.425513 0
0.780758 0.345266 0.14905
0.889342 0.589105 0.421286
0.9505 0.738598 0.596765
0.953216 0.746197 0.605631
0 0.544366 0.0559701
0 0.548653 0.0550088
0 0.549844 0.0547494
0.612757 0.688014 0
0.932509 0.748165 0
0.994156 0.804593 0.00259403
0.945205 0.696651 0.48246
0.952956 0.745449 0.604761
0.953216 0.746197 0.605631
0 0.624979 0.0401617
0 0.627802 0.0394293
0 0.628931 0.0391394
0 0.629435 0.0390021
0.897002 0.869154 0
0.995621 0.890242 0
0.997879 0.940307 0.300771
0.998825 0.952865 0.504952
0.99881 0.954589 0.497871
0 0.674174 0.0259709
0 0.67602 0.0253758
0 0.67689 0.0251011
0 0.677333 0.0249638
0 0.677653 0.0248569
0.995956 0.926482 0
0.997009 0.925689 0
0.99765 0.940352 0
0.997559 0.938155 0
0 0.691936 0.019852
0 0.691936 0.019852
0 0.691936 0.019852
0 0.691936 0.019852
0 0.691936 0.019852
0.995758 0.933989 0
0.99704 0.933623 0
0.997345 0.933379 0
0.997345 0.933379 0
0 0.691936 0.019852
0 0.691936 0.019852
0 0.691936 0.019852
0 0.691936 0.019852
0 0.691936 0.019852
0.995956 0.934051 0
0.997131 0.933547 0
0.997345 0.933379 0
0.997345 0.933379 0
0.00582895 0.0231327 0.143359
0.03682 0.0267185 0.147433
0.0968795 0.038056 0.112261
0.203998 0.0491188 0.0740673
0.489906 0.0806287 0.00364691
0.687007 0.196933 0.0259251
0.827543 0.44506 0.258473
0.919646 0.659113 0.504356
0.953216 0.746197 0.605631
0.00270085 0.0537423 0.147326
0.0134585 0.0578775 0.172641
0.139437 0.065919 0.16376
0.281621 0.0818494 0.123995
0.471 0.0706798 0.0515297
0.72488 0.244343 0.0563363
0.850019 0.50164 0.320623
0.934051 0.695277 0.547768
0.953216 0.746197 0.605631
0 0.174029 0.219318
0.00274662 0.179202 0.225452
0.159976 0.200183 0.213214
0.395209 0.207599 0.174594
0.582254 0.184756 0.0767071
0.75407 0.291142 0.101762
0.8701 0.548974 0.37406
0.943755 0.720485 0.576303
0.953216 0.746197 0.605631
0 0.401511 0.285374
0 0.413962 0.296361
0.0122225 0.336339 0.164218
0.58999 0.513298 0.23505
0.785809 0.473274 0.0292668
0.815869 0.455909 0.00476081
0.891173 0.593118 0.426032
0.950942 0.739803 0.598169
0.953216 0.746197 0.605631
0 0.546899 0.0654612
0 0.551583 0.0645151
0 0.553063 0.0656291
0.519295 0.676905 0.00111391
0.940673 0.763821 0.000717174
0.995651 0.828855 0
0.964004 0.73228 0.492149
0.953048 0.745724 0.605081
0.953216 0.746197 0.605631
0 0.626688 0.0397192
0 0.629679 0.038941
0 0.630961 0.0386053
0 0.631357 0.0384985
0.898512 0.870985 0
0.995773 0.891737 0
0.997909 0.941466 0.300969
0.99881 0.953887 0.500694
0.998795 0.955657 0.492439
0 0.675273 0.0256199
0 0.677211 0.0249943
0 0.678096 0.0247044
0 0.678508 0.024567
0 0.678691 0.024506
0.995987 0.926986 0
0.997024 0.926192 0
0.997589 0.93904 0
0.997497 0.936797 0
0 0.691936 0.019852
0 0.691936 0.019852
0 0.691936 0.019852
0 0.691936 0.019852
0 0.691936 0.019852
0.995789 0.933989 0
0.997055 0.933608 0
0.997345 0.933379 0
0.997345 0.933379 0
0 0.691936 0.019852
0 0.691936 0.019852
0 0.691936 0.019852
0 0.691936 0.019852
0 0.691936 0.019852
0.995972 0.934051 0
0.997131 0.933532 0
0.997345 0.933379 0
0.997345 0.933379 0
0.00175479 0 0.277028
0.0180514 0 0.291157
0.118898 0 0.326833
0.259968 0.00209049 0.286778
0.59794 0.161807 0.342092
0.694697 0.205264 0.0295872
0.831113 0.45388 0.267979
0.92192 0.6645 0.510658
0.953216 0.746197 0.605631
9.15541e-05 0.0269169 0.303227
0.00421149 0.0278477 0.335622
0.151797 0.0487526 0.394308
0.367498 0.0558938 0.385977
0.589197 0.112047 0.359487
0.730983 0.253651 0.0653697
0.85304 0.509621 0.329534
0.935439 0.699077 0.552544
0.953216 0.746197 0.605631
0 0.187366 0.396735
0.000274662 0.191836 0.403464
0.084123 0.209323 0.438819
0.414649 0.225116 0.436103
0.696361 0.275425 0.461265
0.758251 0.298726 0.109407
0.873213 0.55523 0.381338
0.944945 0.723598 0.579721
0.953216 0.746197 0.605631
0 0.452277 0.53489
0 0.464622 0.547875
0.00595102 0.383993 0.459648
0.567071 0.5906 0.583246
0.813092 0.59115 0.546334
0.838239 0.531136 0.394263
0.892989 0.597147 0.430777
0.9514 0.741085 0.599649
0.953216 0.746197 0.605631
0 0.683696 0.577554
0 0.69424 0.592477
0 0.69894 0.598657
0.0737621 0.73138 0.490105
0.949279 0.889921 0.641337
0.996292 0.877302 0.418936
0.973236 0.750576 0.49836
0.95314 0.745968 0.605371
0.953216 0.746197 0.605631
0 0.627924 0.0393988
0 0.631128 0.0385595
0 0.632731 0.0381476
0 0.633341 0.0379797
0.947219 0.882078 0.0132448
0.996277 0.901396 0.00373846
0.997925 0.942382 0.300053
0.998795 0.954925 0.496529
0.998779 0.956466 0.487266
0 0.676173 0.02533
0 0.678157 0.0246891
0 0.679164 0.0243534
0 0.679683 0.0241855
0 0.679789 0.024155
0.995987 0.927474 0
0.99704 0.926558 0
0.997543 0.93785 0
0.997467 0.935775 0
0 0.691936 0.019852
0 0.691936 0.019852
0 0.691936 0.019852
0 0.691936 0.019852
0 0.691936 0.019852
0.995804 0.933989 0
0.99707 0.933593 0
0.997345 0.933379 0
0.997345 0.933379 0
0 0.691936 0.019852
0 0.691936 0.019852
0 0.691936 0.019852
0 0.691936 0.019852
0 0.691936 0.019852
0.995956 0.934051 0
0.997147 0.933532 0
0.997345 0.933379 0
0.997345 0.933379 0
0.0397192 0 0.444129
0.0498207 0 0.442664
0.133654 0 0.476356
0.36965 0 0.584283
0.732433 0.0642405 0.695659
0.908812 0.328573 0.710597
0.836637 0.467521 0.282704
0.925093 0.67216 0.519646
0.953216 0.746197 0.605631
0.0412757 0 0.455848
0.0492256 0 0.457984
0.147585 0 0.503212
0.412222 0 0.612284
0.787106 0.115206 0.747417
0.932235 0.397024 0.775418
0.857679 0.52192 0.343359
0.937606 0.704616 0.55877
0.953216 0.746197 0.605631
0 0.117739 0.518364
0 0.120928 0.522759
0.0265965 0.154162 0.626947
0.48014 0.224964 0.721141
0.785977 0.244526 0.74728
0.946777 0.45127 0.820996
0.877607 0.565484 0.397147
0.946532 0.727794 0.584436
0.953216 0.746197 0.605631
0 0.439887 0.687724
0 0.451713 0.69807
0.00062562 0.478035 0.720974
0.533486 0.622232 0.823133
0.834989 0.595407 0.798489
0.956039 0.663203 0.859159
0.895338 0.603616 0.441337
0.951965 0.742657 0.601495
0.953216 0.746197 0.605631
0 0.711086 0.798398
0 0.719249 0.806073
0 0.723415 0.809934
0.0814069 0.808743 0.846571
0.858412 0.851575 0.825757
0.981384 0.931807 0.903395
0.986969 0.917128 0.86775
0.953216 0.746197 0.605631
0.953216 0.746197 0.605631
0 0.828717 0.809888
0 0.832273 0.81706
0 0.834287 0.821469
0 0.835416 0.823896
0.689219 0.946639 0.84831
0.997284 0.984848 0.933654
0.99881 0.982513 0.907485
0.998795 0.955703 0.491997
0.998764 0.957198 0.482536
0 0.676875 0.0309148
0 0.678935 0.0527199
0 0.680049 0.0457313
0 0.680781 0.0844129
0 0.681086 0.100969
0.997253 0.977646 0.718212
0.998978 0.989837 0.908614
0.997497 0.936767 0
0.997452 0.934768 0
0 0.691936 0.019852
0 0.691936 0.019852
0 0.691936 0.019852
0 0.691936 0.019852
0 0.691936 0.019852
0.995758 0.933989 0
0.997086 0.933593 0
0.997345 0.933379 0
0.997345 0.933379 0
0 0.691936 0.019852
0 0.691936 0.019852
0 0.691936 0.019852
0 0.691936 0.019852
0 0.691936 0.019852
0.995895 0.93402 0
0.997147 0.933532 0
0.997345 0.933379 0
0.997345 0.933379 0
0.0628672 0 0.554681
0.0623178 0 0.551095
0.0702525 0 0.546654
0.295827 0 0.634241
0.666362 0 0.762203
0.921538 0.354498 0.899321
0.978286 0.620447 0.912749
0.916625 0.674723 0.566781
0.953216 0.746197 0.605631
0.0641489 0 0.562203
0.0639811 0 0.561303
0.0654917 0 0.557366
0.329946 0 0.659022
0.7131 7.62951e-05 0.793637
0.940917 0.422034 0.922225
0.983337 0.664057 0.934356
0.935851 0.717494 0.708415
0.953216 0.746197 0.605631
0.0650187 0 0.566873
0.0652323 0 0.568063
0.0648814 0 0.566155
0.347768 0 0.675227
0.747433 0 0.817166
0.953445 0.475227 0.937575
0.98645 0.69398 0.948577
0.995285 0.78967 0.895094
0.953216 0.746197 0.605631
0 0.257252 0.689052
0 0.272068 0.698192
0 0.280415 0.700938
0.358389 0.450355 0.872633
0.867613 0.534569 0.923751
0.956161 0.599756 0.940291
0.988739 0.719692 0.959808
0.995132 0.808667 0.935973
0.995575 0.803647 0.914672
0 0.697826 0.872023
0 0.706432 0.876478
0 0.710964 0.878645
0.00885023 0.736248 0.889799
0.92018 0.923812 0.964096
0.98204 0.925048 0.962646
0.993576 0.938872 0.973098
0.994781 0.815229 0.958343
0.994751 0.815167 0.959533
0 0.826749 0.894972
0 0.830823 0.897749
0 0.833112 0.899351
0 0.834592 0.900374
0.745937 0.964065 0.964111
0.984878 0.977234 0.96408
0.998993 0.99057 0.983139
0.999405 0.990616 0.982864
0.999207 0.984894 0.971786
0 0.873411 0.893675
0 0.874907 0.89662
0 0.875746 0.898421
0 0.876204 0.899519
0 0.876448 0.900191
0.981003 0.993362 0.974868
0.999481 0.996735 0.988571
0.999527 0.996948 0.989715
0.999435 0.995041 0.978119
0 0.884108 0.884352
0 0.884047 0.889891
0 0.884062 0.893294
0 0.884031 0.895659
0 0.884031 0.897826
0.957839 0.991745 0.970581
0.999496 0.99704 0.988205
0.999451 0.997543 0.991867
0.999619 0.996475 0.983902
0 0.884047 0.884779
0 0.884062 0.890852
0 0.884047 0.894575
0 0.884016 0.897612
0 0.883848 0.900008
0.971115 0.993011 0.974762
0.999344 0.995651 0.975662
0.999619 0.996277 0.982162
0.999542 0.996872 0.987152
0.0726482 0 0.627024
0.0725719 0 0.624781
0.0722362 0 0.620127
0.0746166 0 0.614084
0.584817 0 0.770184
0.882689 0.143389 0.911635
0.980133 0.635523 0.97258
0.992126 0.774334 0.976425
0.994476 0.815259 0.967987
0.0727245 0 0.632746
0.0727092 0 0.63212
0.0726787 0 0.628962
0.0756847 0 0.623728
0.630655 0 0.787778
0.912856 0.240986 0.933959
0.984619 0.6766 0.97908
0.993103 0.797559 0.982238
0.993805 0.814664 0.979919
0.0727703 0 0.636576
0.0727703 0 0.637247
0.072755 0 0.635798
0.0727245 0 0.632197
0.660533 0 0.799512
0.932738 0.322988 0.948913
0.987213 0.706233 0.982956
0.993652 0.81326 0.985626
0.99382 0.818112 0.984894
0.0728008 0 0.639017
0.0728313 0 0.640665
0.0728313 0 0.640696
0.0728008 0 0.639185
0.679728 0 0.808255
0.947402 0.391608 0.959808
0.989181 0.729274 0.985702
0.99382 0.818128 0.987625
0.993851 0.819028 0.987488
0 0.629648 0.892226
0 0.645151 0.896971
0 0.653544 0.899413
0 0.658839 0.900771
0.882994 0.896178 0.979294
0.983124 0.907744 0.986755
0.992432 0.929976 0.9888
0.993851 0.81886 0.98938
0.993851 0.818875 0.989578
0 0.820264 0.923903
0 0.824414 0.925231
0 0.826795 0.925994
0 0.82826 0.926452
0.357855 0.923445 0.964401
0.991608 0.988998 0.991974
0.996277 0.988403 0.990311
0.997772 0.991119 0.991562
0.998566 0.987945 0.992477
0 0.870695 0.926619
0 0.873152 0.928161
0 0.874479 0.92903
0 0.875135 0.929473
0 0.875654 0.929808
0.987106 0.995834 0.992996
0.999252 0.996963 0.993149
0.99971 0.998184 0.994904
0.99968 0.998352 0.995148
0 0.881559 0.925643
0 0.881544 0.927001
0 0.881498 0.927779
0 0.881453 0.928344
0 0.881437 0.928771
0.967193 0.994278 0.991928
0.99942 0.998199 0.993576
0.999603 0.99855 0.995377
0.999603 0.99855 0.995422
0 0.881559 0.925643
0 0.881544 0.927108
0 0.881483 0.927977
0 0.881437 0.928634
0 0.881331 0.929137
0.977203 0.995392 0.992645
0.999481 0.99826 0.993881
0.999603 0.99855 0.995392
0.999603 0.99855 0.995438
0.0735027 0 0.657176
0.0735027 0 0.657176
0.0735027 0 0.65716
0.0734874 0 0.656794
0.344228 0 0.753185
0.763699 0 0.836866
0.976272 0.578485 0.980514
0.992477 0.781353 0.990448
0.993835 0.818006 0.99089
0.0735027 0 0.657176
0.0735027 0 0.657176
0.0735027 0 0.657176
0.0735027 0 0.657176
0.452842 0 0.781231
0.777844 0 0.838376
0.98291 0.640467 0.985412
0.993347 0.801572 0.991852
0.99379 0.815564 0.991897
0.0735027 0 0.657176
0.0735027 0 0.657176
0.0735027 0 0.657176
0.0735027 0 0.657176
0.532906 0 0.797696
0.786068 0 0.837049
0.986603 0.683848 0.987961
0.993652 0.809949 0.992401
0.993744 0.813214 0.992355
0.0735027 0 0.657176
0.0735027 0 0.657176
0.0735027 0 0.657176
0.0735027 0 0.657176
0.594263 0 0.809781
0.822248 0.0135958 0.86363
0.989029 0.718593 0.989563
0.993713 0.811627 0.992569
0.993713 0.811749 0.992554
0.00175479 0.3879 0.822782
0 0.500023 0.863325
0 0.535958 0.87483
0 0.557137 0.881834
0.799237 0.810346 0.973617
0.973175 0.800427 0.983719
0.99086 0.7467 0.990738
0.993698 0.811368 0.992599
0.993698 0.811368 0.992599
0 0.814817 0.929595
0 0.819669 0.930022
0 0.822477 0.930282
0 0.824353 0.930465
0.0428779 0.858213 0.943145
0.991516 0.98854 0.992874
0.998108 0.988342 0.994842
0.998627 0.992432 0.994553
0.998505 0.98822 0.994919
0 0.867979 0.932921
0 0.86981 0.932952
0 0.870909 0.932982
0 0.871641 0.932982
0 0.87216 0.932998
0.987106 0.995926 0.993988
1 0.997086 0.995972
0.999649 0.998337 0.995453
0.999619 0.998459 0.995453
0 0.879713 0.932982
0 0.879713 0.932982
0 0.879713 0.932982
0 0.879713 0.932982
0 0.879713 0.932982
0.957977 0.993469 0.992508
1 0.998047 0.996231
0.999603 0.99855 0.995438
0.999603 0.99855 0.995438
0 0.879713 0.932982
0 0.879713 0.932982
0 0.879713 0.932982
0 0.879713 0.932982
0 0.879713 0.932982
0.966873 0.994369 0.992966
1 0.998093 0.996155
0.999603 0.99855 0.995438
0.999603 0.99855 0.995438
0.0735027 0 0.657176
0.0735027 0 0.657176
0.0735027 0 0.657176
0.0735027 0 0.657176
0.198642 0 0.697307
0.766598 0 0.843
0.975586 0.56437 0.981125
0.992645 0.782467 0.991943
0.993698 0.811368 0.992599
0.0735027 0 0.657176
0.0735027 0 0.657176
0.0735027 0 0.657176
0.0735027 0 0.657176
0.413947 0 0.772747
0.778805 0 0.838376
0.984222 0.652567 0.986404
0.993454 0.803662 0.992432
0.993698 0.811368 0.992599
0.0735027 0 0.657176
0.0735027 0 0.657176
0.0735027 0 0.657176
0.0735027 0 0.657176
0.529671 0 0.797055
0.788861 0 0.838346
0.987503 0.696849 0.988571
0.993667 0.810101 0.992569
0.993698 0.811368 0.992599
0.0735027 0 0.657176
0.0735027 0 0.657176
0.0735027 0 0.657176
0.0735027 0 0.657176
0.59649 0 0.810193
0.844083 0.0259709 0.881621
0.989731 0.728923 0.990021
0.993698 0.811368 0.992599
0.993698 0.811368 0.992599
0.00225834 0.368154 0.815137
0 0.494865 0.861662
0 0.533074 0.873899
0 0.556573 0.881636
0.800046 0.81117 0.973709
0.97319 0.796384 0.983597
0.991302 0.754116 0.991012
0.993698 0.811368 0.992599
0.993698 0.811368 0.992599
0 0.814466 0.92958
0 0.819425 0.929992
0 0.822293 0.930266
0 0.824262 0.930465
0.0476844 0.861982 0.944564
0.991592 0.988602 0.992889
0.998093 0.988128 0.994842
0.998154 0.985794 0.994919
0.998474 0.988022 0.994919
0 0.867918 0.932921
0 0.869764 0.932952
0 0.870878 0.932982
0 0.871626 0.932982
0 0.87216 0.932998
0.987793 0.996017 0.994049
1 0.997101 0.995972
0.999908 0.997375 0.995636
0.999619 0.998459 0.995453
0 0.879713 0.932982
0 0.879713 0.932982
0 0.879713 0.932982
0 0.879713 0.932982
0 0.879713 0.932982
0.961089 0.993744 0.992645
1 0.998062 0.996216
0.999603 0.99855 0.995438
0.999603 0.99855 0.995438
0 0.879713 0.932982
0 0.879713 0.932982
0 0.879713 0.932982
0 0.879713 0.932982
0 0.879713 0.932982
0.96492 0.994156 0.992859
1 0.998077 0.996185
0.999603 0.99855 0.995438
0.999603 0.99855 0.995438
