apps/lut-action/luts/TAM_DAY EXT +0.0.cube
TITLE "Generated by Resolve"
LUT_3D_SIZE 33
0.00953689 0.0103914 0.0099031
0.0122225 0.0117494 0.0109102
0.0177768 0.0149233 0.013138
0.0284428 0.0206455 0.0165408
0.0500191 0.0293889 0.0218509
0.0871748 0.0373693 0.0223087
0.124163 0.0392309 0.0132601
0.164126 0.0411078 0.00508125
0.211978 0.0443427 0.00442512
0.266087 0.04448 0.00479133
0.32929 0.0463417 0.00546273
0.401602 0.0499275 0.00602731
0.46717 0.0505531 0.00665293
0.531838 0.0584573 0.00767529
0.592767 0.0730755 0.00843824
0.652308 0.0943465 0.00987259
0.705364 0.121294 0.0111543
0.759869 0.156954 0.0176394
0.818692 0.19884 0.0413519
0.868116 0.250401 0.0749523
0.90312 0.314076 0.131655
0.930205 0.380697 0.190417
0.951019 0.449073 0.255421
0.965576 0.50988 0.317662
0.975738 0.565148 0.378485
0.983078 0.615015 0.436286
0.987915 0.656229 0.487221
0.991104 0.691402 0.531518
0.993881 0.722194 0.56939
0.995407 0.746303 0.599878
0.996384 0.766659 0.623346
0.996796 0.776135 0.634791
0.996872 0.777737 0.636759
0.00991836 0.0125582 0.0109102
0.0118868 0.0131838 0.0110781
0.016968 0.0157321 0.0127718
0.0275425 0.021622 0.0159762
0.0493172 0.0307317 0.0212406
0.0879988 0.0399176 0.021622
0.12578 0.0416876 0.0120394
0.16701 0.0438392 0.004654
0.216144 0.0469215 0.0043183
0.271458 0.0467536 0.00474556
0.334127 0.0468605 0.00550851
0.4065 0.0499886 0.00605783
0.472023 0.050782 0.00672923
0.536828 0.059556 0.00772107
0.597528 0.0745251 0.00854505
0.65687 0.0965133 0.00991836
0.710216 0.124117 0.0119478
0.764584 0.160449 0.0184634
0.823896 0.203098 0.0446479
0.87155 0.256001 0.0795605
0.905821 0.320104 0.136645
0.932418 0.38735 0.196597
0.95259 0.455146 0.261494
0.96669 0.515541 0.323751
0.976562 0.570367 0.384405
0.983688 0.619532 0.441779
0.988281 0.66006 0.491966
0.991394 0.694743 0.535622
0.99411 0.725139 0.573083
0.995529 0.748653 0.602564
0.99646 0.768597 0.62565
0.996811 0.776547 0.635309
0.996872 0.777737 0.636759
0.010193 0.0171817 0.0133059
0.0124971 0.0172274 0.0129702
0.0162661 0.0180667 0.0131228
0.0255589 0.0227817 0.0153353
0.0470588 0.0322881 0.0203555
0.0870222 0.043595 0.021088
0.125887 0.0457771 0.0111849
0.168429 0.0478828 0.00421149
0.219028 0.0509346 0.00418097
0.275563 0.0510414 0.00463874
0.338079 0.0500343 0.00543221
0.40853 0.0501564 0.00607309
0.474067 0.0508888 0.00675975
0.53901 0.0600443 0.00775158
0.599893 0.0752575 0.00860609
0.659159 0.0975814 0.00993362
0.712703 0.125566 0.0123445
0.767071 0.162295 0.0189059
0.82652 0.205249 0.0462959
0.873381 0.258976 0.082002
0.907271 0.323339 0.139315
0.933623 0.390982 0.199985
0.953475 0.458518 0.264866
0.967285 0.518563 0.326986
0.977035 0.573388 0.387823
0.984039 0.622065 0.444862
0.988495 0.662196 0.494591
0.991562 0.696651 0.537972
0.994247 0.726833 0.575204
0.99559 0.750042 0.60415
0.996521 0.769741 0.626993
0.996826 0.776761 0.635569
0.996872 0.777737 0.636759
0.00961318 0.0256657 0.0172427
0.012726 0.0256046 0.0165255
0.0172427 0.0250858 0.0155947
0.0237888 0.0258793 0.0154879
0.0433356 0.0345464 0.0194705
0.0849622 0.0489357 0.0208438
0.125246 0.051545 0.0103456
0.169924 0.0536812 0.00396735
0.222248 0.0572366 0.0037232
0.279744 0.0575113 0.00411994
0.343542 0.0569009 0.00520333
0.412329 0.0538033 0.00596628
0.475135 0.0509651 0.00677501
0.54023 0.0603189 0.00776684
0.601251 0.0756542 0.00863661
0.660563 0.0982528 0.00994888
0.71429 0.126482 0.012604
0.768704 0.1635 0.0191958
0.828351 0.206744 0.0474556
0.874678 0.261097 0.0837415
0.908278 0.325567 0.141161
0.934462 0.393545 0.202365
0.954101 0.460929 0.267262
0.967727 0.520851 0.329442
0.977371 0.575509 0.390219
0.984298 0.623941 0.44715
0.988647 0.663828 0.496605
0.991684 0.69807 0.539727
0.994339 0.728038 0.57673
0.995651 0.751049 0.60531
0.996536 0.770336 0.62771
0.996826 0.776852 0.635691
0.996872 0.777737 0.636759
0.0049897 0.0411231 0.024155
0.00906386 0.0409247 0.0232395
0.0164187 0.0399481 0.0215763
0.0251469 0.0387121 0.0200198
0.0394293 0.0411078 0.0196231
0.0810712 0.0569162 0.021561
0.123507 0.0603647 0.00975052
0.171481 0.0634165 0.00285344
0.226413 0.0673075 0.00262455
0.285542 0.067277 0.00341802
0.350713 0.0668498 0.00477607
0.420432 0.064332 0.00553903
0.4795 0.0558328 0.00669871
0.540993 0.0604868 0.0077821
0.60209 0.0759136 0.00865187
0.661463 0.0986801 0.00996414
0.715389 0.127138 0.0127871
0.769772 0.164279 0.0193942
0.829618 0.207782 0.0482643
0.875608 0.262608 0.0849775
0.909041 0.327291 0.142596
0.935134 0.39556 0.204227
0.954559 0.46273 0.269062
0.968048 0.522469 0.331182
0.977615 0.577096 0.392035
0.984497 0.625376 0.448905
0.988754 0.665019 0.498085
0.991791 0.699245 0.541161
0.994415 0.72903 0.577966
0.995682 0.751797 0.606165
0.996551 0.770703 0.628153
0.996826 0.776944 0.635782
0.996872 0.777737 0.636759
0.00303655 0.0687419 0.031754
0.0039826 0.0686961 0.0310063
0.00709544 0.0674754 0.0296025
0.0178073 0.0663615 0.0278935
0.0400702 0.0665141 0.0263066
0.0743877 0.0715648 0.0230869
0.120607 0.0776226 0.0105135
0.172824 0.0808728 0.00192264
0.232136 0.0839704 0.00268559
0.293904 0.0834516 0.00343328
0.359579 0.0820172 0.00381476
0.429847 0.0795911 0.00500496
0.491295 0.0728008 0.00605783
0.545129 0.0661021 0.0075227
0.602579 0.076051 0.00866712
0.661997 0.0989395 0.00996414
0.716121 0.127565 0.0129091
0.770626 0.164904 0.0195468
0.83064 0.208621 0.0489052
0.87631 0.263737 0.0859083
0.909636 0.328603 0.143679
0.935607 0.396994 0.20557
0.954925 0.464149 0.270497
0.968322 0.523857 0.332677
0.977813 0.578393 0.3935
0.984649 0.626566 0.45034
0.988846 0.666026 0.499306
0.991852 0.700114 0.542229
0.994461 0.729717 0.578851
0.995712 0.752422 0.606867
0.996567 0.770993 0.628519
0.996841 0.777005 0.635859
0.996872 0.777737 0.636759
0.00209049 0.0955215 0.0339055
0.00248722 0.0953841 0.0332799
0.00331121 0.0937209 0.0319219
0.00537118 0.0915541 0.0302281
0.0155184 0.0908217 0.0283665
0.0560311 0.0941787 0.0247044
0.114107 0.100603 0.0129549
0.170443 0.105013 0.00175479
0.23534 0.110262 0.00105287
0.303517 0.11162 0.0016022
0.372732 0.109911 0.00289921
0.443534 0.105684 0.0041352
0.504936 0.0968032 0.00500496
0.558053 0.0871748 0.00634775
0.606226 0.0817273 0.00848402
0.662348 0.0991073 0.00996414
0.716564 0.127825 0.0129854
0.771221 0.165347 0.0196536
0.831327 0.209155 0.0493324
0.876829 0.264591 0.0866102
0.910063 0.329534 0.144457
0.935988 0.398154 0.206638
0.955215 0.465217 0.27155
0.968536 0.524926 0.333822
0.977996 0.579477 0.39472
0.984771 0.627482 0.451469
0.988937 0.66688 0.500359
0.991928 0.700816 0.543099
0.994492 0.730282 0.579614
0.995743 0.752926 0.607446
0.996582 0.771267 0.62884
0.996841 0.777066 0.635935
0.996872 0.777737 0.636759
0.000411994 0.124895 0.0358892
0.000671397 0.12517 0.035584
0.00114443 0.123598 0.0346838
0.00283818 0.120241 0.0325322
0.00570687 0.116411 0.0293431
0.0229648 0.116976 0.0257725
0.0962234 0.125521 0.0161898
0.164157 0.132845 0.000686656
0.235142 0.140795 0.000686656
0.3084 0.145464 0.000991836
0.383398 0.146929 0.000747692
0.458793 0.145663 0.00218204
0.525216 0.138705 0.00358587
0.577371 0.125444 0.00526436
0.621927 0.111757 0.00688182
0.665644 0.105745 0.00944533
0.716716 0.127901 0.0130007
0.771542 0.165576 0.0197147
0.83183 0.209552 0.0496681
0.877195 0.265171 0.0870832
0.910414 0.330312 0.145098
0.936294 0.399039 0.207462
0.955444 0.466133 0.272465
0.968688 0.525765 0.334707
0.978119 0.58027 0.395621
0.984878 0.628229 0.452369
0.988998 0.667567 0.501213
0.991974 0.701411 0.543816
0.994522 0.730724 0.580194
0.995758 0.753338 0.607919
0.996597 0.771466 0.629099
0.996841 0.777111 0.635996
0.996872 0.777737 0.636759
0.000457771 0.162692 0.0413062
0.000564584 0.163714 0.0412299
0.00102235 0.16257 0.0404364
0.00204471 0.158633 0.0384375
0.00366217 0.15169 0.0338293
0.00782788 0.145312 0.0264439
0.0601663 0.149645 0.0147555
0.146807 0.161364 0.00111391
0.228519 0.174701 0.000122072
0.310216 0.183825 0.000137331
0.389807 0.188602 0.000656138
0.469306 0.191073 0.000656138
0.543587 0.189181 0.00155642
0.601877 0.18117 0.00302129
0.647227 0.167224 0.00483711
0.683589 0.147845 0.00674449
0.719676 0.136126 0.0123751
0.771572 0.165591 0.0197299
0.832059 0.20972 0.0498207
0.877455 0.265583 0.0874189
0.910643 0.330816 0.145495
0.936522 0.399725 0.208118
0.955612 0.466789 0.273121
0.968841 0.526467 0.33547
0.978241 0.581033 0.39649
0.98497 0.628901 0.453178
0.989044 0.668101 0.5019
0.992035 0.70193 0.544457
0.994553 0.731106 0.580713
0.995773 0.753689 0.608316
0.996597 0.771649 0.629328
0.996841 0.777142 0.636042
0.996872 0.777737 0.636759
0 0.211505 0.0512245
0 0.213092 0.0514076
0 0.213184 0.0510414
1.5259e-05 0.209491 0.0492714
0.00125124 0.201129 0.0446937
0.00442512 0.188159 0.0314336
0.0199435 0.17908 0.00944533
0.110491 0.19176 0.000122072
0.21001 0.211124 0
0.304982 0.225223 9.15541e-05
0.394186 0.23331 4.57771e-05
0.477089 0.238834 0.000396735
0.557183 0.241978 0.000732433
0.621973 0.239063 0.00128176
0.673823 0.232456 0.00224308
0.712489 0.220859 0.0037232
0.740581 0.198535 0.0065919
0.773861 0.176242 0.0176394
0.83212 0.209735 0.0498512
0.877607 0.265827 0.0876173
0.910842 0.331243 0.145846
0.936706 0.400275 0.208606
0.955749 0.467308 0.273625
0.968933 0.526955 0.335988
0.978317 0.581582 0.397116
0.985031 0.629374 0.453758
0.98909 0.668482 0.502388
0.992065 0.702327 0.544945
0.994568 0.731441 0.58117
0.995789 0.753994 0.608667
0.996612 0.771801 0.629496
0.996841 0.777188 0.636088
0.996872 0.777737 0.636759
0 0.269245 0.0638132
0 0.271244 0.0640726
0 0.272251 0.0641489
0 0.271229 0.0636454
0.000656138 0.263066 0.0608377
0.00187686 0.248859 0.0508278
0.00704967 0.225864 0.0165255
0.0546426 0.225376 0
0.178164 0.248585 0
0.287861 0.268925 0
0.39263 0.282078 3.0518e-05
0.484688 0.290761 1.5259e-05
0.56817 0.297246 0.000244144
0.638254 0.29929 0.00077821
0.696193 0.297795 0.00103761
0.739727 0.292775 0.00158694
0.771298 0.282185 0.00271611
0.795102 0.257023 0.00732433
0.833799 0.223529 0.0466621
0.877546 0.265705 0.0875105
0.910903 0.33135 0.145922
0.936782 0.400473 0.208804
0.955886 0.467781 0.274098
0.969024 0.527413 0.336477
0.978378 0.581918 0.397498
0.985077 0.629755 0.454215
0.98912 0.668833 0.502846
0.992096 0.702663 0.545357
0.994583 0.731701 0.581491
0.995804 0.754253 0.608972
0.996612 0.771923 0.629664
0.996841 0.777203 0.636118
0.996872 0.777737 0.636759
0 0.3299 0.0723735
0 0.33193 0.0725872
0 0.333028 0.0727092
0 0.333547 0.0727703
1.5259e-05 0.332113 0.0725109
0.000396735 0.319875 0.0698558
0.0030518 0.296315 0.0513161
0.014847 0.267979 0.00416571
0.12311 0.286931 0
0.259236 0.312795 0
0.379019 0.331899 0
0.48716 0.3449 0
0.577157 0.35375 0
0.65153 0.359915 0.000167849
0.714916 0.36405 0.00047303
0.763302 0.363897 0.000701915
0.799496 0.359319 0.00112917
0.825895 0.350042 0.00157168
0.846647 0.325734 0.0132753
0.878599 0.284245 0.0798352
0.910857 0.331258 0.14583
0.936828 0.40061 0.208927
0.955932 0.467948 0.274266
0.969055 0.527611 0.33669
0.978424 0.582238 0.397848
0.985122 0.630014 0.454551
0.989136 0.669123 0.503212
0.992126 0.702922 0.545678
0.994598 0.731884 0.58175
0.995819 0.754467 0.609216
0.996612 0.77203 0.629786
0.996841 0.777234 0.636149
0.996872 0.777737 0.636759
0 0.384695 0.0751659
0 0.386358 0.0751049
0 0.387243 0.0750744
0 0.387808 0.0750439
0 0.388113 0.0750286
0 0.386481 0.0749676
7.62951e-05 0.373587 0.0737621
0.00517281 0.337621 0.0374304
0.0397803 0.322164 0
0.207996 0.355184 0
0.355001 0.381628 0
0.479866 0.40032 0
0.58529 0.412955 0
0.664668 0.420829 0
0.73022 0.428367 0
0.783307 0.433204 3.0518e-05
0.82443 0.433585 0.000320439
0.85272 0.430213 0.000701915
0.871855 0.423102 0.00117494
0.892714 0.404044 0.0345617
0.912551 0.355093 0.137606
0.936797 0.400473 0.208804
0.955932 0.467933 0.274266
0.969085 0.527764 0.336858
0.978454 0.582406 0.398047
0.985138 0.630243 0.454826
0.989166 0.669352 0.503502
0.992142 0.70312 0.545922
0.994598 0.732082 0.582025
0.995819 0.754635 0.6094
0.996628 0.772122 0.629877
0.996841 0.777249 0.636179
0.996872 0.777737 0.636759
0 0.427543 0.0722362
0 0.428901 0.0720989
0 0.429648 0.0720378
0 0.430213 0.0719768
0 0.430579 0.0719463
0 0.430747 0.071931
0 0.42977 0.0719921
0.00115969 0.417197 0.071046
0.00848402 0.37731 0.0190738
0.101381 0.387915 0
0.307301 0.427466 0
0.460563 0.453605 0
0.584131 0.471107 0
0.676875 0.481849 0
0.744015 0.489097 0
0.798901 0.497841 0
0.844892 0.504417 0
0.87509 0.505638 0
0.895338 0.503456 0.000274662
0.910536 0.500053 0.00216678
0.926436 0.487312 0.0628214
0.938308 0.432151 0.198688
0.955917 0.467826 0.274144
0.96907 0.527718 0.336812
0.978485 0.582528 0.398184
0.985153 0.630381 0.454994
0.989166 0.669474 0.503655
0.992157 0.703304 0.546136
0.994614 0.732219 0.582193
0.995834 0.754757 0.609537
0.996628 0.772183 0.629984
0.996841 0.777279 0.636194
0.996872 0.777737 0.636759
0 0.462486 0.068864
0 0.463645 0.0687419
0 0.464347 0.0686656
0 0.464851 0.0686046
0 0.465278 0.068574
0 0.465461 0.0685435
0 0.465614 0.0685283
0 0.465202 0.0685435
0.00178531 0.452338 0.0646067
0.0177768 0.419287 0.00840772
0.183185 0.458122 0
0.410559 0.499611 0
0.567468 0.525414 0
0.6813 0.540291 0
0.758846 0.548501 0
0.809705 0.554543 0
0.857649 0.565774 0
0.891783 0.573068 0
0.91487 0.576349 0
0.929992 0.577325 0.000274662
0.941756 0.576761 0.0112917
0.951141 0.572106 0.128023
0.957214 0.512078 0.261372
0.969055 0.527611 0.336675
0.978469 0.582498 0.398154
0.985138 0.630365 0.454978
0.989181 0.66949 0.503685
0.992172 0.703395 0.546258
0.994614 0.732296 0.5823
0.995834 0.754833 0.609628
0.996628 0.772244 0.630045
0.996841 0.777279 0.63621
0.996872 0.777737 0.636759
0 0.493278 0.0650797
0 0.494377 0.0649271
0 0.495018 0.0648356
0 0.495537 0.0647593
0 0.495872 0.0646982
0 0.496193 0.0646525
0 0.496361 0.0646372
0 0.496452 0.064622
0 0.496361 0.0645914
0.00289921 0.480766 0.0502632
0.0432898 0.468559 0
0.302281 0.528557 0
0.517311 0.570687 0
0.666606 0.594751 0
0.767178 0.605707 0
0.824903 0.610346 0
0.864317 0.617746 0
0.901396 0.63032 0
0.928344 0.638361 0
0.945052 0.643015 0
0.954879 0.644694 0.000213626
0.962371 0.647242 0.0253147
0.96759 0.649531 0.19263
0.970459 0.584268 0.320668
0.978439 0.582269 0.397879
0.985138 0.63032 0.454917
0.989181 0.669474 0.50367
0.992172 0.70341 0.546258
0.994614 0.732311 0.582315
0.995834 0.754894 0.609705
0.996628 0.772274 0.630076
0.996841 0.777295 0.636225
0.996872 0.777737 0.636759
0 0.51986 0.0607767
0 0.520851 0.0606088
0 0.521401 0.060502
0 0.521843 0.0604257
0 0.522179 0.0603647
0 0.522469 0.0603037
0 0.522637 0.0602731
0 0.522789 0.0602579
0 0.522805 0.0602579
0 0.522759 0.0602121
0.0061799 0.507057 0.0432746
0.10161 0.52517 0
0.417014 0.59791 0
0.622339 0.638529 0
0.755352 0.657084 0
0.83267 0.663172 0
0.875898 0.667445 0
0.905409 0.676478 0
0.9355 0.689693 0
0.955917 0.698512 0
0.967529 0.704799 0
0.973892 0.709255 0.000610361
0.978576 0.721141 0.111009
0.979492 0.720958 0.256489
0.97998 0.649683 0.378317
0.985092 0.630106 0.454643
0.989166 0.669398 0.503563
0.992172 0.703365 0.546212
0.994614 0.732296 0.5823
0.995834 0.754879 0.609689
0.996628 0.772259 0.630076
0.996841 0.777295 0.636225
0.996872 0.777737 0.636759
0 0.542748 0.0563363
0 0.543572 0.0561379
0 0.544121 0.0560159
0 0.544503 0.0559396
0 0.544808 0.0558633
0 0.545052 0.0558175
0 0.545251 0.0557717
0 0.545403 0.0557412
0 0.54548 0.0557259
0 0.545495 0.0557107
0 0.545464 0.0556649
0.00895705 0.53315 0.0260624
0.185916 0.583963 0
0.52987 0.662531 0
0.719265 0.699214 0
0.823896 0.71107 0
0.882734 0.715267 0
0.914595 0.71928 0
0.935973 0.728908 0
0.961486 0.743191 0
0.97734 0.753841 0
0.985809 0.764248 0
0.989303 0.773312 0.029572
0.989471 0.784909 0.179736
0.988251 0.784039 0.31284
0.986618 0.722255 0.427848
0.989151 0.669184 0.503288
0.992157 0.703212 0.546029
0.994614 0.73225 0.582238
0.995834 0.754849 0.609644
0.996628 0.772244 0.630045
0.996841 0.77731 0.63624
0.996872 0.777737 0.636759
0 0.56202 0.0520333
0 0.562722 0.0518807
0 0.563149 0.0517891
0 0.563516 0.0517128
0 0.563806 0.0516518
0 0.564019 0.051606
0 0.564187 0.0515755
0 0.564324 0.051545
0 0.564446 0.0515145
0 0.564477 0.0514992
0 0.564492 0.0514992
1.5259e-05 0.564446 0.0514229
0.01561 0.557504 0.016968
0.300374 0.645808 0
0.637812 0.72221 0
0.797482 0.749065 0
0.877806 0.757549 0
0.920302 0.761486 0
0.940963 0.763943 0
0.958953 0.774533 0
0.982788 0.792081 0
0.993912 0.810605 0
0.9953 0.819989 0.000595102
0.99588 0.829572 0.0804913
0.995636 0.838453 0.2477
0.994278 0.837674 0.36466
0.992187 0.806653 0.464103
0.992142 0.702983 0.545739
0.994598 0.732097 0.582025
0.995834 0.754757 0.609552
0.996628 0.772213 0.629999
0.996841 0.777295 0.636225
0.996872 0.777737 0.636759
0 0.578576 0.0488136
0 0.579232 0.0487068
0 0.579644 0.0486458
0 0.57998 0.0485847
0 0.58024 0.0485389
0 0.580468 0.0485084
0 0.580636 0.0484779
0 0.580758 0.0484627
0 0.58088 0.0484321
0 0.580957 0.0484169
0 0.580987 0.0484169
0 0.581003 0.0484169
0.000106813 0.580926 0.0483253
0.037995 0.587366 0.0173342
0.43032 0.705745 0
0.732067 0.772305 0
0.859983 0.79118 0
0.917418 0.796826 0
0.945998 0.798978 0
0.95993 0.800351 0
0.977157 0.813642 0
0.994949 0.837156 0
0.99585 0.846159 0
0.996307 0.854627 0.0146639
0.996948 0.867628 0.177844
0.997238 0.874922 0.303426
0.997024 0.87686 0.409003
0.995895 0.8636 0.495811
0.995056 0.783581 0.569696
0.995819 0.754589 0.609354
0.996628 0.772122 0.629892
0.996841 0.777295 0.63621
0.996872 0.777737 0.636759
0 0.593713 0.0465095
0 0.594324 0.0464179
0 0.594705 0.0463569
0 0.59501 0.0463111
0 0.59527 0.0462654
0 0.595483 0.0462348
0 0.595651 0.0462043
0 0.595804 0.0461891
0 0.595911 0.0461738
0 0.596002 0.0461585
0 0.596078 0.0461433
0 0.596109 0.0461433
0 0.596109 0.0461433
0.000503548 0.596017 0.0460365
0.0656443 0.622263 0.0175174
0.559426 0.760327 0
0.812436 0.81236 0
0.904509 0.823911 0
0.945296 0.828077 0
0.964828 0.830076 0
0.974243 0.831006 0
0.990707 0.848386 0
0.995865 0.862776 0
0.996185 0.871565 0
0.996857 0.88397 0.0892653
0.997253 0.895064 0.242145
0.997635 0.901686 0.349416
0.998032 0.905211 0.442924
0.997955 0.901518 0.516548
0.997162 0.868833 0.576806
0.996689 0.800488 0.624063
0.996841 0.777279 0.636194
0.996872 0.777737 0.636759
0 0.60763 0.0440375
0 0.608194 0.0439155
0 0.608591 0.0438392
0 0.608865 0.0437781
0 0.609125 0.0437171
0 0.609323 0.0436866
0 0.609491 0.0436408
0 0.609644 0.0436103
0 0.609781 0.0435798
0 0.609857 0.0435645
0 0.609934 0.0435492
0 0.609979 0.0435492
0 0.61001 0.043534
0 0.61001 0.043534
0.00131228 0.609705 0.0433967
0.123674 0.65803 0.0141451
0.672496 0.806165 0
0.87155 0.8421 0
0.937774 0.849424 0
0.966003 0.852323 0
0.978256 0.853956 0
0.985641 0.855695 0
0.994842 0.870466 0
0.996155 0.881651 0
0.996612 0.892226 0.00656138
0.997162 0.906676 0.157198
0.99762 0.916777 0.296239
0.997971 0.92224 0.386923
0.998291 0.925292 0.462318
0.998627 0.925246 0.525277
0.998718 0.919707 0.5729
0.998215 0.884108 0.603037
0.997131 0.846052 0.621714
0 0.620706 0.0411841
0 0.621256 0.041062
0 0.621622 0.0409705
0 0.621897 0.0409094
0 0.622141 0.0408484
0 0.622324 0.0408026
0 0.622507 0.0407568
0 0.622644 0.0407263
0 0.622782 0.0406958
0 0.622858 0.0406806
0 0.622965 0.04065
0 0.623011 0.04065
0 0.623056 0.0406348
0 0.623072 0.0406348
0 0.623056 0.0406348
0.00129702 0.622568 0.0387579
0.2374 0.696284 0
0.770504 0.841672 0
0.915572 0.863127 0
0.962539 0.869459 0
0.980514 0.872816 0
0.990265 0.876112 0
0.993606 0.878035 0
0.995911 0.886717 0
0.996414 0.897505 0
0.996994 0.910277 0.0256809
0.997513 0.924743 0.213397
0.997894 0.933333 0.334874
0.998215 0.938521 0.416403
0.998535 0.941512 0.477989
0.998795 0.942275 0.525216
0.998901 0.939086 0.549142
0.998947 0.933165 0.564004
0 0.632532 0.0381933
0 0.633005 0.0380713
0 0.633356 0.0379797
0 0.633616 0.0379187
0 0.633829 0.0378576
0 0.634012 0.0378119
0 0.63418 0.0377661
0 0.634302 0.0377203
0 0.634424 0.0376898
0 0.634531 0.0376745
0 0.634623 0.037644
0 0.634668 0.0376287
0 0.634745 0.0376135
0 0.63476 0.0376135
0 0.63476 0.0376135
0 0.634745 0.0376135
0.00140383 0.634791 0.0353094
0.338796 0.745205 0
0.847852 0.866743 0
0.948714 0.880446 0
0.97911 0.885069 0
0.99173 0.88983 0
0.995102 0.892744 0
0.99588 0.892836 0
0.996338 0.898192 0
0.996658 0.909163 9.15541e-05
0.997223 0.923537 0.0480354
0.997772 0.937057 0.255726
0.998123 0.945083 0.363714
0.998459 0.949783 0.435584
0.998734 0.952697 0.48574
0.998825 0.952117 0.506325
0.99884 0.950225 0.515236
0 0.643503 0.0352789
0 0.643961 0.0351415
0 0.644282 0.0350652
0 0.644511 0.0350042
0 0.644724 0.0349432
0 0.644907 0.0348821
0 0.64506 0.0348516
0 0.645197 0.0348058
0 0.645319 0.0347753
0 0.645411 0.0347448
0 0.645502 0.0347295
0 0.645579 0.034699
0 0.645624 0.034699
0 0.645655 0.0346838
0 0.645685 0.0346838
0 0.645685 0.0346838
0 0.645655 0.0346838
0.00204471 0.646418 0.0334783
0.494987 0.805112 0
0.907485 0.884596 0
0.97116 0.893584 0
0.991684 0.900298 0
0.995636 0.903899 0
0.996048 0.90367 0
0.996292 0.9028 0
0.996551 0.906889 0
0.996872 0.919417 0.000183108
0.997528 0.934142 0.0831311
0.997955 0.946426 0.278294
0.998352 0.953201 0.37496
0.998627 0.95758 0.441337
0.998734 0.958602 0.467872
0.998749 0.958038 0.47689
0 0.653025 0.0325017
0 0.653407 0.0323796
0 0.653666 0.0323033
0 0.65388 0.0322423
0 0.654047 0.0321965
0 0.654215 0.0321355
0 0.654337 0.032105
0 0.654459 0.0320592
0 0.654551 0.0320439
0 0.654643 0.0320134
0 0.654719 0.0319829
0 0.65478 0.0319677
0 0.654841 0.0319524
0 0.654887 0.0319371
0 0.654887 0.0319371
0 0.654917 0.0319219
0 0.654902 0.0319219
0 0.654871 0.0319371
0.0102083 0.654429 0.0294652
0.712474 0.858228 0
0.946288 0.897505 0
0.988296 0.90631 0
0.995575 0.910903 0
0.996017 0.911101 0
0.996262 0.910613 0
0.99649 0.909926 0
0.996719 0.913893 0
0.99707 0.926711 0
0.997757 0.941604 0.119814
0.998154 0.951888 0.280262
0.998489 0.957931 0.370214
0.998611 0.959884 0.405158
0.998627 0.960128 0.416861
0 0.661448 0.0299229
0 0.661799 0.0298161
0 0.662043 0.0297398
0 0.662242 0.0296788
0 0.66244 0.0296178
0 0.662577 0.0295872
0 0.662715 0.0295415
0 0.662821 0.0295109
0 0.662928 0.0294804
0 0.662989 0.0294499
0 0.663081 0.0294194
0 0.663127 0.0294041
0 0.663188 0.0293889
0 0.663233 0.0293736
0 0.663264 0.0293736
0 0.663279 0.0293584
0 0.663279 0.0293584
0 0.663264 0.0293736
0 0.663233 0.0293736
0.0523842 0.698131 0.0142519
0.844495 0.889143 0
0.97528 0.90869 0
0.995148 0.916609 0
0.995956 0.91722 0
0.996231 0.917067 0
0.99646 0.916579 0
0.996674 0.915938 0
0.996887 0.919493 0
0.997238 0.931914 3.0518e-05
0.997879 0.945556 0.108248
0.998291 0.955047 0.263249
0.998444 0.958099 0.315709
0.998489 0.95874 0.331701
0 0.669261 0.0275273
0 0.669596 0.0274205
0 0.669825 0.0273594
0 0.670024 0.0272984
0 0.670176 0.0272526
0 0.670329 0.0272068
0 0.670436 0.0271763
0 0.670542 0.0271305
0 0.670634 0.0271
