apps/lut-action/luts/TAM_NIGHT EXT +0.0.cube
TITLE "Generated by Resolve"
LUT_3D_SIZE 33
0.0100557 0.0117494 0.0117037
0.01149 0.0122072 0.0118868
0.0133211 0.0129244 0.012192
0.0147555 0.0132601 0.0121004
0.0167239 0.014313 0.0126192
0.0222477 0.0170596 0.0141604
0.0308385 0.0212558 0.0167391
0.0440833 0.0263523 0.0193484
0.0644694 0.0310979 0.0194858
0.0862287 0.0334173 0.0156405
0.109041 0.0343786 0.00700389
0.133242 0.037171 0
0.162066 0.0415198 0
0.195941 0.0447089 0
0.235126 0.0471351 0
0.414069 0.0625925 0
0.468132 0.0755779 0
0.52108 0.0943008 0
0.569329 0.117708 0
0.619516 0.149096 0
0.676204 0.187335 0.0208438
0.720745 0.238117 0.0506752
0.758389 0.29897 0.109636
0.792813 0.366644 0.177325
0.822049 0.431983 0.244572
0.84683 0.493248 0.311208
0.871702 0.552193 0.377798
0.896452 0.604883 0.439872
0.915953 0.650401 0.494209
0.931975 0.689647 0.540703
0.943725 0.720424 0.576226
0.951812 0.742229 0.600977
0.953216 0.746197 0.605631
0.010193 0.0142977 0.0130007
0.0118868 0.0145571 0.0130159
0.0140688 0.0149233 0.0132296
0.0165103 0.0156252 0.0135805
0.0191043 0.0165103 0.0140536
0.0250401 0.0199893 0.0158541
0.0353704 0.024567 0.018677
0.0516976 0.0298619 0.0204013
0.0737621 0.0348516 0.0197452
0.0962234 0.035996 0.0140841
0.119173 0.0375219 0.00401312
0.145525 0.0410163 0
0.176684 0.0450904 0
0.212879 0.0480201 0
0.254536 0.0506905 0
0.427115 0.0653697 0
0.480644 0.0795148 0
0.532876 0.0995651 0
0.582071 0.12459 0
0.63241 0.157748 0.00158694
0.688518 0.19855 0.0266423
0.730648 0.253147 0.0648508
0.767483 0.315679 0.126467
0.801114 0.384405 0.195178
0.828916 0.448432 0.262104
0.852796 0.50898 0.328817
0.87924 0.567483 0.395605
0.902174 0.617929 0.455421
0.920897 0.662089 0.507836
0.935195 0.69839 0.55169
0.946715 0.728298 0.585
0.952438 0.743999 0.603052
0.953216 0.746197 0.605631
0.0105745 0.0188144 0.0152895
0.0126802 0.0188754 0.0150912
0.0140993 0.0171054 0.0139315
0.0171664 0.0179751 0.0144808
0.0212863 0.0197604 0.0154574
0.0287938 0.0236973 0.0179446
0.0411536 0.0286717 0.0206607
0.0602426 0.0348974 0.0218509
0.08336 0.0387732 0.0192111
0.106279 0.039826 0.0121004
0.130297 0.0417792 0.0012665
0.158923 0.0455482 0
0.192309 0.0493935 0
0.230823 0.0524758 0
0.27599 0.0559701 0
0.43888 0.0680858 0
0.492256 0.0833448 0
0.543526 0.104509 0
0.593027 0.131426 0
0.646021 0.166232 0.00732433
0.698665 0.209583 0.0314794
0.739727 0.267124 0.079118
0.775601 0.331395 0.142168
0.80795 0.399664 0.21091
0.834821 0.463004 0.27779
0.858061 0.522957 0.344533
0.885222 0.580194 0.410681
0.906935 0.629084 0.469032
0.925109 0.67219 0.519677
0.938201 0.706127 0.560433
0.949111 0.734798 0.592371
0.952865 0.745174 0.60444
0.953216 0.746197 0.605631
0.00944533 0.0271611 0.0196078
0.0124514 0.0272679 0.0192721
0.0156252 0.0235447 0.0168612
0.0175479 0.0212558 0.0155489
0.0222629 0.0228885 0.016556
0.0315557 0.0275425 0.0196384
0.0488289 0.0346838 0.0228428
0.0714733 0.0418555 0.0231022
0.0932174 0.043534 0.0183108
0.116335 0.0447089 0.0099794
0.143008 0.0472267 0
0.173846 0.051606 0
0.209689 0.0555886 0
0.250645 0.0590524 0
0.299962 0.0612802 0
0.349554 0.0601205 0
0.503136 0.0872663 0
0.55314 0.1093 0
0.603357 0.138216 0
0.658747 0.17438 0.0126955
0.707927 0.221012 0.038407
0.7476 0.280339 0.0917983
0.783276 0.3467 0.157336
0.814404 0.414145 0.225803
0.840223 0.476555 0.292729
0.863569 0.536141 0.359472
0.890669 0.591989 0.42472
0.911254 0.639277 0.481163
0.928603 0.680949 0.530098
0.941009 0.713375 0.568444
0.950622 0.738918 0.597116
0.953109 0.745892 0.605264
0.953216 0.746197 0.605631
0.00520333 0.041062 0.0260777
0.00903334 0.0413367 0.0256504
0.0154269 0.0382391 0.0235904
0.0195926 0.029221 0.0192874
0.0242924 0.0289006 0.0191501
0.0357671 0.0337224 0.0217136
0.0581216 0.0444953 0.0261845
0.0839246 0.0513771 0.0248722
0.103517 0.0505989 0.0168307
0.127947 0.05243 0.00720226
0.157488 0.055848 0
0.191119 0.0603647 0
0.229587 0.06421 0
0.273701 0.067155 0
0.325567 0.0685893 0
0.372824 0.0666972 0
0.513832 0.09131 0
0.562753 0.114168 0
0.613565 0.145052 0
0.670192 0.182849 0.0180514
0.716594 0.232578 0.0464942
0.755306 0.293278 0.103838
0.790295 0.361257 0.171908
0.820157 0.427573 0.239948
0.84535 0.489494 0.307042
0.870207 0.549172 0.374289
0.895445 0.602609 0.437201
0.915297 0.648859 0.492393
0.93164 0.688746 0.539559
0.943511 0.719829 0.57557
0.951751 0.742061 0.600778
0.953216 0.746197 0.605631
0.953216 0.746197 0.605631
0.0033875 0.0654307 0.0333104
0.00451667 0.0656443 0.0328832
0.00856031 0.0635843 0.0315557
0.0199741 0.0518807 0.0275883
0.0277714 0.0444038 0.0250095
0.041062 0.0478218 0.0259403
0.0674144 0.057969 0.0285954
0.0968185 0.0648051 0.0258183
0.117311 0.0638437 0.01561
0.141695 0.0649577 0.00357061
0.17464 0.0688945 0
0.21181 0.0729229 0
0.253025 0.0748302 0
0.299779 0.0769665 0
0.351232 0.0780957 0
0.39765 0.0767071 0
0.523751 0.0955062 0
0.572976 0.119677 0
0.623713 0.151934 0
0.681361 0.191135 0.0232395
0.724865 0.244327 0.0563363
0.762478 0.306477 0.117235
0.796857 0.37528 0.185992
0.825772 0.440711 0.253773
0.850095 0.501839 0.320836
0.876097 0.561059 0.388113
0.900084 0.613031 0.449454
0.919127 0.657877 0.502937
0.934127 0.695491 0.548028
0.945876 0.72604 0.582452
0.952285 0.743557 0.602548
0.953216 0.746197 0.605631
0.953216 0.746197 0.605631
0.00225834 0.0899214 0.0358282
0.00262455 0.0899214 0.0353246
0.00367742 0.0883497 0.0342565
0.00737011 0.0809491 0.0330205
0.0245518 0.0737011 0.0324559
0.0455177 0.0728923 0.0322271
0.0734417 0.078645 0.030808
0.108507 0.0862745 0.0258335
0.137102 0.0877241 0.0137484
0.161166 0.0859083 0
0.194659 0.0874037 0
0.236179 0.0908217 0
0.280629 0.0934768 0
0.330159 0.0953078 0
0.380179 0.0944839 0
0.424369 0.0919966 0
0.533349 0.0998398 0
0.583078 0.125139 0
0.634379 0.158938 0.00250248
0.690379 0.20058 0.0275273
0.732631 0.256168 0.0679179
0.769558 0.319493 0.130251
0.803067 0.388754 0.19968
0.830793 0.453071 0.267109
0.854704 0.513985 0.334401
0.88159 0.572427 0.401434
0.904112 0.622461 0.460945
0.922805 0.666621 0.513115
0.936584 0.701991 0.555856
0.947906 0.731502 0.588632
0.952697 0.744717 0.603906
0.953216 0.746197 0.605631
0.953216 0.746197 0.605631
0.00117494 0.114534 0.0372931
0.0019379 0.115038 0.0371252
0.00314336 0.113802 0.0361791
0.00546273 0.107271 0.0342565
0.00944533 0.0989242 0.0326085
0.0308385 0.096025 0.031632
0.0716259 0.100984 0.0292515
0.114473 0.108248 0.0229953
0.15642 0.1149 0.0105898
0.188983 0.114214 0
0.221881 0.113695 0
0.26186 0.11548 0
0.310628 0.1187 0
0.362692 0.121401 0
0.414008 0.121904 0
0.456764 0.119036 0
0.543328 0.105394 0
0.592523 0.131151 0
0.646052 0.166232 0.00737011
0.699092 0.21001 0.031632
0.740307 0.268116 0.0800641
0.77644 0.333074 0.143847
0.808896 0.40177 0.213062
0.835813 0.465431 0.2804
0.859022 0.525551 0.347494
0.886458 0.582864 0.413855
0.908064 0.631769 0.472297
0.926085 0.674647 0.522591
0.939055 0.708354 0.56289
0.949813 0.736706 0.594553
0.952941 0.745434 0.60473
0.953216 0.746197 0.605631
0.953216 0.746197 0.605631
0.000671397 0.145251 0.040238
0.00109865 0.146304 0.0402991
0.00154116 0.145678 0.0396887
0.002121 0.139971 0.0373999
0.00415045 0.128283 0.0332189
0.0129702 0.120943 0.0303349
0.057145 0.124376 0.0267185
0.11519 0.132906 0.0151827
0.165667 0.141558 0.00315862
0.219944 0.150744 0.00141909
0.257038 0.148867 0
0.293538 0.147326 0
0.340993 0.149691 0
0.396033 0.154147 0
0.449348 0.156603 0
0.492119 0.155901 0
0.562676 0.130236 0
0.602167 0.137636 0
0.657786 0.173724 0.0122225
0.707515 0.220462 0.0380407
0.747524 0.280201 0.0916609
0.783429 0.347005 0.157626
0.814633 0.414694 0.226398
0.840574 0.477455 0.293721
0.864286 0.53753 0.361028
0.891264 0.593332 0.426291
0.911864 0.640696 0.482826
0.929183 0.682383 0.531807
0.941512 0.714656 0.569863
0.950866 0.739605 0.597925
0.95317 0.746059 0.605463
0.953216 0.746197 0.605631
0.953216 0.746197 0.605631
0 0.187945 0.0482948
0 0.189609 0.0486458
0.000213626 0.189654 0.0483253
0.000671397 0.184894 0.0465248
0.00381476 0.170962 0.040177
0.00677501 0.155093 0.0302739
0.0396429 0.152483 0.0211337
0.109514 0.160418 0.00708019
0.171695 0.174426 0.000671397
0.23743 0.189441 0.000549325
0.29781 0.196979 0.000335698
0.339178 0.193256 0
0.381094 0.192096 0
0.432822 0.195483 0
0.486137 0.199313 0
0.530175 0.201236 0
0.594553 0.182895 0
0.617578 0.161471 0
0.668711 0.181704 0.0173648
0.715785 0.231464 0.045655
0.754849 0.292454 0.103014
0.790051 0.360769 0.171405
0.820142 0.427527 0.239902
0.845472 0.489815 0.307408
0.870466 0.549706 0.374914
0.895766 0.603342 0.438071
0.915648 0.649668 0.493355
0.931914 0.689494 0.540505
0.943832 0.720668 0.576501
0.951919 0.74255 0.601358
0.953216 0.746197 0.605631
0.953216 0.746197 0.605631
0.953216 0.746197 0.605631
0 0.242695 0.0601816
0 0.245151 0.0608225
0 0.246357 0.0611124
0 0.243229 0.0599832
0.00138857 0.229496 0.0541085
0.00418097 0.205875 0.0360876
0.0151064 0.189181 0.00936904
0.087892 0.197818 0.000350958
0.172091 0.214939 0.0010071
0.249058 0.233112 9.15541e-05
0.329442 0.248142 0.000198367
0.389914 0.249378 0
0.435538 0.24683 0
0.480888 0.247257 0
0.525216 0.249943 0
0.570459 0.254673 0
0.631159 0.244846 0
0.650492 0.227893 0
0.680964 0.195926 0.021149
0.723918 0.242893 0.0550393
0.761883 0.305394 0.116152
0.796536 0.374548 0.185275
0.825589 0.440284 0.253315
0.85008 0.501808 0.320806
0.876204 0.561273 0.388373
0.900221 0.613367 0.449866
0.919326 0.658366 0.503502
0.934295 0.695949 0.548623
0.946059 0.726558 0.583032
0.952331 0.743694 0.602701
0.953216 0.746197 0.605631
0.953216 0.746197 0.605631
0.953216 0.746197 0.605631
0 0.306401 0.0711528
0 0.309361 0.0715038
0 0.311131 0.0717327
0 0.311742 0.071809
0.00015259 0.301823 0.0702525
0.00181582 0.278233 0.0592355
0.00863661 0.244739 0.0167391
0.0560006 0.242817 0
0.164538 0.261585 0
0.258518 0.283192 0.000183108
0.352346 0.302739 0
0.442191 0.317876 3.0518e-05
0.497475 0.315282 0
0.543679 0.314351 0
0.585779 0.316655 0
0.621744 0.320119 0
0.670054 0.312352 0
0.691096 0.306737 0
0.706294 0.28484 0
0.732433 0.258152 0.0657359
0.769116 0.318608 0.129396
0.802838 0.38822 0.199161
0.830701 0.452857 0.26688
0.854734 0.514076 0.334524
0.881743 0.572732 0.401801
0.904311 0.622919 0.461509
0.923018 0.66714 0.513726
0.936767 0.70248 0.55639
0.948089 0.731991 0.589197
0.952743 0.744839 0.604044
0.953216 0.746197 0.605631
0.953216 0.746197 0.605631
0.953216 0.746197 0.605631
0 0.372671 0.0752728
0 0.375631 0.0753643
0 0.377584 0.0754253
0 0.378668 0.0753796
0 0.377493 0.0754101
7.62951e-05 0.363561 0.0746166
0.0039826 0.329824 0.0558022
0.0209354 0.29456 0.000198367
0.132036 0.315526 0
0.264836 0.341543 0
0.372442 0.363714 0
0.47483 0.382895 0
0.566323 0.398871 0
0.615106 0.396139 0
0.657877 0.398688 0
0.695354 0.404715 0
0.731502 0.396033 0
0.745281 0.392325 0
0.752697 0.385107 0
0.7617 0.361959 0.0420386
0.777111 0.337545 0.142321
0.808942 0.401816 0.213107
0.83595 0.465797 0.280797
0.859266 0.526192 0.348226
0.886854 0.583734 0.414893
0.908446 0.632654 0.473381
0.926421 0.675486 0.523598
0.939376 0.709178 0.56379
0.94995 0.737057 0.594965
0.952987 0.745525 0.604837
0.953216 0.746197 0.605631
0.953216 0.746197 0.605631
0.953216 0.746197 0.605631
0 0.427649 0.072221
0 0.430182 0.0719768
0 0.431739 0.0718395
0 0.432883 0.0717327
0 0.432868 0.0717327
0 0.431205 0.0719005
0.000289921 0.422461 0.0725261
0.00436408 0.384314 0.0415198
0.0451667 0.36701 0.000122072
0.241077 0.40531 0
0.387045 0.434516 0
0.50454 0.458167 0
0.607919 0.478004 0
0.69395 0.494545 0
0.735714 0.49485 0
0.772396 0.502098 0
0.810101 0.500954 0
0.827207 0.501442 0
0.838849 0.502068 0
0.846616 0.500237 4.57771e-05
0.832578 0.474907 0.123857
0.815106 0.415778 0.227543
0.841184 0.478996 0.29543
0.865217 0.53933 0.363043
0.892012 0.594995 0.428244
0.912535 0.642298 0.484703
0.929808 0.683955 0.533669
0.941985 0.715892 0.571221
0.951095 0.74023 0.598657
0.953216 0.746197 0.605631
0.953216 0.746197 0.605631
0.953216 0.746197 0.605631
0.953216 0.746197 0.605631
0 0.47216 0.0678416
0 0.474388 0.0676127
0 0.475776 0.0674296
0 0.476783 0.0673075
0 0.477485 0.067216
0 0.478019 0.0671397
0 0.474998 0.0675364
0 0.472236 0.0677195
0.00909438 0.435874 0.03122
0.0835889 0.44918 0
0.35639 0.499779 0
0.516487 0.53196 0
0.638086 0.555398 0
0.736049 0.57322 0
0.800397 0.585885 0
0.842863 0.592065 0
0.876585 0.602167 0
0.899001 0.608682 0
0.913466 0.613947 0
0.922026 0.61706 0
0.929335 0.624598 0.0592508
0.908339 0.597269 0.224918
0.846311 0.491936 0.309758
0.871672 0.552117 0.377707
0.896849 0.605753 0.440879
0.916594 0.651926 0.495995
0.93257 0.691249 0.542718
0.944472 0.722362 0.578363
0.952041 0.742885 0.601755
0.953216 0.746197 0.605631
0.953216 0.746197 0.605631
0.953216 0.746197 0.605631
0.953216 0.746197 0.605631
0 0.509773 0.0625315
0 0.51165 0.062211
0 0.512871 0.0619974
0 0.513848 0.0618296
0 0.514488 0.0617227
0 0.515038 0.0616312
0 0.515404 0.0615702
0 0.515633 0.0615244
0 0.515877 0.0614939
0.00163272 0.5122 0.0605631
0.0261234 0.488212 0.00112917
0.290013 0.561883 0
0.548623 0.615915 0
0.722652 0.645411 0
0.821714 0.656168 0
0.87274 0.663371 0
0.907088 0.676265 0
0.940475 0.693263 0
0.960952 0.704982 0
0.972381 0.715175 4.57771e-05
0.979431 0.726101 0.0266728
0.982025 0.742077 0.191272
0.976318 0.72636 0.326452
0.887968 0.581445 0.394263
0.901396 0.616083 0.453178
0.920501 0.661128 0.506722
0.935088 0.698116 0.551339
0.946746 0.728374 0.585077
0.952468 0.744091 0.603159
0.953216 0.746197 0.605631
0.953216 0.746197 0.605631
0.953216 0.746197 0.605631
0.953216 0.746197 0.605631
0 0.540749 0.0567788
0 0.542321 0.0564279
0 0.543389 0.0561837
0 0.544167 0.0560159
0 0.544778 0.0558785
0 0.545266 0.0557717
0 0.545586 0.0556954
0 0.545876 0.0556344
0 0.546075 0.0555886
0 0.546273 0.0555428
0.00109865 0.543862 0.0515145
0.0427253 0.543816 0.00224308
0.414435 0.640299 0
0.686397 0.699641 0
0.819669 0.718257 0
0.888533 0.725368 0
0.922835 0.731167 0
0.945953 0.745174 0
0.972549 0.763409 0
0.988556 0.781399 0
0.993133 0.796109 0.0030518
0.994064 0.810376 0.106218
0.993454 0.82031 0.277699
0.991623 0.811643 0.399359
0.932479 0.672877 0.473213
0.924224 0.670054 0.517143
0.937697 0.704829 0.558938
0.948821 0.734005 0.591455
0.952819 0.745083 0.604334
0.953216 0.746197 0.605631
0.953216 0.746197 0.605631
0.953216 0.746197 0.605631
0.953216 0.746197 0.605631
0 0.565637 0.0512551
0 0.567041 0.0509499
0 0.567941 0.0507668
0 0.568643 0.0506142
0 0.569162 0.0505226
0 0.569589 0.0504463
0 0.569909 0.0503853
0 0.570153 0.0503395
0 0.570321 0.050309
0 0.57055 0.0502632
0 0.570703 0.0502327
0.000289921 0.570855 0.0499123
0.068513 0.588632 0
0.566766 0.720485 0
0.794598 0.765408 0
0.890242 0.77763 0
0.933516 0.78291 0
0.952972 0.785962 0
0.9729 0.801846 0
0.994553 0.829038 0
0.995834 0.841001 0
0.996445 0.852354 0.040589
0.997055 0.866835 0.221027
0.997147 0.874723 0.350042
0.996536 0.873213 0.456306
0.995346 0.833783 0.54139
0.940246 0.711376 0.566247
0.950286 0.737987 0.596048
0.953079 0.7458 0.605173
0.953216 0.746197 0.605631
0.953216 0.746197 0.605631
0.953216 0.746197 0.605631
0.953216 0.746197 0.605631
0 0.586618 0.0475471
0 0.587854 0.047364
0 0.588678 0.0472419
0 0.589334 0.0471504
0 0.589868 0.0470741
0 0.590265 0.047013
0 0.5906 0.0469673
0 0.59086 0.0469368
0 0.591073 0.0469062
0 0.591257 0.0468757
0 0.591455 0.0468452
0 0.591653 0.0468147
0.000839246 0.591775 0.0466011
0.208118 0.661219 0.00242618
0.707393 0.7888 0
0.874876 0.815412 0
0.935439 0.822995 0
0.961776 0.826917 0
0.973556 0.82948 0
0.992828 0.850843 0
0.995941 0.86511 0
0.996384 0.876799 0.00218204
0.99707 0.892454 0.159869
0.997452 0.903273 0.299184
0.99794 0.910216 0.405386
0.998322 0.912459 0.491615
0.998138 0.905852 0.556466
0.997528 0.855406 0.609293
0.953216 0.746197 0.605631
0.953216 0.746197 0.605631
0.953216 0.746197 0.605631
0.957076 0.753353 0.607401
0.964736 0.767758 0.610925
0 0.605463 0.04448
0 0.606592 0.0442512
0 0.60737 0.0440833
0 0.608011 0.0439612
0 0.608499 0.0438544
0 0.608896 0.0437629
0 0.609201 0.0437018
0 0.609476 0.0436561
0 0.609689 0.0436103
0 0.609873 0.0435645
0 0.610056 0.043534
0 0.610239 0.0434882
0 0.610452 0.0434424
0.00149538 0.610437 0.0432136
0.330404 0.726894 0
0.81854 0.837003 0
0.927626 0.851164 0
0.965515 0.855879 0
0.980209 0.859037 0
0.988952 0.862989 0
0.995529 0.877852 0
0.996323 0.890013 6.10361e-05
0.996948 0.904997 0.0564279
0.997513 0.920424 0.241337
0.997925 0.92932 0.358938
0.998291 0.934676 0.441581
0.998642 0.937774 0.507134
0.998886 0.937057 0.54963
0.998947 0.930983 0.568093
0.998962 0.927703 0.573373
0.998962 0.929519 0.570352
0.998947 0.931395 0.567239
0.998947 0.933089 0.564446
0 0.622721 0.0407111
0 0.623819 0.0404517
0 0.624552 0.0402838
0 0.625086 0.0401465
0 0.625559 0.0400244
0 0.62591 0.0399329
0 0.6262 0.0398566
0 0.626459 0.0397803
0 0.626657 0.0397345
0 0.626841 0.0396887
0 0.627008 0.0396429
0 0.627176 0.0395972
0 0.627344 0.0395514
0 0.627573 0.0394903
0.00453193 0.626139 0.0303044
0.560357 0.801846 0
0.891615 0.866423 0
0.963363 0.876432 0
0.984955 0.881193 0
0.993408 0.886305 0
0.995377 0.88809 0
0.996277 0.895979 0
0.996704 0.908797 0
0.997345 0.925475 0.10515
0.997848 0.938598 0.295613
0.99826 0.946624 0.398276
0.998611 0.951339 0.464622
0.998795 0.952834 0.500023
0.998825 0.95172 0.509941
0.998825 0.951553 0.510277
0.998825 0.952071 0.508202
0.998825 0.952575 0.506111
0.998825 0.953048 0.504173
0 0.637949 0.0367742
0 0.638926 0.0365148
0 0.639612 0.0363317
0 0.640162 0.0361791
0 0.640604 0.0360723
0 0.64097 0.0359655
0 0.641276 0.0358892
0 0.641505 0.0358282
0 0.641688 0.0357671
0 0.641886 0.0357214
0 0.642039 0.0356756
0 0.642206 0.0356298
0 0.642374 0.035584
0 0.642542 0.0355383
0 0.642741 0.0354772
0.0138094 0.653696 0.0277714
0.713649 0.849592 0
0.944442 0.887663 0
0.985229 0.895644 0
0.995071 0.902251 0
0.996017 0.903212 0
0.996292 0.902708 0
0.996582 0.908476 0
0.996994 0.923033 0
0.997726 0.939696 0.163378
0.998154 0.950591 0.320562
0.998535 0.956985 0.4094
0.998688 0.959335 0.447379
0.998718 0.959426 0.456794
0.998703 0.959594 0.454536
0.998703 0.959792 0.451438
0.998688 0.959869 0.447822
0.998688 0.959899 0.444297
0 0.651423 0.03299
0 0.652201 0.0327611
0 0.652766 0.032578
0 0.653208 0.0324407
0 0.653574 0.0323339
0 0.65388 0.0322423
0 0.654124 0.032166
0 0.654353 0.032105
0 0.654536 0.0320439
0 0.654688 0.0319982
0 0.654826 0.0319524
0 0.654963 0.0319066
0 0.6551 0.0318761
0 0.655253 0.0318303
0 0.65539 0.0317845
0 0.655543 0.0317235
0.0564126 0.66865 0.0252537
0.858305 0.886107 0
0.977829 0.903761 0
0.995224 0.911879 0
0.996017 0.912718 0
0.996307 0.912535 0
0.996551 0.912108 0
0.996826 0.917556 0
0.997314 0.93225 0.000457771
0.99794 0.94786 0.178317
0.998383 0.956527 0.312901
0.99852 0.959136 0.355306
0.998535 0.959381 0.362127
0.998535 0.959289 0.357137
0.99852 0.959182 0.352148
0.998505 0.959091 0.346975
0.998505 0.958999 0.342306
0 0.662638 0.0295567
0 0.663386 0.0293278
0 0.663905 0.0291752
0 0.664332 0.0290379
0 0.664668 0.0289464
0 0.664958 0.0288548
0 0.665202 0.0287785
0 0.665415 0.0287175
0 0.665583 0.0286564
0 0.665736 0.0286107
0 0.665873 0.0285801
0 0.66601 0.0285344
0 0.666148 0.0284886
0 0.66627 0.0284581
0 0.666407 0.0284123
0 0.66656 0.0283665
0 0.666697 0.0283207
0.358587 0.785428 0.00578317
0.946471 0.906798 0
0.994583 0.919051 0
0.995987 0.920104 0
0.996292 0.920104 0
0.996567 0.919829 0
0.99678 0.919341 0
0.997024 0.924041 0
0.997497 0.937148 0.00520333
0.998077 0.950851 0.132967
0.998245 0.954238 0.20119
0.99826 0.954528 0.206928
0.998245 0.954147 0.196841
0.99823 0.95378 0.186755
0.998199 0.953399 0.176333
0.998184 0.953048 0.166918
0 0.672801 0.0264134
0 0.673503 0.0261845
0 0.673961 0.0260471
0 0.674342 0.0259251
0 0.674662 0.0258183
0 0.674922 0.025742
0 0.675135 0.0256657
0 0.675334 0.0256046
0 0.675486 0.0255436
0 0.675639 0.0255131
0 0.675761 0.0254673
0 0.675883 0.0254215
0 0.67599 0.025391
0 0.676112 0.0253605
0 0.676234 0.0253147
0 0.676356 0.0252689
0 0.676478 0.0252384
0.000671397 0.676921 0.0246433
0.736034 0.878157 0
0.989944 0.921645 0
0.995926 0.925872 0
0.996277 0.925856 0
0.996551 0.925643 0
0.99678 0.925399 0
0.996979 0.925032 0
0.997192 0.928557 0
0.997574 0.938216 0
0.997726 0.94197 0.00288396
0.997726 0.94197 0.00177005
0.997696 0.941421 0
0.997681 0.940871 0
0.99765 0.940322 0
0.997635 0.939818 0
0 0.681666 0.0234836
0 0.682261 0.0232853
0 0.682689 0.0231327
0 0.683009 0.0230106
0 0.683299 0.0229038
0 0.683528 0.0228275
0 0.683711 0.0227665
0 0.683879 0.0227054
0 0.684016 0.0226596
0 0.684138 0.0226139
0 0.68426 0.0225681
0 0.684352 0.0225376
0 0.684459 0.0225071
0 0.684565 0.0224613
0 0.684657 0.0224308
0 0.684764 0.0224002
0 0.68484 0.0223697
0 0.684932 0.0223239
0.0274357 0.700389 0.0156863
0.960433 0.920287 0
0.995834 0.930602 0
0.996231 0.930617 0
0.996536 0.930465 0
0.99678 0.93022 0
0.996979 0.930007 0
0.997147 0.929732 0
0.99733 0.931136 0
0.997391 0.932372 0
0.997391 0.932311 0
0.997375 0.932143 0
0.997375 0.931975 0
0.997375 0.931868 0
0.997375 0.931853 0
0 0.689067 0.0208591
0 0.689555 0.0206912
0 0.689891 0.0205692
0 0.690166 0.0204776
0 0.690394 0.0204013
0 0.690593 0.020325
0 0.690761 0.020264
0 0.690791 0.0202487
0 0.690822 0.0202335
0 0.690852 0.0202335
0 0.690883 0.0202182
0 0.690898 0.0202182
0 0.690913 0.0202029
0 0.690944 0.0202029
0 0.690959 0.0201877
0 0.690959 0.0201877
0 0.690974 0.0201877
0 0.690959 0.0201877
0.000701915 0.690929 0.0200198
0.790631 0.893706 0
0.995605 0.933364 0
0.996201 0.933577 0
0.996521 0.933486 0
0.99678 0.933318 0
0.996994 0.933181 0
0.997162 0.933028 0
0.997299 0.932784 0
0.997345 0.932692 0
0.997345 0.932738 0
0.997345 0.932784 0
0.997345 0.932845 0
0.997345 0.932891 0
0.997345 0.932937 0
0 0.691829 0.0198825
0 0.691859 0.0198825
0 0.691875 0.0198672
0 0.69189 0.0198672
0 0.69189 0.0198672
0 0.691905 0.019852
0 0.69192 0.019852
0 0.69192 0.019852
0 0.691936 0.019852
