apps/lut-action/luts/TAM_DAY EXT +0.0.cube
TITLE "Generated by Resolve"
LUT_3D_SIZE 9
0.00953689 0.0103914 0.0099031
0.0500191 0.0293889 0.0218509
0.211978 0.0443427 0.00442512
0.46717 0.0505531 0.00665293
0.705364 0.121294 0.0111543
0.90312 0.314076 0.131655
0.975738 0.565148 0.378485
0.993881 0.722194 0.56939
0.996872 0.777737 0.636759
0.0049897 0.0411231 0.024155
0.0394293 0.0411078 0.0196231
0.226413 0.0673075 0.00262455
0.4795 0.0558328 0.00669871
0.715389 0.127138 0.0127871
0.909041 0.327291 0.142596
0.977615 0.577096 0.392035
0.994415 0.72903 0.577966
0.996872 0.777737 0.636759
0.000457771 0.162692 0.0413062
0.00366217 0.15169 0.0338293
0.228519 0.174701 0.000122072
0.543587 0.189181 0.00155642
0.719676 0.136126 0.0123751
0.910643 0.330816 0.145495
0.978241 0.581033 0.39649
0.994553 0.731106 0.580713
0.996872 0.777737 0.636759
0 0.384695 0.0751659
0 0.388113 0.0750286
0.0397803 0.322164 0
0.58529 0.412955 0
0.82443 0.433585 0.000320439
0.912551 0.355093 0.137606
0.978454 0.582406 0.398047
0.994598 0.732082 0.582025
0.996872 0.777737 0.636759
0 0.51986 0.0607767
0 0.522179 0.0603647
0 0.522805 0.0602579
0.417014 0.59791 0
0.875898 0.667445 0
0.967529 0.704799 0
0.97998 0.649683 0.378317
0.994614 0.732296 0.5823
0.996872 0.777737 0.636759
0 0.593713 0.0465095
0 0.59527 0.0462654
0 0.595911 0.0461738
0 0.596109 0.0461433
0.812436 0.81236 0
0.974243 0.831006 0
0.996857 0.88397 0.0892653
0.997955 0.901518 0.516548
0.996872 0.777737 0.636759
0 0.643503 0.0352789
0 0.644724 0.0349432
0 0.645319 0.0347753
0 0.645624 0.034699
0 0.645655 0.0346838
0.97116 0.893584 0
0.996292 0.9028 0
0.997955 0.946426 0.278294
0.998749 0.958038 0.47689
0 0.676371 0.0252689
0 0.677226 0.0249943
0 0.677638 0.0248569
0 0.677882 0.0247807
0 0.677989 0.0247349
0 0.677821 0.0241855
0.996109 0.926177 0
0.996963 0.924743 0
0.997879 0.944884 0.0162356
0 0.691936 0.019852
0 0.691936 0.019852
0 0.691936 0.019852
0 0.691936 0.019852
0 0.691936 0.019852
0 0.691936 0.019852
0.994858 0.933318 0
0.996872 0.933715 0
0.997345 0.933333 0
0.0186007 0.0237278 0.0434119
0.0501411 0.0308537 0.054551
0.228412 0.0440375 0.0326848
0.468498 0.0508431 0.00709544
0.706127 0.121721 0.0112764
0.903563 0.315084 0.132479
0.975906 0.566247 0.379736
0.993927 0.72282 0.570184
0.996872 0.777737 0.636759
0.00512703 0.0395056 0.0445258
0.0357977 0.0430762 0.0442512
0.2327 0.0686961 0.0235142
0.480949 0.0556344 0.00703441
0.716686 0.127886 0.0129854
0.909773 0.328893 0.143923
0.977829 0.5785 0.393622
0.994461 0.729717 0.578851
0.996872 0.777737 0.636759
0.000213626 0.154284 0.0628367
0.00334173 0.158129 0.0550393
0.219562 0.17705 0.00183108
0.545632 0.190097 0.00154116
0.721111 0.136584 0.0126497
0.911528 0.332799 0.147143
0.978485 0.582635 0.398291
0.994598 0.731899 0.581765
0.996872 0.777737 0.636759
0 0.378851 0.0849317
0 0.383719 0.0837568
0.0365148 0.324407 0
0.588296 0.415122 0
0.826383 0.43595 0.000289921
0.913436 0.356497 0.139895
0.978744 0.584268 0.400168
0.994659 0.732921 0.583124
0.996872 0.777737 0.636759
0 0.520653 0.0606394
0 0.523018 0.0602121
0 0.52369 0.06009
0.420981 0.600336 0
0.877623 0.669535 0
0.968292 0.707088 0
0.980316 0.655497 0.379736
0.994675 0.733257 0.583581
0.996872 0.777737 0.636759
0 0.594232 0.0464179
0 0.595804 0.0461891
0 0.596475 0.0460822
0 0.596674 0.0460517
0.815885 0.813809 0
0.974716 0.831876 0
0.996872 0.885023 0.0925612
0.998062 0.902846 0.517296
0.996872 0.777737 0.636759
0 0.643915 0.0351568
0 0.645151 0.0348211
0 0.645731 0.0346532
0 0.646052 0.0345769
0 0.646097 0.0345617
0.972061 0.894072 0
0.996292 0.903151 0
0.997971 0.946715 0.27863
0.998749 0.958236 0.475242
0 0.676677 0.0251774
0 0.677501 0.0249027
0 0.677913 0.0247654
0 0.678172 0.0246891
0 0.678294 0.0246433
0 0.678111 0.024094
0.996124 0.92636 0
0.996979 0.92491 0
0.997864 0.944457 0.0143893
0 0.691936 0.019852
0 0.691936 0.019852
0 0.691936 0.019852
0 0.691936 0.019852
0 0.691936 0.019852
0 0.691936 0.019852
0.995514 0.933822 0
0.996887 0.933715 0
0.997345 0.933349 0
0.00410468 0.0151369 0.162112
0.0409705 0.0150759 0.176501
0.223133 0.00640879 0.249119
0.531212 0.03888 0.206256
0.707027 0.121569 0.0127565
0.903487 0.314931 0.132357
0.975891 0.566155 0.379629
0.993927 0.722881 0.570245
0.996872 0.777737 0.636759
0.00209049 0.0519417 0.159091
0.0166934 0.0541543 0.190082
0.235065 0.0576791 0.259251
0.543938 0.0451972 0.215564
0.719341 0.128099 0.0159915
0.909926 0.329244 0.144198
0.977905 0.578897 0.394064
0.994476 0.729885 0.579095
0.996872 0.777737 0.636759
0 0.188205 0.235477
0.00132753 0.190829 0.238804
0.196063 0.224781 0.234852
0.570092 0.231006 0.179614
0.722393 0.135836 0.0142214
0.911864 0.333516 0.147723
0.978576 0.58323 0.398978
0.994614 0.732158 0.582116
0.996872 0.777737 0.636759
0 0.407065 0.297185
0 0.411917 0.300404
0.019913 0.403265 0.198215
0.58056 0.456672 0.0205844
0.826856 0.436194 0.00030518
0.913695 0.355978 0.1411
0.978851 0.585031 0.401053
0.994675 0.733318 0.583658
0.996872 0.777737 0.636759
0 0.51989 0.0987564
0 0.521935 0.0970779
0 0.522438 0.0895399
0.421332 0.601205 0
0.878233 0.670268 0
0.968597 0.708019 0
0.980468 0.657664 0.380362
0.994705 0.7337 0.584161
0.996872 0.777737 0.636759
0 0.594446 0.0463874
0 0.596048 0.0461433
0 0.596719 0.0460517
0 0.596933 0.0460212
0.817258 0.814466 0
0.974914 0.832258 0
0.996887 0.885527 0.0940261
0.998108 0.903624 0.517525
0.996872 0.777737 0.636759
0 0.644099 0.035111
0 0.64535 0.0347601
0 0.64596 0.0346075
0 0.64625 0.0345159
0 0.646296 0.0345006
0.972488 0.894331 0
0.996307 0.903334 0
0.997971 0.946853 0.278538
0.998749 0.958312 0.474083
0 0.676814 0.0251316
0 0.677638 0.0248569
0 0.678065 0.0247196
0 0.678309 0.0246281
0 0.678431 0.0245975
0 0.678264 0.0240482
0.996124 0.926452 0
0.996979 0.925002 0
0.997848 0.944213 0.0132906
0 0.691936 0.019852
0 0.691936 0.019852
0 0.691936 0.019852
0 0.691936 0.019852
0 0.691936 0.019852
0 0.691936 0.019852
0.995743 0.933989 0
0.996887 0.933715 0
0.997345 0.933364 0
0.00189212 0 0.29839
0.030869 0 0.325582
0.189578 0 0.426963
0.532372 0.000320439 0.519936
0.793027 0.143633 0.520134
0.90309 0.314031 0.131624
0.97583 0.565728 0.379141
0.993912 0.722713 0.570047
0.996872 0.777737 0.636759
3.0518e-05 0.0200198 0.310842
0.00459297 0.0146792 0.348318
0.185763 0.0231937 0.436027
0.54464 0.000991836 0.530999
0.803494 0.15378 0.535851
0.910857 0.331319 0.165042
0.977859 0.578668 0.393805
0.994476 0.729885 0.579095
0.996872 0.777737 0.636759
0 0.202289 0.409583
0.000701915 0.203662 0.412665
0.141741 0.246601 0.478264
0.578164 0.270314 0.571054
0.806607 0.163989 0.537758
0.912734 0.335424 0.165301
0.978607 0.583398 0.399176
0.994614 0.732235 0.582208
0.996872 0.777737 0.636759
0 0.452796 0.535515
0 0.457649 0.540566
0.0196384 0.472786 0.541756
0.545144 0.569482 0.564874
0.865034 0.552773 0.506142
0.914061 0.353948 0.152438
0.978897 0.585367 0.40145
0.99469 0.733486 0.583871
0.996872 0.777737 0.636759
0 0.648478 0.586358
0 0.652934 0.591653
0 0.653788 0.59086
0.133959 0.702968 0.47686
0.886351 0.772259 0.327077
0.968658 0.708049 0
0.980514 0.658228 0.380957
0.994705 0.733913 0.584451
0.996872 0.777737 0.636759
0 0.610376 0.171466
0 0.615442 0.181003
0 0.612284 0.168719
0 0.602426 0.133745
0.817105 0.815198 0.00213626
0.975036 0.832425 0
0.996887 0.885817 0.0947585
0.998138 0.903929 0.517906
0.996872 0.777737 0.636759
0 0.644205 0.0350805
0 0.645457 0.0347295
0 0.646067 0.0345769
0 0.646372 0.0344854
0 0.646418 0.0344701
0.972702 0.894469 0
0.996307 0.903426 0
0.997971 0.946944 0.278752
0.998749 0.958343 0.473426
0 0.67689 0.0251011
0 0.677714 0.0248264
0 0.678141 0.0246891
0 0.678416 0.0245975
0 0.678523 0.024567
0 0.67837 0.024033
0.996124 0.926497 0
0.996979 0.925063 0
0.997833 0.94406 0.0126192
0 0.691936 0.019852
0 0.691936 0.019852
0 0.691936 0.019852
0 0.691936 0.019852
0 0.691936 0.019852
0 0.691936 0.019852
0.995758 0.933989 0
0.996887 0.933715 0
0.997345 0.933364 0
0.0367132 0 0.432105
0.0539406 0 0.440482
0.176104 0 0.506844
0.471092 0 0.638071
0.803479 0.130251 0.763577
0.932265 0.39527 0.798169
0.97644 0.569863 0.456107
0.993881 0.722362 0.569604
0.996872 0.777737 0.636759
0.0347143 0 0.434867
0.0504768 0 0.443107
0.176562 0 0.512047
0.484123 0 0.645991
0.813718 0.142763 0.774975
0.936843 0.412055 0.810208
0.978576 0.584955 0.474434
0.994461 0.729732 0.578882
0.996872 0.777737 0.636759
0 0.160693 0.498375
0 0.163149 0.506706
0.0444648 0.205692 0.624308
0.507942 0.237873 0.715709
0.816144 0.146777 0.778058
0.938247 0.417273 0.813962
0.979324 0.589548 0.486152
0.994614 0.732204 0.582177
0.996872 0.777737 0.636759
0 0.448005 0.663508
0 0.452598 0.66775
0.0101167 0.481544 0.692653
0.520394 0.599512 0.775692
0.868345 0.606088 0.832944
0.938979 0.429938 0.814282
0.979568 0.590784 0.486107
0.99469 0.733486 0.583886
0.996872 0.777737 0.636759
0 0.663905 0.752392
0 0.668055 0.756481
0 0.669276 0.757641
0.246403 0.781109 0.802487
0.867063 0.86009 0.834836
0.972381 0.848463 0.803464
0.980606 0.657801 0.426551
0.99472 0.734005 0.584588
0.996872 0.777737 0.636759
0 0.784955 0.777493
0 0.787381 0.781033
0 0.788479 0.782254
0 0.788769 0.78143
0.646723 0.912764 0.777249
0.984237 0.936309 0.714351
0.996887 0.885847 0.0958267
0.998154 0.903899 0.518364
0.996872 0.777737 0.636759
0 0.746105 0.449668
0 0.750439 0.461189
0 0.753384 0.46862
0 0.748669 0.452323
0 0.726284 0.378973
0.972793 0.894926 0.0307469
0.996307 0.903487 0
0.997986 0.94699 0.278843
0.998749 0.958358 0.473106
0 0.676936 0.0250858
0 0.67776 0.0248112
0 0.678203 0.0246738
0 0.678462 0.0245823
0 0.678599 0.0245365
0 0.678431 0.0240482
0.996124 0.926543 0
0.996979 0.925109 0
0.997833 0.943954 0.0121462
0 0.691936 0.019852
0 0.691936 0.019852
0 0.691936 0.019852
0 0.691936 0.019852
0 0.691936 0.019852
0 0.691936 0.019852
0.995758 0.933989 0
0.996902 0.933715 0
0.997345 0.933379 0
0.0586557 0 0.527214
0.0586862 0 0.527382
0.126406 0 0.556771
0.40415 0 0.667628
0.732311 0 0.806958
0.933181 0.392721 0.913039
0.979599 0.63154 0.929381
0.992828 0.744732 0.850675
0.996872 0.777737 0.636759
0.0589761 0 0.529015
0.059144 0 0.530022
0.127687 0 0.560128
0.416098 0 0.673777
0.744701 0.00613413 0.815045
0.937499 0.40911 0.918257
0.980911 0.643153 0.934188
0.993118 0.754665 0.873472
0.996872 0.777737 0.636759
0.0515908 0 0.529488
0.0519722 0 0.530846
0.109117 0 0.555093
0.411841 0 0.674006
0.747402 0.00445563 0.817105
0.938994 0.414755 0.920073
0.981399 0.647349 0.936065
0.993271 0.75787 0.876814
0.996872 0.777737 0.636759
0 0.389792 0.719707
0 0.394675 0.723598
0 0.395132 0.725368
0.431891 0.551705 0.864317
0.831754 0.579705 0.903014
0.939467 0.418845 0.920806
0.981613 0.649256 0.936934
0.993347 0.759701 0.87982
0.996872 0.777737 0.636759
0 0.65507 0.829984
0 0.65919 0.832792
0 0.660426 0.833768
0.160174 0.775311 0.885267
0.858793 0.871641 0.928038
0.969741 0.870237 0.946349
0.981994 0.717601 0.93637
0.993393 0.759991 0.879301
0.996872 0.777737 0.636759
0 0.783536 0.861463
0 0.785885 0.863355
0 0.786877 0.864179
0 0.787243 0.864454
0.769558 0.940352 0.933913
0.97319 0.963546 0.94612
0.99588 0.959594 0.935882
0.996719 0.922637 0.847745
0.996872 0.777737 0.636759
0 0.844495 0.865187
0 0.845594 0.866789
0 0.846128 0.867552
0 0.846418 0.867857
0 0.846494 0.867384
0.924865 0.979004 0.929976
0.997757 0.983505 0.91606
0.998367 0.962554 0.630137
0.998749 0.958343 0.473289
0 0.873182 0.837888
0 0.873869 0.84065
0 0.874235 0.842145
0 0.874479 0.842893
0 0.874556 0.841489
0 0.87396 0.832044
0.996979 0.969116 0.608774
0.996979 0.925109 0
0.997833 0.943923 0.0122377
0 0.69221 0.13489
0 0.692164 0.142123
0 0.692088 0.147265
0 0.691997 0.149676
0 0.691905 0.142123
0 0.691997 0.123964
0.995758 0.933989 0
0.996902 0.933715 0
0.997345 0.933379 0
0.0695811 0 0.593347
0.0696117 0 0.593576
0.0695506 0 0.593103
0.256168 0 0.671229
0.641367 0 0.771588
0.905394 0.243442 0.926055
0.979355 0.629389 0.971588
0.991562 0.764828 0.976959
0.994308 0.815076 0.971222
0.0697948 0 0.594965
0.0698863 0 0.595773
0.0698863 0 0.595728
0.264027 0 0.676402
0.651041 0 0.775631
0.911254 0.262715 0.930312
0.980789 0.640589 0.97348
0.991943 0.771664 0.9785
0.994141 0.814679 0.973892
0.0697948 0 0.59498
0.0699168 0 0.596063
0.0699474 0 0.596323
0.260197 0 0.675578
0.653269 0 0.776791
0.913542 0.270893 0.932097
0.981353 0.64506 0.974243
0.992081 0.774289 0.979141
0.994064 0.814527 0.975021
0.0436103 0.012192 0.605509
0.0416724 0.00688182 0.605386
0.0455787 0.00411994 0.60322
0.221897 0.00428778 0.669673
0.649042 0.000656138 0.778317
0.913802 0.271122 0.932403
0.981598 0.64715 0.974594
0.992142 0.775738 0.979507
0.994018 0.814435 0.975708
0 0.61976 0.865583
0 0.624659 0.867735
0 0.62591 0.868376
0.00233463 0.640894 0.876448
0.819577 0.852857 0.95993
0.961669 0.86067 0.972366
0.981628 0.647288 0.974655
0.992172 0.776364 0.979629
0.994003 0.814435 0.975998
0 0.775998 0.898466
0 0.778271 0.899565
0 0.779278 0.900069
0 0.779599 0.900282
0.735225 0.93843 0.963943
0.971756 0.966949 0.978241
0.994034 0.965209 0.983383
0.994003 0.935775 0.979919
0.994018 0.814496 0.97583
0 0.841108 0.906035
0 0.842115 0.906844
0 0.842618 0.90724
0 0.842893 0.907439
0 0.842969 0.907469
0.953948 0.985626 0.980529
0.995605 0.990295 0.983108
0.998978 0.988891 0.979568
0.999344 0.985748 0.973144
0 0.871656 0.905135
0 0.872267 0.905974
0 0.872572 0.906416
0 0.872786 0.906691
0 0.872892 0.906737
0 0.872862 0.906432
0.989853 0.994827 0.980835
0.999191 0.994507 0.976471
0.999451 0.992676 0.965026
0 0.883757 0.901106
0 0.883635 0.902205
0 0.883574 0.902815
0 0.883528 0.903197
0 0.883528 0.903319
0 0.883558 0.902998
0.969635 0.992828 0.97435
0.998978 0.99498 0.968673
0.999268 0.993118 0.949905
0.0728466 0 0.641367
0.0728466 0 0.64155
0.0728466 0 0.641306
0.0728313 0 0.640879
0.527657 0 0.782925
0.758938 0 0.823056
0.973663 0.563729 0.977813
0.991363 0.760784 0.988678
0.993851 0.818753 0.989944
0.0728771 0 0.64239
0.0728923 0 0.642863
0.0728923 0 0.642878
0.0728923 0 0.642725
0.546426 0 0.788357
0.76376 0 0.825422
0.975738 0.580285 0.979446
0.991821 0.767819 0.989395
0.993835 0.818586 0.990402
0.0728771 0 0.642466
0.0729076 0 0.643122
0.0729076 0 0.64329
0.0729076 0 0.643259
0.550835 0 0.789761
0.765591 0 0.826383
0.976638 0.58732 0.980102
0.991958 0.770535 0.989609
0.993835 0.818418 0.990585
0.0728771 0 0.642344
0.0729076 0 0.643107
0.0729076 0 0.643381
0.0729076 0 0.643473
0.545251 0 0.788861
0.766247 0 0.826841
0.97705 0.590539 0.980407
0.992035 0.772045 0.989731
0.993835 0.81828 0.990692
0 0.431495 0.827985
0 0.442634 0.833173
0 0.445365 0.834623
0 0.435218 0.831174
0.644633 0.635904 0.947387
0.926406 0.636561 0.964141
0.977081 0.590539 0.980423
0.992065 0.772778 0.989792
0.993835 0.818204 0.990753
0 0.764462 0.917845
0 0.7673 0.918639
0 0.768627 0.919005
0 0.769055 0.919188
0.335027 0.876478 0.95584
0.965545 0.964446 0.987701
0.991882 0.96524 0.991257
0.993027 0.919356 0.990768
0.993835 0.818173 0.990768
0 0.837293 0.925063
0 0.838361 0.925444
0 0.838895 0.925643
0 0.8392 0.925765
0 0.839246 0.925795
0.951308 0.986023 0.988891
0.995193 0.99118 0.991989
0.99855 0.990341 0.99263
0.998596 0.987945 0.992218
0 0.870146 0.926299
0 0.871122 0.926909
0 0.871641 0.92723
0 0.871962 0.927428
0 0.872114 0.927535
0 0.872038 0.927474
0.993515 0.996262 0.992889
0.999237 0.996765 0.99292
0.999527 0.996277 0.992309
0 0.881559 0.9252
0 0.881559 0.925719
0 0.881544 0.925994
0 0.881544 0.926177
0 0.881544 0.926268
0 0.881544 0.926238
0.983963 0.996063 0.992279
0.998932 0.997925 0.992645
0.999496 0.997635 0.992126
0.0735027 0 0.657176
0.0735027 0 0.657176
0.0735027 0 0.657176
0.0735027 0 0.657176
0.283116 0 0.73463
0.752575 0 0.83798
0.96051 0.437705 0.971695
0.990875 0.746883 0.990738
0.993698 0.81146 0.992584
0.0735027 0 0.657176
0.0735027 0 0.657176
0.0735027 0 0.657176
0.0735027 0 0.657176
0.326772 0 0.748714
0.761471 0 0.841123
0.966186 0.483513 0.975326
0.99144 0.756191 0.991089
0.993698 0.811368 0.992599
0.0735027 0 0.657176
0.0735027 0 0.657176
0.0735027 0 0.657176
0.0735027 0 0.657176
0.337713 0 0.751797
0.764675 0 0.842298
0.96849 0.502129 0.976822
0.991608 0.75967 0.991226
0.993698 0.811368 0.992599
0.0735027 0 0.657176
0.0735027 0 0.657176
0.0735027 0 0.657176
0.0735027 0 0.657176
0.32871 0 0.749172
0.76582 0 0.842725
0.969635 0.511604 0.977584
0.991699 0.761593 0.991302
0.993698 0.811368 0.992599
0.0551614 0.00276188 0.659739
0.0543679 0.004654 0.65977
0.0541085 0.00521859 0.659785
0.0544594 0.00462348 0.65977
0.243946 0.00375372 0.724041
0.764294 0 0.842435
0.969741 0.513161 0.977676
0.991745 0.762524 0.991333
0.993698 0.811368 0.992599
0 0.747677 0.922423
0 0.752026 0.923079
0 0.753979 0.923384
0 0.754711 0.923491
0 0.75346 0.923293
0.957046 0.958038 0.98912
0.99057 0.958267 0.992065
0.992126 0.880171 0.991913
0.993698 0.811368 0.992599
0 0.834821 0.931517
0 0.836316 0.93164
0 0.837049 0.931716
0 0.837415 0.931731
0 0.837491 0.931731
0.936217 0.984192 0.989975
0.994659 0.991043 0.993301
0.998474 0.9906 0.994827
0.998489 0.988128 0.994919
0 0.867536 0.932921
0 0.868269 0.932937
0 0.868635 0.932937
0 0.868894 0.932937
0 0.869017 0.932952
0 0.868955 0.932952
0.993393 0.996399 0.994522
0.999207 0.997086 0.995361
0.999573 0.996811 0.995422
0 0.879713 0.932982
0 0.879713 0.932982
0 0.879713 0.932982
0 0.879713 0.932982
0 0.879713 0.932982
0 0.879713 0.932982
0.983276 0.996155 0.993927
0.9991 0.998505 0.995727
0.999603 0.99855 0.995438
