apps/lut-action/luts/TAM_DAY EXT -1.0.cube
TITLE "Generated by Resolve"
LUT_3D_SIZE 5
0.000213626 0.000213626 0.000213626
0.125139 0.0247959 0.00173953
0.528786 0.023209 0.00265507
0.936965 0.363806 0.167254
0.988846 0.631968 0.460777
0 0.101778 0.021973
0.120958 0.0967422 0
0.528145 0.0238651 0.00270085
0.936904 0.363638 0.167102
0.988846 0.631968 0.460777
0 0.453605 0.0502174
0 0.45304 0.0502785
0.735897 0.519371 0
0.944625 0.518914 0.114443
0.988846 0.631968 0.460777
0 0.611673 0.0208438
0 0.611643 0.0208438
0 0.611368 0.0209049
0.986542 0.858595 0
0.997543 0.91574 0.235294
0 0.663355 0.00900282
0 0.663355 0.00900282
0 0.663355 0.00900282
0.97583 0.909209 0
0.996628 0.918303 0
0.00701915 0.005066 0.0868544
0.145129 0.00779736 0.163882
0.528588 0.0231479 0.00265507
0.936965 0.363806 0.167254
0.988846 0.631968 0.460777
0 0.0964218 0.119188
0.0905013 0.108873 0.113603
0.527031 0.0229496 0.00262455
0.936904 0.363638 0.167102
0.988846 0.631968 0.460777
0 0.450874 0.0871443
0 0.452522 0.080415
0.735653 0.519173 0
0.944579 0.518502 0.114641
0.988846 0.631968 0.460777
0 0.611658 0.0208438
0 0.611643 0.0208438
0 0.611368 0.0209049
0.986542 0.858595 0
0.997543 0.91574 0.235325
0 0.663355 0.00900282
0 0.663355 0.00900282
0 0.663355 0.00900282
0.975814 0.909209 0
0.996628 0.918303 0
0.0125582 0 0.334478
0.0955215 0 0.40032
0.644968 0 0.615228
0.943358 0.384527 0.389258
0.988846 0.631968 0.460777
0 0.0774548 0.349691
0.0121157 0.0827039 0.464027
0.643214 0 0.614206
0.943145 0.383688 0.384207
0.988846 0.631968 0.460777
0 0.552193 0.63856
0 0.551202 0.637476
0.690837 0.702541 0.683955
0.947158 0.52874 0.265934
0.988846 0.631968 0.460777
0 0.733989 0.485008
0 0.731868 0.478645
0 0.690715 0.359945
0.986496 0.858488 0
0.997543 0.915694 0.235523
0 0.663355 0.00900282
0 0.663355 0.00900282
0 0.663355 0.00900282
0.975677 0.909163 0
0.996628 0.918303 0
0.045716 0 0.54612
0.045716 0 0.54609
0.540688 0 0.719341
0.956252 0.437324 0.941238
0.988632 0.678691 0.950484
0.045716 0 0.546105
0.0457008 0 0.546075
0.538598 0 0.718853
0.956207 0.437156 0.941222
0.988632 0.678691 0.950469
0 0.507805 0.793271
0 0.506539 0.792691
0.614115 0.700771 0.910109
0.955856 0.441352 0.940902
0.988632 0.678721 0.95024
0 0.807706 0.880034
0 0.807675 0.880003
0 0.807355 0.879744
0.982681 0.974731 0.960327
0.997574 0.967544 0.94522
0 0.862943 0.879133
0 0.862943 0.879103
0 0.862928 0.878782
0.920119 0.983368 0.941558
0.998337 0.98706 0.910842
0.0556497 0 0.617624
0.0556497 0 0.617624
0.315984 0 0.711482
0.924041 0.217517 0.942351
0.988235 0.676616 0.984848
0.0556497 0 0.617624
0.0556497 0 0.617624
0.312734 0 0.710399
0.923919 0.216938 0.942275
0.988235 0.676616 0.984848
0.0332647 0.00981155 0.621347
0.0333715 0.00959792 0.621332
0.253269 0.00621042 0.698756
0.922515 0.209842 0.941314
0.988235 0.676616 0.984848
0 0.799008 0.913603
0 0.798962 0.913603
0 0.798566 0.913558
0.981048 0.977157 0.985962
0.995956 0.972351 0.989731
0 0.858885 0.918502
0 0.858885 0.918502
0 0.858885 0.918502
0.955169 0.990234 0.98706
0.998489 0.995209 0.990585
