apps/lut-action/luts/TAM_DAY EXT +0.0.cube
TITLE "Generated by Resolve"
LUT_3D_SIZE 5
0.00953689 0.0103914 0.0099031
0.211978 0.0443427 0.00442512
0.705364 0.121294 0.0111543
0.975738 0.565148 0.378485
0.996872 0.777737 0.636759
0.000457771 0.162692 0.0413062
0.228519 0.174701 0.000122072
0.719676 0.136126 0.0123751
0.978241 0.581033 0.39649
0.996872 0.777737 0.636759
0 0.51986 0.0607767
0 0.522805 0.0602579
0.875898 0.667445 0
0.97998 0.649683 0.378317
0.996872 0.777737 0.636759
0 0.643503 0.0352789
0 0.645319 0.0347753
0 0.645655 0.0346838
0.996292 0.9028 0
0.998749 0.958038 0.47689
0 0.691936 0.019852
0 0.691936 0.019852
0 0.691936 0.019852
0.994858 0.933318 0
0.997345 0.933333 0
0.00410468 0.0151369 0.162112
0.223133 0.00640879 0.249119
0.707027 0.121569 0.0127565
0.975891 0.566155 0.379629
0.996872 0.777737 0.636759
0 0.188205 0.235477
0.196063 0.224781 0.234852
0.722393 0.135836 0.0142214
0.978576 0.58323 0.398978
0.996872 0.777737 0.636759
0 0.51989 0.0987564
0 0.522438 0.0895399
0.878233 0.670268 0
0.980468 0.657664 0.380362
0.996872 0.777737 0.636759
0 0.644099 0.035111
0 0.64596 0.0346075
0 0.646296 0.0345006
0.996307 0.903334 0
0.998749 0.958312 0.474083
0 0.691936 0.019852
0 0.691936 0.019852
0 0.691936 0.019852
0.995743 0.933989 0
0.997345 0.933364 0
0.0367132 0 0.432105
0.176104 0 0.506844
0.803479 0.130251 0.763577
0.97644 0.569863 0.456107
0.996872 0.777737 0.636759
0 0.160693 0.498375
0.0444648 0.205692 0.624308
0.816144 0.146777 0.778058
0.979324 0.589548 0.486152
0.996872 0.777737 0.636759
0 0.663905 0.752392
0 0.669276 0.757641
0.867063 0.86009 0.834836
0.980606 0.657801 0.426551
0.996872 0.777737 0.636759
0 0.746105 0.449668
0 0.753384 0.46862
0 0.726284 0.378973
0.996307 0.903487 0
0.998749 0.958358 0.473106
0 0.691936 0.019852
0 0.691936 0.019852
0 0.691936 0.019852
0.995758 0.933989 0
0.997345 0.933379 0
0.0695811 0 0.593347
0.0695506 0 0.593103
0.641367 0 0.771588
0.979355 0.629389 0.971588
0.994308 0.815076 0.971222
0.0697948 0 0.59498
0.0699474 0 0.596323
0.653269 0 0.776791
0.981353 0.64506 0.974243
0.994064 0.814527 0.975021
0 0.61976 0.865583
0 0.62591 0.868376
0.819577 0.852857 0.95993
0.981628 0.647288 0.974655
0.994003 0.814435 0.975998
0 0.841108 0.906035
0 0.842618 0.90724
0 0.842969 0.907469
0.995605 0.990295 0.983108
0.999344 0.985748 0.973144
0 0.883757 0.901106
0 0.883574 0.902815
0 0.883528 0.903319
0.969635 0.992828 0.97435
0.999268 0.993118 0.949905
0.0735027 0 0.657176
0.0735027 0 0.657176
0.283116 0 0.73463
0.96051 0.437705 0.971695
0.993698 0.81146 0.992584
0.0735027 0 0.657176
0.0735027 0 0.657176
0.337713 0 0.751797
0.96849 0.502129 0.976822
0.993698 0.811368 0.992599
0.0551614 0.00276188 0.659739
0.0541085 0.00521859 0.659785
0.243946 0.00375372 0.724041
0.969741 0.513161 0.977676
0.993698 0.811368 0.992599
0 0.834821 0.931517
0 0.837049 0.931716
0 0.837491 0.931731
0.994659 0.991043 0.993301
0.998489 0.988128 0.994919
0 0.879713 0.932982
0 0.879713 0.932982
0 0.879713 0.932982
0.983276 0.996155 0.993927
0.999603 0.99855 0.995438
