apps/lut-action/luts/TAM_DAY EXT -1.0.cube
TITLE "Generated by Resolve"
LUT_3D_SIZE 9
0.000213626 0.000213626 0.000213626
0.0122225 0.00410468 0.00227359
0.125139 0.0247959 0.00173953
0.282628 0.0120851 0.0021973
0.528786 0.023209 0.00265507
0.770367 0.14461 0.00750744
0.936965 0.363806 0.167254
0.980117 0.559884 0.371862
0.988846 0.631968 0.460777
0.00137331 0.00741588 0.00209049
0.00695811 0.0065919 0.00148013
0.122698 0.034165 0.00143435
0.282689 0.0127413 0.00231937
0.528374 0.0231022 0.00265507
0.770275 0.144533 0.00750744
0.93695 0.363775 0.167224
0.980117 0.559853 0.371832
0.988846 0.631968 0.460777
0 0.101778 0.021973
0.00187686 0.0965896 0.0209506
0.120958 0.0967422 0
0.3608 0.106432 0
0.528145 0.0238651 0.00270085
0.76997 0.144305 0.0075227
0.936904 0.363638 0.167102
0.980117 0.559838 0.371801
0.988846 0.631968 0.460777
0 0.267201 0.0478523
0 0.266468 0.0476844
0.00733959 0.2056 0.00347906
0.381613 0.261585 0
0.65536 0.269871 0
0.77612 0.167575 0.00509651
0.936751 0.363165 0.166644
0.980087 0.55967 0.371618
0.988846 0.631968 0.460777
0 0.453605 0.0502174
0 0.453483 0.0502327
0 0.45304 0.0502785
0.181552 0.435355 0
0.735897 0.519371 0
0.888136 0.541268 0
0.944625 0.518914 0.114443
0.980026 0.559136 0.370993
0.988846 0.631968 0.460777
0 0.555108 0.0323186
0 0.555093 0.0323186
0 0.555016 0.0323339
0 0.554757 0.0323949
0.62269 0.699962 0
0.928618 0.739864 0
0.990921 0.785977 0
0.992294 0.811566 0.255543
0.988846 0.631968 0.460777
0 0.611673 0.0208438
0 0.611658 0.0208438
0 0.611643 0.0208438
0 0.611582 0.0208591
0 0.611368 0.0209049
0.909377 0.84828 0
0.986542 0.858595 0
0.996551 0.894743 0
0.997543 0.91574 0.235294
0 0.648157 0.0110781
0 0.648157 0.0110781
0 0.648157 0.0110781
0 0.648142 0.0110781
0 0.648066 0.0111086
0.00460822 0.647501 0.00895705
0.992844 0.903807 0
0.996231 0.905409 0
0.99675 0.91902 0
0 0.663355 0.00900282
0 0.663355 0.00900282
0 0.663355 0.00900282
0 0.663355 0.00900282
0 0.663355 0.00900282
0 0.663355 0.00900282
0.97583 0.909209 0
0.99617 0.918639 0
0.996628 0.918303 0
0.00283818 0.00242618 0.00643931
0.0127413 0.00451667 0.0118257
0.139712 0.0247349 0.00637827
0.282551 0.0120851 0.0021973
0.528756 0.023209 0.00265507
0.770336 0.144594 0.00750744
0.936965 0.363806 0.167254
0.980117 0.559884 0.371862
0.988846 0.631968 0.460777
0.000900282 0.00567636 0.00596628
0.00561532 0.00569161 0.00521859
0.116411 0.0314488 0.00384527
0.282322 0.012604 0.00228885
0.528313 0.0230716 0.00265507
0.770275 0.144533 0.00750744
0.93695 0.363775 0.167224
0.980117 0.559853 0.371832
0.988846 0.631968 0.460777
0 0.0921645 0.0314336
0.00157168 0.0937972 0.0298466
0.113787 0.0968948 0.00793469
0.360571 0.106188 0
0.527916 0.0236667 0.00267033
0.76997 0.144305 0.0075227
0.936904 0.363638 0.167102
0.980117 0.559838 0.371801
0.988846 0.631968 0.460777
0 0.266651 0.0548714
0 0.266041 0.0534524
0.00720226 0.205646 0.00410468
0.381415 0.261463 0
0.655299 0.269749 0
0.775998 0.167086 0.00517281
0.936751 0.363165 0.166644
0.980087 0.55967 0.371618
0.988846 0.631968 0.460777
0 0.45359 0.0502174
0 0.453452 0.0502327
0 0.453025 0.0502937
0.180911 0.435233 0
0.735836 0.51931 0
0.888106 0.541207 0
0.944625 0.518837 0.114488
0.980026 0.559136 0.370993
0.988846 0.631968 0.460777
0 0.555108 0.0323186
0 0.555077 0.0323186
0 0.555016 0.0323339
0 0.554757 0.0323949
0.622583 0.699947 0
0.928603 0.739834 0
0.990921 0.785962 0
0.992294 0.811566 0.255543
0.988846 0.631968 0.460777
0 0.611673 0.0208438
0 0.611658 0.0208438
0 0.611643 0.0208438
0 0.611582 0.0208591
0 0.611368 0.0209049
0.909377 0.848264 0
0.986542 0.858595 0
0.996551 0.894743 0
0.997543 0.91574 0.235294
0 0.648157 0.0110781
0 0.648157 0.0110781
0 0.648157 0.0110781
0 0.648142 0.0110781
0 0.648066 0.0111086
0.00457771 0.647501 0.00895705
0.992844 0.903807 0
0.996231 0.905409 0
0.99675 0.91902 0
0 0.663355 0.00900282
0 0.663355 0.00900282
0 0.663355 0.00900282
0 0.663355 0.00900282
0 0.663355 0.00900282
0 0.663355 0.00900282
0.975814 0.909209 0
0.99617 0.918639 0
0.996628 0.918303 0
0.00701915 0.005066 0.0868544
0.0226444 0.0028687 0.0958877
0.145129 0.00779736 0.163882
0.35523 0 0.110079
0.528588 0.0231479 0.00265507
0.770321 0.144579 0.00750744
0.936965 0.363806 0.167254
0.980117 0.559853 0.371832
0.988846 0.631968 0.460777
0.00077821 0.0242618 0.0796674
0.0104677 0.0231327 0.0928664
0.124956 0.0250858 0.14052
0.353796 0 0.108248
0.528176 0.0230411 0.00263981
0.770245 0.144518 0.00750744
0.93695 0.363775 0.167224
0.980117 0.559853 0.371832
0.988846 0.631968 0.460777
0 0.0964218 0.119188
0.000961318 0.0955215 0.117372
0.0905013 0.108873 0.113603
0.360525 0.116609 0.0630045
0.527031 0.0229496 0.00262455
0.769955 0.144289 0.0075227
0.936904 0.363638 0.167102
0.980102 0.559808 0.371756
0.988846 0.631968 0.460777
0 0.241611 0.142336
0 0.239979 0.13933
0.00817884 0.247303 0.105867
0.349462 0.271901 0.00343328
0.655009 0.269291 0
0.775525 0.165331 0.00543221
0.936736 0.363134 0.166613
0.980087 0.55967 0.371618
0.988846 0.631968 0.460777
0 0.450874 0.0871443
0 0.451789 0.085771
0 0.452522 0.080415
0.178546 0.435096 0
0.735653 0.519173 0
0.88806 0.541054 0
0.944579 0.518502 0.114641
0.980026 0.559136 0.370993
0.988846 0.631968 0.460777
0 0.555093 0.0323186
0 0.555077 0.0323186
0 0.555001 0.0323339
0 0.554742 0.0323949
0.622156 0.699825 0
0.928588 0.739818 0
0.990921 0.785931 0
0.992294 0.811536 0.255573
0.988846 0.631968 0.460777
0 0.611658 0.0208438
0 0.611658 0.0208438
0 0.611643 0.0208438
0 0.611582 0.0208591
0 0.611368 0.0209049
0.909331 0.848264 0
0.986542 0.858595 0
0.996551 0.894743 0
0.997543 0.91574 0.235325
0 0.648157 0.0110781
0 0.648157 0.0110781
0 0.648157 0.0110781
0 0.648142 0.0110781
0 0.648066 0.0111086
0.00450141 0.647501 0.00895705
0.992844 0.903807 0
0.996231 0.905409 0
0.99675 0.91902 0
0 0.663355 0.00900282
0 0.663355 0.00900282
0 0.663355 0.00900282
0 0.663355 0.00900282
0 0.663355 0.00900282
0 0.663355 0.00900282
0.975814 0.909209 0
0.99617 0.918639 0
0.996628 0.918303 0
0.00254826 0 0.18555
0.015671 0 0.208865
0.110323 0 0.31107
0.361227 0 0.374014
0.638148 0 0.348318
0.770199 0.144488 0.00750744
0.93695 0.363745 0.167193
0.980117 0.559853 0.371832
0.988846 0.631968 0.460777
0 0 0.176242
0.00187686 0 0.202609
0.0912795 0 0.284352
0.359899 0 0.373434
0.63769 0 0.347433
0.770138 0.144427 0.00750744
0.936934 0.363714 0.167163
0.980117 0.559838 0.371801
0.988846 0.631968 0.460777
0 0.0999924 0.250278
0 0.0989395 0.247776
0.0266728 0.11194 0.300206
0.36553 0.124453 0.387732
0.636042 0 0.344152
0.769833 0.144198 0.0075227
0.936889 0.363577 0.167025
0.980102 0.559808 0.371756
0.988846 0.631968 0.460777
0 0.29897 0.367178
0 0.298024 0.366018
0.00373846 0.300694 0.368811
0.319936 0.353323 0.364065
0.704341 0.350347 0.305928
0.773693 0.159487 0.00555428
0.936721 0.363104 0.166583
0.980087 0.55964 0.371588
0.988846 0.631968 0.460777
0 0.523629 0.433646
0 0.523217 0.432532
0 0.521752 0.428458
0.0408637 0.519921 0.296071
0.723934 0.589364 0.098497
0.887846 0.540505 0
0.944457 0.517327 0.115282
0.980026 0.559136 0.370993
0.988846 0.631968 0.460777
0 0.555489 0.126802
0 0.554528 0.123659
0 0.551827 0.114565
0 0.553658 0.105684
0.620813 0.700648 0
0.928542 0.739712 0
0.99089 0.785809 0
0.992264 0.811383 0.25568
0.988846 0.631968 0.460777
0 0.611658 0.0208438
0 0.611643 0.0208438
0 0.611627 0.0208438
0 0.611566 0.0208591
0 0.611353 0.0209049
0.909209 0.848234 0
0.986526 0.858564 0
0.996551 0.894728 0
0.997543 0.915724 0.235355
0 0.648157 0.0110781
0 0.648157 0.0110781
0 0.648157 0.0110781
0 0.648127 0.0110781
0 0.648066 0.0111086
0.00418097 0.647501 0.00895705
0.992844 0.903807 0
0.996231 0.905409 0
0.99675 0.919036 0
0 0.663355 0.00900282
0 0.663355 0.00900282
0 0.663355 0.00900282
0 0.663355 0.00900282
0 0.663355 0.00900282
0 0.663355 0.00900282
0.975784 0.909194 0
0.99617 0.918639 0
0.996628 0.918303 0
0.0125582 0 0.334478
0.0196841 0 0.345754
0.0955215 0 0.40032
0.339162 0 0.529656
0.644968 0 0.615228
0.864973 0.178164 0.661982
0.943358 0.384527 0.389258
0.980102 0.559808 0.371756
0.988846 0.631968 0.460777
0.0110018 0 0.33611
0.0166171 0 0.342947
0.0931411 0 0.39913
0.337758 0 0.529274
0.644602 0 0.61503
0.864912 0.178088 0.661768
0.943313 0.38436 0.388174
0.980102 0.559777 0.37174
0.988846 0.631968 0.460777
0 0.0774548 0.349691
0 0.0755932 0.348837
0.0121157 0.0827039 0.464027
0.304814 0.0963912 0.554833
0.643214 0 0.614206
0.864683 0.177722 0.661006
0.943145 0.383688 0.384207
0.980102 0.559747 0.37171
0.988846 0.631968 0.460777
0 0.304143 0.522454
0 0.303288 0.521859
0.00224308 0.309148 0.530846
0.285634 0.386099 0.605219
0.713283 0.403906 0.685557
0.863859 0.176394 0.658244
0.942535 0.381353 0.369635
0.980087 0.559594 0.371511
0.988846 0.631968 0.460777
0 0.552193 0.63856
0 0.551995 0.638331
0 0.551202 0.637476
0.0476387 0.594614 0.646403
0.690837 0.702541 0.683955
0.92285 0.689052 0.640589
0.947158 0.52874 0.265934
0.980011 0.559091 0.370932
0.988846 0.631968 0.460777
0 0.714656 0.682826
0 0.714595 0.682628
0 0.714382 0.68188
0 0.713603 0.679194
0.348867 0.812085 0.610117
0.937423 0.858106 0.518471
0.990814 0.785351 0
0.992187 0.810849 0.256107
0.988846 0.631968 0.460777
0 0.733989 0.485008
0 0.733532 0.483619
0 0.731868 0.478645
0 0.72549 0.459663
0 0.690715 0.359945
0.909209 0.849699 0.0220951
0.986496 0.858488 0
0.996551 0.894697 0
0.997543 0.915694 0.235523
0 0.648142 0.0110781
0 0.648142 0.0110781
0 0.648142 0.0110781
0 0.648127 0.0110933
0 0.648051 0.0111086
0.00329595 0.647486 0.00898756
0.992828 0.903777 0
0.996231 0.905409 0
0.99675 0.919036 0
0 0.663355 0.00900282
0 0.663355 0.00900282
0 0.663355 0.00900282
0 0.663355 0.00900282
0 0.663355 0.00900282
0 0.663355 0.00900282
0.975677 0.909163 0
0.99617 0.918639 0
0.996628 0.918303 0
0.0281987 0 0.461265
0.0281987 0 0.461234
0.0868696 0 0.490883
0.280217 0 0.586801
0.59176 0 0.684581
0.870222 0.164538 0.839948
0.956313 0.44332 0.876188
0.983352 0.610224 0.824933
0.988846 0.631968 0.460777
0.0281987 0 0.46125
0.0281987 0 0.461219
0.0843671 0 0.48954
0.278782 0 0.586114
0.591348 0 0.684337
0.870161 0.164401 0.839918
0.956313 0.44329 0.876173
0.983352 0.610193 0.824842
0.988846 0.631968 0.460777
0.0210727 0 0.463859
0.0212558 0 0.463783
0.0692607 0 0.485252
0.272038 0 0.584176
0.589746 0 0.683375
0.869963 0.163943 0.839734
0.956283 0.443168 0.876081
0.983337 0.610117 0.824552
0.988846 0.631968 0.460777
0 0.256992 0.597223
0 0.255909 0.596521
0 0.252476 0.594507
0.167758 0.348013 0.73489
0.652567 0.387396 0.808896
0.869261 0.162356 0.839124
0.956191 0.442725 0.875746
0.983322 0.609827 0.823484
0.988846 0.631968 0.460777
0 0.545296 0.743618
0 0.545083 0.743496
0 0.544305 0.743069
0.0358892 0.602914 0.78294
0.674342 0.727962 0.852811
0.922011 0.732601 0.888319
0.958694 0.604822 0.874922
0.983261 0.608789 0.819593
0.988846 0.631968 0.460777
0 0.721172 0.80766
0 0.721141 0.80763
0 0.721019 0.807507
0 0.720592 0.807095
0.53196 0.865019 0.867567
0.920714 0.910414 0.887587
0.983536 0.904677 0.871443
0.99028 0.862058 0.776471
0.988846 0.631968 0.460777
0 0.810086 0.824079
0 0.810071 0.824048
0 0.810056 0.823957
0 0.809979 0.823621
0 0.809689 0.8224
0.820508 0.947478 0.858396
0.99144 0.959838 0.831464
0.997375 0.937469 0.61004
0.997543 0.915602 0.236118
0 0.846799 0.796063
0 0.846799 0.795972
0 0.846769 0.795743
0 0.846677 0.794842
0 0.846311 0.791577
0.0114443 0.844068 0.778592
0.991287 0.950149 0.517205
0.996231 0.905379 0
0.99675 0.919051 0
0 0.675456 0.196124
0 0.675334 0.195789
0 0.674922 0.194583
0 0.673426 0.190173
0 0.667842 0.174166
0 0.663493 0.154223
0.975921 0.909377 0
0.99617 0.918639 0
0.996628 0.918303 0
0.045716 0 0.54612
0.045716 0 0.54612
0.045716 0 0.54609
0.203967 0 0.60943
0.540688 0 0.719341
0.825284 0.0099031 0.86247
0.956252 0.437324 0.941238
0.983307 0.621637 0.955062
0.988632 0.678691 0.950484
0.045716 0 0.54612
0.045716 0 0.54612
0.045716 0 0.54609
0.202792 0 0.608957
0.540246 0 0.719249
0.825193 0.00973526 0.862394
0.956237 0.437293 0.941238
0.983307 0.621637 0.955062
0.988632 0.678691 0.950484
0.045716 0 0.546105
0.045716 0 0.546105
0.0457008 0 0.546075
0.198505 0 0.607141
0.538598 0 0.718853
0.824765 0.00892653 0.862089
0.956207 0.437156 0.941222
0.983291 0.621592 0.955047
0.988632 0.678691 0.950469
0.012314 0.00389105 0.553567
0.0139925 0.00375372 0.553155
0.0202487 0.00300603 0.551675
0.165942 0.0019379 0.60679
0.526421 0 0.719173
0.822904 0.00590524 0.860883
0.956115 0.436683 0.941131
0.983291 0.621469 0.955001
0.988632 0.678706 0.950423
0 0.507805 0.793271
0 0.507561 0.793164
0 0.506539 0.792691
0 0.513878 0.800122
0.614115 0.700771 0.910109
0.902617 0.721218 0.935531
0.955856 0.441352 0.940902
0.983246 0.621027 0.954849
0.988632 0.678721 0.95024
0 0.714015 0.861708
0 0.713985 0.861692
0 0.713848 0.861646
0 0.713375 0.861463
0.495491 0.864195 0.921523
0.916304 0.916747 0.948867
0.980743 0.916609 0.961151
0.98793 0.884672 0.956161
0.988632 0.678798 0.94963
0 0.807706 0.880034
0 0.807691 0.880018
0 0.807675 0.880003
0 0.807599 0.879942
0 0.807355 0.879744
0.883024 0.963012 0.953857
0.982681 0.974731 0.960327
0.996506 0.972976 0.95581
0.997574 0.967544 0.94522
0 0.848005 0.882261
0 0.848005 0.882261
0 0.848005 0.882231
0 0.84799 0.88217
0 0.847929 0.881956
0.00137331 0.847089 0.881132
0.966613 0.985077 0.952773
0.997314 0.986999 0.948623
0.998459 0.984604 0.93193
0 0.862943 0.879133
0 0.862943 0.879133
0 0.862943 0.879103
0 0.862943 0.879042
0 0.862928 0.878782
0 0.862882 0.877882
0.920119 0.983368 0.941558
0.996841 0.988998 0.931517
0.998337 0.98706 0.910842
0.0543069 0 0.597803
0.0543069 0 0.597803
0.0543069 0 0.597803
0.0543069 0 0.597772
0.432944 0 0.727901
0.716686 0 0.788907
0.945449 0.356832 0.952422
0.982803 0.614115 0.976074
0.988663 0.682948 0.979431
0.0543069 0 0.597803
0.0543069 0 0.597803
0.0543069 0 0.597803
0.0543069 0 0.597772
0.432273 0 0.727718
0.716625 0 0.788891
0.945449 0.356771 0.952422
0.982788 0.614084 0.976074
0.988663 0.682948 0.979431
0.0543069 0 0.597803
0.0543069 0 0.597803
0.0543069 0 0.597787
0.0543069 0 0.597757
0.429923 0 0.727031
0.716442 0 0.788861
0.945403 0.356558 0.952392
0.982788 0.614069 0.976074
0.988663 0.682948 0.979431
0.0543069 0 0.597787
0.0543069 0 0.597787
0.0543069 0 0.597772
0.0543069 0 0.597742
0.421164 0 0.724514
0.715755 0 0.788724
0.945235 0.355703 0.9523
0.982773 0.613931 0.976059
0.988663 0.682948 0.979431
0 0.356619 0.76228
0 0.355917 0.761929
0 0.353414 0.760647
0 0.344289 0.755993
0.462226 0.516457 0.906722
0.858274 0.540536 0.936034
0.944686 0.352804 0.95198
0.982727 0.613458 0.976013
0.988663 0.682963 0.979416
0 0.699138 0.887175
0 0.699107 0.88716
0 0.69894 0.887129
0 0.69836 0.886992
0.117403 0.818448 0.930571
0.902449 0.912306 0.970382
0.976806 0.917662 0.978531
0.98703 0.879393 0.979889
0.988663 0.682979 0.979339
0 0.80351 0.905455
0 0.80351 0.90544
0 0.803479 0.90544
0 0.803403 0.905409
0 0.803067 0.905303
0.880232 0.963714 0.973342
0.982162 0.976883 0.981109
0.995285 0.976684 0.984466
0.996216 0.97113 0.983322
0 0.844892 0.908751
0 0.844892 0.908751
0 0.844877 0.908751
0 0.844862 0.908736
0 0.8448 0.90869
0 0.844602 0.908537
0.977478 0.988922 0.983307
0.995926 0.990677 0.983841
0.998398 0.990188 0.982437
0 0.860853 0.908934
0 0.860853 0.908934
0 0.860853 0.908934
0 0.860868 0.908919
0 0.860868 0.908873
0 0.860914 0.908736
0.954437 0.98967 0.981384
0.9944 0.994049 0.983139
0.998779 0.993896 0.981796
0.0556497 0 0.617624
0.0556497 0 0.617624
0.0556497 0 0.617624
0.0556497 0 0.617624
0.315984 0 0.711482
0.701579 0 0.8009
0.924041 0.217517 0.942351
0.981643 0.596628 0.980072
0.988235 0.676616 0.984848
0.0556497 0 0.617624
0.0556497 0 0.617624
0.0556497 0 0.617624
0.0556497 0 0.617624
0.315282 0 0.711238
0.701503 0 0.800885
0.924025 0.217426 0.942336
0.981643 0.596628 0.980072
0.988235 0.676616 0.984848
0.0556497 0 0.617624
0.0556497 0 0.617624
0.0556497 0 0.617624
0.0556497 0 0.617624
0.312734 0 0.710399
0.701274 0 0.800839
0.923919 0.216938 0.942275
0.981643 0.596567 0.980056
0.988235 0.676616 0.984848
0.0556497 0 0.617624
0.0556497 0 0.617624
0.0556497 0 0.617624
0.0556497 0 0.617624
0.303212 0 0.70721
0.700435 0 0.800702
0.923613 0.215473 0.942077
0.981628 0.596414 0.980056
0.988235 0.676616 0.984848
0.0332647 0.00981155 0.621347
0.0332799 0.00976577 0.621347
0.0333715 0.00959792 0.621332
0.0336767 0.00901808 0.621317
0.253269 0.00621042 0.698756
0.696773 0 0.801831
0.922515 0.209842 0.941314
0.981582 0.59585 0.980011
0.988235 0.676616 0.984848
0 0.680644 0.893919
0 0.680583 0.893919
0 0.680354 0.893858
0 0.679606 0.89369
0 0.676738 0.893126
0.886763 0.902022 0.974975
0.973739 0.907912 0.981765
0.984833 0.855909 0.983825
0.988235 0.676616 0.984848
0 0.799008 0.913603
0 0.798993 0.913603
0 0.798962 0.913603
0 0.798886 0.913588
0 0.798566 0.913558
0.862104 0.961242 0.977798
0.981048 0.977157 0.985962
0.994659 0.977401 0.989151
0.995956 0.972351 0.989731
0 0.843229 0.917769
0 0.843229 0.917769
0 0.843229 0.917769
0 0.843198 0.917769
0 0.843137 0.917769
0 0.842908 0.917754
0.977829 0.989227 0.987823
0.995804 0.991211 0.989502
0.998077 0.991119 0.99025
0 0.858885 0.918502
0 0.858885 0.918502
0 0.858885 0.918502
0 0.858885 0.918502
0 0.858885 0.918502
0 0.858885 0.918502
0.955169 0.990234 0.98706
0.995361 0.994858 0.990585
0.998489 0.995209 0.990585
