apps/lut-action/luts/TAM_NIGHT EXT +0.0.cube
TITLE "Generated by Resolve"
LUT_3D_SIZE 5
0.0100557 0.0117494 0.0117037
0.0644694 0.0310979 0.0194858
0.468132 0.0755779 0
0.822049 0.431983 0.244572
0.953216 0.746197 0.605631
0.000671397 0.145251 0.040238
0.165667 0.141558 0.00315862
0.562676 0.130236 0
0.864286 0.53753 0.361028
0.953216 0.746197 0.605631
0 0.540749 0.0567788
0 0.546075 0.0555886
0.922835 0.731167 0
0.932479 0.672877 0.473213
0.953216 0.746197 0.605631
0 0.672801 0.0264134
0 0.675486 0.0255436
0 0.676478 0.0252384
0.996979 0.925032 0
0.997635 0.939818 0
0 0.691936 0.019852
0 0.691936 0.019852
0 0.691936 0.019852
0.997101 0.933562 0
0.997345 0.933379 0
0.00582895 0.0231327 0.143359
0.0968795 0.038056 0.112261
0.489906 0.0806287 0.00364691
0.827543 0.44506 0.258473
0.953216 0.746197 0.605631
0 0.174029 0.219318
0.159976 0.200183 0.213214
0.582254 0.184756 0.0767071
0.8701 0.548974 0.37406
0.953216 0.746197 0.605631
0 0.546899 0.0654612
0 0.553063 0.0656291
0.940673 0.763821 0.000717174
0.964004 0.73228 0.492149
0.953216 0.746197 0.605631
0 0.675273 0.0256199
0 0.678096 0.0247044
0 0.678691 0.024506
0.997024 0.926192 0
0.997497 0.936797 0
0 0.691936 0.019852
0 0.691936 0.019852
0 0.691936 0.019852
0.997131 0.933532 0
0.997345 0.933379 0
0.0397192 0 0.444129
0.133654 0 0.476356
0.732433 0.0642405 0.695659
0.836637 0.467521 0.282704
0.953216 0.746197 0.605631
0 0.117739 0.518364
0.0265965 0.154162 0.626947
0.785977 0.244526 0.74728
0.877607 0.565484 0.397147
0.953216 0.746197 0.605631
0 0.711086 0.798398
0 0.723415 0.809934
0.858412 0.851575 0.825757
0.986969 0.917128 0.86775
0.953216 0.746197 0.605631
0 0.676875 0.0309148
0 0.680049 0.0457313
0 0.681086 0.100969
0.998978 0.989837 0.908614
0.997452 0.934768 0
0 0.691936 0.019852
0 0.691936 0.019852
0 0.691936 0.019852
0.997147 0.933532 0
0.997345 0.933379 0
0.0726482 0 0.627024
0.0722362 0 0.620127
0.584817 0 0.770184
0.980133 0.635523 0.97258
0.994476 0.815259 0.967987
0.0727703 0 0.636576
0.072755 0 0.635798
0.660533 0 0.799512
0.987213 0.706233 0.982956
0.99382 0.818112 0.984894
0 0.629648 0.892226
0 0.653544 0.899413
0.882994 0.896178 0.979294
0.992432 0.929976 0.9888
0.993851 0.818875 0.989578
0 0.870695 0.926619
0 0.874479 0.92903
0 0.875654 0.929808
0.999252 0.996963 0.993149
0.99968 0.998352 0.995148
0 0.881559 0.925643
0 0.881483 0.927977
0 0.881331 0.929137
0.999481 0.99826 0.993881
0.999603 0.99855 0.995438
0.0735027 0 0.657176
0.0735027 0 0.657176
0.198642 0 0.697307
0.975586 0.56437 0.981125
0.993698 0.811368 0.992599
0.0735027 0 0.657176
0.0735027 0 0.657176
0.529671 0 0.797055
0.987503 0.696849 0.988571
0.993698 0.811368 0.992599
0.00225834 0.368154 0.815137
0 0.533074 0.873899
0.800046 0.81117 0.973709
0.991302 0.754116 0.991012
0.993698 0.811368 0.992599
0 0.867918 0.932921
0 0.870878 0.932982
0 0.87216 0.932998
1 0.997101 0.995972
0.999619 0.998459 0.995453
0 0.879713 0.932982
0 0.879713 0.932982
0 0.879713 0.932982
1 0.998077 0.996185
0.999603 0.99855 0.995438
