apps/lut-action/luts/TAM_DAY EXT -1.0.cube
TITLE "Generated by Resolve"
LUT_3D_SIZE 33
0.000213626 0.000213626 0.000213626
0.000350958 0.000274662 0.000259403
0.000717174 0.000488289 0.000457771
0.00256352 0.00112917 0.000808728
0.0122225 0.00410468 0.00227359
0.0314794 0.0112917 0.002121
0.0614023 0.0174411 0.00170901
0.0960708 0.0234073 0.0015259
0.125139 0.0247959 0.00173953
0.162661 0.0253452 0.00196841
0.203662 0.0242161 0.00233463
0.241917 0.0198215 0.00248722
0.282628 0.0120851 0.0021973
0.330373 0.00317388 0.002121
0.394659 0.00518807 0.0018616
0.457664 0.00987259 0.00234989
0.528786 0.023209 0.00265507
0.600656 0.0497597 0.00428778
0.66421 0.0778821 0.00515755
0.718318 0.107942 0.0059968
0.770367 0.14461 0.00750744
0.826642 0.187533 0.0251621
0.877119 0.239551 0.0541238
0.913176 0.299519 0.11017
0.936965 0.363806 0.167254
0.953979 0.423835 0.225803
0.966079 0.475761 0.278462
0.974273 0.520836 0.327565
0.980117 0.559884 0.371862
0.984436 0.591546 0.410208
0.98732 0.616175 0.44126
0.988846 0.631968 0.460777
0.988846 0.631968 0.460777
0.000259403 0.000320439 0.000244144
0.000350958 0.000350958 0.000274662
0.000656138 0.000518807 0.000427253
0.00215152 0.00115969 0.000701915
0.0112306 0.0041352 0.00207523
0.0301366 0.0114748 0.00225834
0.0593271 0.0178531 0.00158694
0.0943618 0.0241245 0.00135805
0.12372 0.0252842 0.00167849
0.162158 0.0254826 0.00195315
0.203433 0.0242313 0.00233463
0.241779 0.019852 0.00248722
0.282506 0.0121004 0.0021973
0.33022 0.00317388 0.002121
0.394553 0.00518807 0.0018616
0.457618 0.00987259 0.00234989
0.528725 0.0231937 0.00265507
0.600626 0.0497444 0.00428778
0.664179 0.0778668 0.00515755
0.718318 0.107942 0.0059968
0.770336 0.144594 0.00750744
0.826612 0.187518 0.0251621
0.877089 0.239536 0.0541085
0.913176 0.299519 0.11017
0.936965 0.363806 0.167254
0.953979 0.423835 0.225803
0.966079 0.475761 0.278462
0.974273 0.520836 0.327565
0.980117 0.559884 0.371862
0.984436 0.591516 0.410193
0.98732 0.616175 0.44126
0.988846 0.631968 0.460777
0.988846 0.631968 0.460777
0.00047303 0.000610361 0.000427253
0.000518807 0.000595102 0.000427253
0.000640879 0.000610361 0.000442512
0.00183108 0.00122072 0.000549325
0.0100404 0.00448615 0.0018616
0.0287327 0.0122377 0.00213626
0.0572366 0.0189059 0.00137331
0.0923934 0.0253605 0.0012665
0.121172 0.0265812 0.00161746
0.160189 0.0264897 0.00195315
0.20296 0.0244144 0.00231937
0.241596 0.0198825 0.00248722
0.282322 0.0121157 0.00221256
0.330022 0.00315862 0.00210575
0.3944 0.00517281 0.0018616
0.457511 0.00985733 0.00233463
0.528649 0.0231785 0.00265507
0.600565 0.0497292 0.00428778
0.664134 0.0778363 0.00515755
0.718288 0.107927 0.0059968
0.770336 0.144594 0.00750744
0.826612 0.187518 0.0251621
0.877089 0.239536 0.0541085
0.913176 0.299519 0.11017
0.936965 0.363806 0.167254
0.953979 0.423804 0.225772
0.966079 0.475761 0.278462
0.974273 0.520836 0.327565
0.980117 0.559853 0.371832
0.984436 0.591516 0.410193
0.98732 0.616175 0.44126
0.988846 0.631968 0.460777
0.988846 0.631968 0.460777
0.000732433 0.0015259 0.000549325
0.000839246 0.00148013 0.000518807
0.0010071 0.00138857 0.000442512
0.00163272 0.0015259 0.000457771
0.0083772 0.00502022 0.0016022
0.0270695 0.0138094 0.00198367
0.0554208 0.0213779 0.000976577
0.0915999 0.0279393 0.000976577
0.120119 0.0290074 0.00155642
0.157595 0.0288701 0.00210575
0.200153 0.0262913 0.00222782
0.241596 0.0202792 0.0024567
0.282048 0.0121614 0.00221256
0.329793 0.00315862 0.00210575
0.394232 0.00515755 0.00187686
0.457389 0.00985733 0.00233463
0.528511 0.0231327 0.00265507
0.600519 0.0496986 0.00428778
0.664103 0.077821 0.00515755
0.718242 0.107897 0.0059968
0.770321 0.144579 0.00750744
0.826596 0.187488 0.0251469
0.877089 0.239536 0.0541085
0.913176 0.299519 0.11017
0.936965 0.363806 0.167254
0.953979 0.423804 0.225772
0.966079 0.475761 0.278462
0.974273 0.520836 0.327565
0.980117 0.559853 0.371832
0.984436 0.591516 0.410193
0.987305 0.616144 0.44123
0.988846 0.631968 0.460777
0.988846 0.631968 0.460777
0.00137331 0.00741588 0.00209049
0.00155642 0.00720226 0.00196841
0.00202945 0.00669871 0.00177005
0.00317388 0.00593576 0.00146487
0.00695811 0.0065919 0.00148013
0.024033 0.016083 0.00274662
0.0535286 0.0255741 0.0011902
0.0920272 0.0328069 0.00077821
0.122698 0.034165 0.00143435
0.159503 0.0351568 0.00173953
0.202701 0.0322728 0.00196841
0.245777 0.0259098 0.00209049
0.282689 0.0127413 0.00231937
0.329427 0.0031281 0.00210575
0.393957 0.00514229 0.00187686
0.457206 0.00984207 0.00233463
0.528374 0.0231022 0.00265507
0.600397 0.0496529 0.00427253
0.664042 0.0777905 0.00515755
0.718227 0.107897 0.00601205
0.770275 0.144533 0.00750744
0.826566 0.187457 0.0251316
0.877073 0.239506 0.0540932
0.913161 0.299489 0.11014
0.93695 0.363775 0.167224
0.953979 0.423804 0.225772
0.966079 0.475761 0.278462
0.974273 0.520836 0.327565
0.980117 0.559853 0.371832
0.984436 0.591516 0.410193
0.987305 0.616144 0.44123
0.988846 0.631968 0.460777
0.988846 0.631968 0.460777
0.00062562 0.0226902 0.00662242
0.000732433 0.0226596 0.0065919
0.0009308 0.021973 0.00630198
0.00149538 0.0204471 0.0056611
0.00849927 0.0185855 0.00457771
0.0201724 0.0199435 0.00401312
0.0489967 0.0327306 0.00361639
0.0899214 0.042237 0.000640879
0.12578 0.045594 0.000976577
0.166796 0.0475471 0.00077821
0.213931 0.0459144 0.000961318
0.260548 0.0391546 0.00144961
0.305852 0.0284581 0.00199893
0.330388 0.00395209 0.002121
0.393606 0.00512703 0.00187686
0.456947 0.00982681 0.00231937
0.528145 0.0230259 0.00263981
0.600275 0.0496071 0.00427253
0.663966 0.0777447 0.00514229
0.718151 0.107851 0.00601205
0.77023 0.144503 0.00750744
0.826535 0.187442 0.0251164
0.877043 0.239475 0.0540627
0.913146 0.299458 0.110124
0.93695 0.363775 0.167224
0.953964 0.423774 0.225742
0.966079 0.475731 0.278431
0.974258 0.520806 0.327535
0.980117 0.559853 0.371832
0.984436 0.591516 0.410193
0.987305 0.616144 0.44123
0.988846 0.631968 0.460777
0.988846 0.631968 0.460777
0.000411994 0.0459907 0.0133059
0.000640879 0.0460059 0.0132601
0.0009308 0.0453956 0.0129702
0.00120546 0.0434424 0.0121614
0.00366217 0.0401465 0.0107424
0.0223697 0.0361028 0.00790417
0.0442969 0.0417639 0.00695811
0.0875105 0.055024 0.00167849
0.124514 0.0584878 0
0.169421 0.0625467 0.000442512
0.223255 0.0634165 0.000595102
0.276387 0.0588693 0.000793469
0.329473 0.0512093 0.00201419
0.373754 0.0343328 0.00274662
0.394278 0.00569161 0.00183108
0.456626 0.00979629 0.00231937
0.52784 0.0229343 0.00263981
0.600061 0.0495308 0.00425727
0.663844 0.0776837 0.00514229
0.718074 0.107805 0.00601205
0.770184 0.144472 0.00750744
0.826474 0.187396 0.0251011
0.876997 0.239429 0.0540169
0.913146 0.299428 0.110094
0.93695 0.363745 0.167193
0.953964 0.423774 0.225742
0.966079 0.475731 0.278431
0.974258 0.520806 0.327535
0.980117 0.559853 0.371832
0.984436 0.591516 0.410193
0.987305 0.616144 0.44123
0.988846 0.631968 0.460777
0.988846 0.631968 0.460777
0 0.0749676 0.0198825
0 0.0748455 0.0197604
0 0.0746624 0.0196078
0 0.073106 0.0189822
0.00144961 0.0695659 0.0176242
0.0143435 0.0647135 0.0149844
0.0443122 0.0648203 0.0121767
0.0830243 0.0717174 0.00730907
0.124117 0.0760815 0.000320439
0.170397 0.0811475 1.5259e-05
0.227939 0.0840162 4.57771e-05
0.288029 0.0817884 0.00077821
0.348028 0.0769055 0.00164797
0.405005 0.067216 0.00146487
0.443183 0.044358 0.00115969
0.457557 0.0107271 0.00250248
0.527428 0.0228122 0.00263981
0.599786 0.049424 0.00424201
0.663661 0.0775921 0.00514229
0.717952 0.107729 0.00601205
0.770092 0.144396 0.0075227
0.826398 0.18732 0.0250706
0.876951 0.239368 0.0539712
0.91313 0.299397 0.110063
0.936934 0.363714 0.167163
0.953964 0.423743 0.225711
0.966064 0.4757 0.278401
0.974258 0.520806 0.327535
0.980117 0.559838 0.371801
0.984421 0.591501 0.410163
0.987305 0.616144 0.44123
0.988846 0.631968 0.460777
0.988846 0.631968 0.460777
0 0.101778 0.021973
0 0.10161 0.0218967
0 0.101488 0.0218204
0.000259403 0.10074 0.021622
0.00187686 0.0965896 0.0209506
0.0033875 0.0896773 0.019501
0.0245212 0.0878462 0.016434
0.0724651 0.0923171 0.0117952
0.120958 0.0967422 0
0.171298 0.102007 0
0.230762 0.106264 0.000488289
0.29546 0.108232 0.000289921
0.3608 0.106432 0
0.427131 0.101396 0.000213626
0.478218 0.0892348 0.00108339
0.512596 0.0663615 0.00112917
0.528145 0.0238651 0.00270085
0.59942 0.0492714 0.00422675
0.663447 0.0774701 0.00514229
0.717784 0.107637 0.00602731
0.76997 0.144305 0.0075227
0.826322 0.187259 0.0250248
0.87689 0.239322 0.0539254
0.9131 0.299336 0.110018
0.936904 0.363638 0.167102
0.953948 0.423713 0.225681
0.966064 0.47567 0.27837
0.974258 0.520775 0.327504
0.980117 0.559838 0.371801
0.984421 0.591501 0.410163
0.987305 0.616129 0.441199
0.988846 0.631968 0.460777
0.988846 0.631968 0.460777
0 0.130373 0.0235142
0 0.130205 0.0234379
0 0.129992 0.0233463
0 0.129885 0.0232547
0 0.127535 0.0228275
0.000518807 0.118868 0.0216983
0.00709544 0.109499 0.0180056
0.04448 0.112184 0.0144808
0.106828 0.120333 0.00508125
0.167285 0.126589 0
0.231632 0.133669 0
0.300938 0.138018 0
0.370428 0.138399 0.000213626
0.440589 0.137377 0
0.500084 0.129793 0
0.545037 0.116732 0.0010071
0.580148 0.0955978 0.00131228
0.600504 0.0511177 0.00434882
0.663142 0.0773175 0.00512703
0.717571 0.1075 0.00602731
0.769833 0.144198 0.0075227
0.826185 0.187137 0.024979
0.876799 0.239216 0.0538338
0.913054 0.299245 0.109957
0.936889 0.363577 0.167025
0.953933 0.423651 0.22562
0.966049 0.475639 0.27834
0.974258 0.52076 0.327474
0.980102 0.559808 0.371756
0.984421 0.59147 0.410132
0.987305 0.616129 0.441199
0.988846 0.631968 0.460777
0.988846 0.631968 0.460777
0 0.167865 0.0288243
0 0.167712 0.0287938
0 0.167498 0.0287633
0 0.167178 0.0287175
0 0.167071 0.028687
0.000686656 0.159594 0.0270085
0.00180056 0.144259 0.0221256
0.00953689 0.135073 0.0149233
0.0754711 0.142748 0.00451667
0.151385 0.152529 0
0.22652 0.163531 0
0.303563 0.172122 0
0.379583 0.175708 0
0.452125 0.177661 0
0.516228 0.174563 0
0.569207 0.165652 0.000610361
0.609155 0.152972 0.00103761
0.645579 0.133562 0.00120546
0.665324 0.08159 0.00514229
0.717281 0.107332 0.00604257
0.769635 0.14403 0.0075227
0.825986 0.186984 0.0248875
0.876677 0.239078 0.0537118
0.912993 0.299123 0.109865
0.936858 0.36347 0.166934
0.953918 0.42359 0.225559
0.966049 0.475593 0.278279
0.974258 0.520729 0.327443
0.980102 0.559777 0.37174
0.984421 0.591455 0.410101
0.987305 0.616098 0.441169
0.988846 0.631968 0.460777
0.988846 0.631968 0.460777
0 0.213275 0.0370794
0 0.213138 0.0370642
0 0.21294 0.0370336
0 0.21268 0.0369879
0 0.212345 0.0369268
0 0.211963 0.0368048
0.000167849 0.19649 0.0326543
0.005066 0.173434 0.0183108
0.0167391 0.165728 0.00358587
0.121904 0.17908 0
0.208621 0.197269 0
0.299657 0.209781 0
0.384909 0.217517 0
0.464057 0.221515 0
0.532906 0.222232 0
0.58938 0.217731 0.000122072
0.633036 0.210498 0.000595102
0.67306 0.200153 0.000503548
0.707332 0.183566 0.000686656
0.721355 0.117418 0.00526436
0.769329 0.143786 0.00753796
0.825742 0.18677 0.0247807
0.876493 0.238895 0.0535592
0.912917 0.29897 0.109743
0.936812 0.363348 0.166812
0.953902 0.423499 0.225467
0.966033 0.475532 0.278218
0.974243 0.520668 0.327382
0.980102 0.559731 0.371679
0.984421 0.591424 0.410071
0.987305 0.616083 0.441154
0.988846 0.631968 0.460777
0.988846 0.631968 0.460777
0 0.267201 0.0478523
0 0.267109 0.0478218
0 0.266941 0.0477913
0 0.266743 0.0477455
0 0.266468 0.0476844
0 0.266087 0.0476081
0 0.265171 0.0473182
0.00221256 0.235752 0.0368353
0.00733959 0.2056 0.00347906
0.062501 0.209293 0
0.177966 0.231876 0
0.281743 0.250355 0
0.381613 0.261585 0
0.472313 0.269184 0
0.549737 0.273655 0
0.610056 0.273228 0
0.65536 0.269871 0
0.696284 0.264927 0
0.735653 0.258869 0.00030518
0.763729 0.243 0.000411994
0.77612 0.167575 0.00509651
0.825391 0.186465 0.0246433
0.876265 0.238666 0.0533455
0.912825 0.298741 0.109575
0.936751 0.363165 0.166644
0.953872 0.423377 0.225345
0.966003 0.475441 0.278126
0.974227 0.520592 0.327291
0.980087 0.55967 0.371618
0.984405 0.591379 0.41001
0.987305 0.616037 0.441093
0.988846 0.631968 0.460777
0.988846 0.631968 0.460777
0 0.324025 0.0549325
0 0.323919 0.0549172
0 0.323827 0.054902
0 0.323674 0.0548867
0 0.323445 0.0548714
0 0.323171 0.0548409
0 0.322744 0.0547951
0 0.319951 0.0542763
0.00230411 0.276432 0.0341802
0.0122225 0.244938 0
0.125017 0.267109 0
0.250767 0.291402 0
0.365591 0.309895 0
0.472816 0.321462 0
0.563256 0.328557 0
0.630152 0.331044 0
0.678416 0.330526 0
0.718456 0.329229 0
0.760143 0.328222 0
0.792599 0.323171 4.57771e-05
0.816617 0.308034 0.000213626
0.831785 0.237812 0.0122377
0.875914 0.2383 0.0530251
0.912688 0.298436 0.109346
0.93666 0.362905 0.166384
0.953826 0.423194 0.225162
0.965972 0.475303 0.277974
0.974212 0.5205 0.327199
0.980087 0.559594 0.371511
0.984405 0.591333 0.409949
0.987289 0.616007 0.441047
0.988846 0.631968 0.460777
0.988846 0.631968 0.460777
0 0.376272 0.0573739
0 0.376226 0.0573739
0 0.376165 0.0573739
0 0.376089 0.0573739
0 0.375967 0.0573892
0 0.375784 0.0573892
0 0.375555 0.0574044
0 0.375235 0.0574197
0 0.36791 0.0567941
0.00546273 0.315114 0.0199741
0.0350042 0.301045 0
0.200336 0.331868 0
0.336187 0.356878 0
0.4598 0.37467 0
0.567514 0.386313 0
0.648707 0.391104 0
0.701686 0.393805 0
0.742794 0.394781 0
0.782361 0.397818 0
0.818753 0.398505 0
0.845243 0.394491 0
0.862303 0.381033 7.62951e-05
0.880919 0.327382 0.0284276
0.91249 0.298024 0.109041
0.936538 0.36257 0.166064
0.953765 0.422934 0.224918
0.965942 0.475135 0.27779
0.974197 0.520363 0.327047
0.980072 0.559487 0.371389
0.98439 0.591272 0.409873
0.987289 0.61593 0.44097
0.988846 0.631968 0.460777
0.988846 0.631968 0.460777
0 0.417975 0.0542153
0 0.417945 0.0542153
0 0.417899 0.0542306
0 0.417853 0.0542306
0 0.417777 0.0542458
0 0.417655 0.0542458
0 0.417517 0.0542611
0 0.417319 0.0542916
0 0.417044 0.0543221
0.00129702 0.406302 0.0548257
0.01149 0.34905 0
0.0840009 0.364858 0
0.286885 0.401801 0
0.433097 0.426444 0
0.557488 0.443427 0
0.657649 0.45359 0
0.723079 0.456657 0
0.7673 0.459419 0
0.800519 0.461631 0
0.841413 0.469657 0
0.868635 0.471092 0
0.887465 0.467475 0
0.901564 0.458701 0.000518807
0.919326 0.42208 0.0663615
0.936385 0.362097 0.165606
0.953689 0.422629 0.224613
0.965881 0.474891 0.277546
0.974166 0.52018 0.326833
0.980056 0.55935 0.371237
0.984375 0.59115 0.40972
0.987289 0.615869 0.440894
0.988846 0.631968 0.460777
0.988846 0.631968 0.460777
0 0.453605 0.0502174
0 0.45359 0.0502174
0 0.453559 0.0502174
0 0.453529 0.0502327
0 0.453483 0.0502327
0 0.453407 0.050248
0 0.45333 0.050248
0 0.453208 0.0502632
0 0.45304 0.0502785
0 0.452811 0.050309
0.000106813 0.438178 0.0508125
0.0140536 0.392157 0
0.181552 0.435355 0
0.384375 0.472801 0
0.534874 0.497292 0
0.652338 0.51284 0
0.735897 0.519371 0
0.789654 0.521324 0
0.822461 0.524254 0
0.856947 0.533028 0
0.888136 0.541268 0
0.908827 0.543313 0
0.922484 0.543191 0
0.933623 0.537789 0.00129702
0.944625 0.518914 0.114443
0.953567 0.422171 0.224155
0.965805 0.474556 0.277195
0.974121 0.519936 0.326558
0.980026 0.559136 0.370993
0.98436 0.591012 0.409552
0.987274 0.615747 0.440726
0.988846 0.631968 0.460777
0.988846 0.631968 0.460777
0 0.484688 0.0462196
0 0.484672 0.0462196
0 0.484657 0.0462196
0 0.484642 0.0462196
0 0.484596 0.0462348
0 0.48455 0.0462348
0 0.484504 0.0462501
0 0.484413 0.0462501
0 0.484306 0.0462654
0 0.484138 0.0462959
0 0.483925 0.0463264
0 0.465873 0.0430457
0.0240482 0.44506 0
0.292912 0.505089 0
0.487984 0.542611 0
0.633448 0.566262 0
0.736858 0.578561 0
0.804822 0.582147 0
0.84361 0.583505 0
0.868971 0.588418 0
0.900694 0.602045 0
0.924926 0.609491 0
0.939437 0.612604 0
0.947936 0.612284 0
0.956695 0.612589 0.0187076
0.961852 0.606134 0.159274
0.965713 0.474113 0.276753
0.97406 0.51957 0.326146
0.979995 0.558877 0.370687
0.984329 0.590814 0.409293
0.987259 0.615595 0.440543
0.988846 0.631968 0.460777
0.988846 0.631968 0.460777
0 0.512047 0.0416724
0 0.512047 0.0416724
0 0.512047 0.0416724
0 0.512016 0.0416724
0 0.512001 0.0416724
0 0.511971 0.0416876
0 0.51194 0.0416876
0 0.511879 0.0417029
0 0.511818 0.0417182
0 0.511727 0.0417334
0 0.511589 0.0417639
0 0.511406 0.0417945
0.00512703 0.490257 0.024918
0.0822461 0.507576 0
0.400076 0.573297 0
0.592706 0.610956 0
0.725567 0.630701 0
0.808148 0.637797 0
0.85713 0.639551 0
0.886015 0.642664 0
0.906661 0.651041 0
0.934859 0.664805 0
0.952026 0.671778 0
0.961654 0.675944 0
0.967178 0.678264 0
0.972992 0.68719 0.0764477
0.974365 0.683925 0.198917
0.974762 0.619547 0.302495
0.97995 0.558495 0.370275
0.984298 0.590555 0.408972
0.987243 0.615381 0.440284
0.988846 0.631968 0.460777
0.988846 0.631968 0.460777
0 0.535439 0.0370489
0 0.535424 0.0370489
0 0.535424 0.0370489
0 0.535424 0.0370489
0 0.535393 0.0370642
0 0.535393 0.0370642
0 0.535363 0.0370642
0 0.535332 0.0370794
0 0.535286 0.0370794
0 0.535225 0.0370947
0 0.535149 0.0371252
0 0.535027 0.0371405
0 0.534859 0.0371862
0.0129397 0.508827 0.000167849
0.188754 0.571694 0
0.512123 0.638727 0
0.692531 0.673259 0
0.799466 0.685954 0
0.861402 0.690608 0
0.898238 0.69247 0
0.917891 0.695994 0
0.937209 0.707546 0
0.960006 0.720607 0
0.972625 0.72871 0
0.979324 0.734966 0
0.982544 0.741558 0.00956741
0.983978 0.752132 0.121599
0.983932 0.752453 0.231174
0.983597 0.732799 0.31809
0.984237 0.590188 0.408515
0.987213 0.615106 0.439948
0.988846 0.631968 0.460777
0.988846 0.631968 0.460777
0 0.555108 0.0323186
0 0.555108 0.0323186
0 0.555093 0.0323186
0 0.555093 0.0323186
0 0.555093 0.0323186
0 0.555077 0.0323186
0 0.555062 0.0323186
0 0.555032 0.0323339
0 0.555016 0.0323339
0 0.554971 0.0323491
0 0.554925 0.0323491
0 0.554849 0.0323796
0 0.554757 0.0323949
0 0.55462 0.0324254
0.0169833 0.529747 0
0.340169 0.634974 0
0.62269 0.699962 0
0.774945 0.725124 0
0.85713 0.733516 0
0.903243 0.737865 0
0.928618 0.739864 0
0.940475 0.742351 0
0.961044 0.757427 0
0.981353 0.772091 0
0.990921 0.785977 0
0.99321 0.794629 0
0.993851 0.80116 0.0268711
0.993408 0.809873 0.158419
0.992294 0.811566 0.255543
0.990448 0.804273 0.33048
0.988876 0.78172 0.394415
0.988846 0.631968 0.460777
0.988846 0.631968 0.460777
0 0.571664 0.0285649
0 0.571664 0.0285649
0 0.571664 0.0285649
0 0.571664 0.0285649
0 0.571649 0.0285649
0 0.571649 0.0285649
0 0.571633 0.0285649
0 0.571618 0.0285801
0 0.571603 0.0285801
0 0.571572 0.0285801
0 0.571557 0.0285954
0 0.571496 0.0285954
0 0.571435 0.0286107
0 0.571344 0.0286259
0 0.571221 0.0286412
0.0253452 0.566094 0
0.471855 0.696925 0
0.718914 0.750957 0
0.841001 0.768734 0
0.901335 0.775265 0
0.932967 0.778302 0
0.949325 0.77847 0
0.957839 0.781765 0
0.981643 0.801175 0
0.994781 0.821866 0
0.995621 0.830655 0
0.995895 0.836103 0
0.996674 0.845121 0.0802319
0.996841 0.852461 0.190555
0.996475 0.856138 0.272496
0.995758 0.855711 0.336996
0.995026 0.850248 0.384817
0.993362 0.830335 0.400809
0 0.586297 0.0256352
0 0.586297 0.0256352
0 0.586297 0.0256352
0 0.586282 0.0256352
0 0.586282 0.0256352
0 0.586282 0.0256352
0 0.586267 0.0256352
0 0.586267 0.0256352
0 0.586252 0.0256352
0 0.586236 0.0256504
0 0.586206 0.0256504
0 0.586175 0.0256504
0 0.586145 0.0256657
0 0.586084 0.0256657
0 0.585992 0.0256809
0 0.58584 0.0252995
0.0565499 0.622385 0
0.596445 0.753491 0
0.803265 0.793606 0
0.890608 0.804196 0
0.932387 0.808515 0
0.953521 0.810605 0
0.964675 0.810712 0
0.971954 0.815671 0
0.994598 0.84181 0
0.995712 0.850538 0
0.995956 0.85742 0
0.99649 0.865461 0.0113527
0.996979 0.874815 0.123049
0.997223 0.880507 0.209979
0.997421 0.884688 0.277409
0.997559 0.886427 0.330022
0.997513 0.8813 0.342901
0 0.599573 0.023331
0 0.599573 0.023331
0 0.599573 0.023331
0 0.599573 0.023331
0 0.599573 0.023331
0 0.599557 0.023331
0 0.599557 0.023331
0 0.599557 0.023331
0 0.599542 0.023331
0 0.599527 0.023331
0 0.599512 0.0233463
0 0.599496 0.0233463
0 0.599466 0.0233463
0 0.59942 0.0233616
0 0.599359 0.0233768
0 0.599283 0.0233921
0 0.599039 0.0224308
0.22829 0.687724 0
0.707012 0.799466 0
0.866407 0.824704 0
0.925658 0.831998 0
0.955093 0.835172 0
0.969162 0.836942 0
0.976242 0.836789 0
0.984115 0.842878 0
0.995712 0.863676 0
0.995972 0.870771 0
0.996246 0.87866 0
0.996857 0.887587 0.0475319
0.997162 0.895888 0.148165
0.99736 0.901244 0.222675
0.997559 0.90486 0.274815
0.997559 0.902144 0.282475
0 0.611673 0.0208438
0 0.611673 0.0208438
0 0.611658 0.0208438
0 0.611658 0.0208438
0 0.611658 0.0208438
0 0.611658 0.0208438
0 0.611658 0.0208438
0 0.611643 0.0208438
0 0.611643 0.0208438
0 0.611643 0.0208438
0 0.611627 0.0208438
0 0.611612 0.0208591
0 0.611582 0.0208591
0 0.611551 0.0208743
0 0.611505 0.0208743
0 0.611444 0.0208896
0 0.611368 0.0209049
0.00483711 0.611002 0.0195468
0.452415 0.75436 0
0.80383 0.834684 0
0.909377 0.84828 0
0.951949 0.853391 0
0.971298 0.855772 0
0.980209 0.85716 0
0.986542 0.858595 0
0.991897 0.864591 0
0.995956 0.878981 0
0.996185 0.88658 0
0.996551 0.894743 0
0.997055 0.903655 0.0604105
0.997284 0.911879 0.158343
0.997543 0.916945 0.226612
0.997543 0.91574 0.235294
0 0.622827 0.018204
0 0.622827 0.018204
0 0.622827 0.018204
0 0.622827 0.018204
0 0.622827 0.018204
0 0.622812 0.018204
0 0.622812 0.018204
0 0.622812 0.018204
0 0.622812 0.018204
0 0.622797 0.018204
0 0.622797 0.018204
0 0.622782 0.018204
0 0.622766 0.0182193
0 0.622736 0.0182193
0 0.622705 0.0182345
0 0.62266 0.0182345
0 0.622599 0.0182498
0 0.622522 0.0182803
0.0152895 0.61883 0.0101472
0.630808 0.814191 0
0.87071 0.856901 0
0.942214 0.865843 0
0.970993 0.870939 0
0.982986 0.873594 0
0.990921 0.876692 0
0.993347 0.877943 0
0.99559 0.882856 0
0.996155 0.891432 0
0.996368 0.899306 0
0.99675 0.907042 0
0.997162 0.915801 0.0498207
0.997452 0.923339 0.149493
0.997497 0.923506 0.16669
0 0.632273 0.0155795
0 0.632273 0.0155795
0 0.632273 0.0155795
0 0.632273 0.0155795
0 0.632273 0.0155795
0 0.632273 0.0155795
0 0.632273 0.0155795
0 0.632273 0.0155795
0 0.632273 0.0155795
0 0.632258 0.0155795
0 0.632258 0.0155795
0 0.632242 0.0155795
0 0.632227 0.0155795
0 0.632212 0.0155947
0 0.632197 0.0155947
0 0.632166 0.01561
0 0.63212 0.0156252
0 0.632059 0.0156405
0 0.631983 0.0156558
0.0389715 0.657816 0
0.773907 0.852247 0
0.921096 0.874006 0
0.965743 0.880476 0
0.983825 0.884138 0
0.992264 0.888441 0
0.994766 0.890623 0
0.99559 0.890822 0
0.996017 0.892485 0
0.996307 0.899947 0
0.996521 0.907042 0
0.996826 0.91487 0
0.997177 0.922118 0.0185092
0.997269 0.923491 0.0417487
0 0.640848 0.0131685
0 0.640848 0.0131685
0 0.640848 0.0131685
0 0.640833 0.0131685
0 0.640833 0.0131685
0 0.640833 0.0131685
0 0.640833 0.0131685
0 0.640833 0.0131685
0 0.640833 0.0131685
