apps/lut-action/luts/TheOneLUT_iPhone15Pro_AppleLog_Arri709_V4_33pt.cube
TITLE "TheOneLut_iPhone15Pro_AppleLog>Arri709_V4.cube"
LUT_3D_SIZE 5
0 0 0
0.107958 0 0.000915541
0.413489 0 0.0109407
0.886397 0 0.151751
1 0 0.768414
0 0.0316167 0
0.0159304 0.0187076 0
0.384588 0 0.00857557
0.849714 0 0.122042
1 0 0.726726
0 0.300618 0.000518807
0 0.304982 0
0.295552 0.319432 0
0.846906 0.17525 0.0328985
1 0 0.598093
0 0.712673 0.427482
0 0.703044 0.438758
0 0.685298 0.424826
0.737224 0.779522 0
1 0.745281 0
0 1 0.995651
0 1 0.995651
0 1 0.995651
0 1 0.993423
0.977584 1 0
0 0 0.055787
0.111177 0 0.0614481
0.436164 0 0.0921645
0.854063 0 0.234974
1 0 0.773724
0 0.035111 0.0230259
0.0196078 0.0294194 0.0301366
0.392065 0.000213626 0.0682994
0.834119 0 0.212818
1 0 0.734356
0 0.299413 0
0 0.322698 0.122759
0.3019 0.329915 0
0.847608 0.210788 0.163897
1 0 0.608545
0 0.713649 0.410269
0 0.702922 0.435157
0 0.683619 0.450446
0.734768 0.777371 0
1 0.736675 0.165438
0 1 0.995651
0 1 0.995651
0 1 0.995651
0 1 0.993378
0.97377 1 0
0 0 0.344701
0.0923629 0 0.336538
0.4177 0 0.337575
0.838682 0 0.408103
1 0 0.743847
0 0 0.298512
0 0 0.327596
0.407218 0 0.343618
0.844526 0 0.409491
1 0 0.707897
0 0.301701 0.283757
0 0.320836 0.307301
0.305058 0.322972 0.332921
0.841794 0.298863 0.418341
1 0 0.652369
0 0.709178 0.362142
0 0.694774 0.397955
0 0.69456 0.493797
0.725292 0.761028 0.25098
1 0.716304 0.503578
0 1 0.995651
0 1 0.995651
0 1 0.995651
0 1 0.993347
0.958755 0.998276 0
0 0 0.737911
0.185595 0 0.738949
0.477501 0 0.742
0.852369 0 0.764752
0.997909 0.66479 0.818387
0 0.0704814 0.738918
0.0628214 0.0621805 0.739498
0.451789 0.0345006 0.74258
0.846693 0 0.764263
0.997879 0.66685 0.817975
0 0.359304 0.687938
0 0.384863 0.718914
0.35491 0.352087 0.739162
0.827619 0.31693 0.75938
0.996124 0.676219 0.815381
0 0.665156 0.652949
0 0.676936 0.665125
0 0.728176 0.717189
0.713588 0.720272 0.733577
0.99057 0.727657 0.795544
0 1 0.995651
0 1 0.995651
0 1 0.995651
0 1 0.993027
0.930724 0.950851 0.730373
0.587045 0.660548 0.934905
0.609308 0.660182 0.934981
0.658488 0.658839 0.935164
0.831891 0.654917 0.937179
0.99411 0.645624 0.9467
0.578088 0.669429 0.934493
0.600916 0.668971 0.934569
0.65275 0.668116 0.934874
0.829023 0.66363 0.936675
0.992767 0.655558 0.946166
0.552789 0.691325 0.933608
0.577264 0.690684 0.933623
0.634791 0.689326 0.933761
0.821393 0.685054 0.935515
0.989578 0.677882 0.944564
0 0.786954 0.918578
0 0.768597 0.911955
0 0.825177 0.932403
0.768933 0.784527 0.929641
0.968917 0.781476 0.93666
0 0.999466 0.98526
0 0.999023 0.984436
0 0.997559 0.981598
0 0.956878 0.941787
0.921218 0.920455 0.925643
