apps/lut-action/luts/TheOneLUT_iPhone15Pro_AppleLog_Arri709_V4_33pt.cube
TITLE "TheOneLut_iPhone15Pro_AppleLog>Arri709_V4.cube"
LUT_3D_SIZE 33
0 0 0
0 0 0
0 0 0
0.00614939 0 4.57771e-05
0.0252689 0 0.000183108
0.0446784 0 0.000320439
0.0653544 0 0.000488289
0.085771 0 0.000671397
0.107958 0 0.000915541
0.133669 0 0.0012665
0.162631 0 0.00173953
0.195422 0 0.00238041
0.235248 0 0.0033875
0.282338 0 0.00488289
0.335271 0 0.00698863
0.390616 0 0.00967422
0.413489 0 0.0109407
0.471 0 0.0146334
0.559686 0 0.0216373
0.616037 0 0.0270848
0.670085 0 0.0330053
0.721386 0 0.0516518
0.784955 0 0.0751965
0.839414 0 0.110521
0.886397 0 0.151751
0.93106 0 0.198352
0.976349 0 0.249546
0.994263 0 0.310079
1 0 0.382025
1 0 0.460349
1 0 0.549493
1 0 0.658747
1 0 0.768414
0 0 0
0 0 0
0 0 0
0 0 0
0.00755322 0 6.10361e-05
0.0354467 0 0.000259403
0.0428473 0 0.00030518
0.0610971 0 0.000457771
0.0845655 0 0.000656138
0.111299 0 0.000946059
0.14197 0 0.00137331
0.175235 0 0.00198367
0.214206 0 0.00285344
0.259815 0 0.0041352
0.312932 0 0.00601205
0.369665 0 0.00849927
0.402197 0 0.00987259
0.461112 0 0.0128328
0.541054 0 0.0200351
0.599878 0 0.0254215
0.657481 0 0.0314794
0.715038 0 0.0384222
0.772671 0 0.0675822
0.830167 0 0.103929
0.878141 0 0.145174
0.92401 0 0.192782
0.969253 0 0.241779
0.992065 0 0.3019
1 0 0.372229
1 0 0.449897
1 0 0.539208
1 0 0.648295
1 0 0.758236
0 0 0
0 0 0
0 0 0
0 0 0
0 0 0
0.0142977 0 0.000106813
0.0297704 0 0.000213626
0.0455634 0 0.000335698
0.0692302 0 0.000518807
0.0972 0 0.000793469
0.128206 0 0.0011902
0.162692 0 0.00173953
0.201999 0 0.00254826
0.246723 0 0.00370794
0.299687 0 0.00546273
0.357946 0 0.00796521
0.415122 0 0.0110323
0.458076 0 0.0130007
0.532158 0 0.0192721
0.5935 0 0.0247654
0.650538 0 0.0306401
0.706874 0 0.0374304
0.764767 0 0.0628977
0.823255 0 0.0999924
0.873304 0 0.140581
0.919478 0 0.188083
0.964706 0 0.236774
0.99057 0 0.296651
1 0 0.366766
1 0 0.443183
1 0 0.531823
1 0 0.641001
1 0 0.751553
0 0 0
0 0 0
0 0 0
0 0 0
0 0 0
0.0055848 0 4.57771e-05
0.0208591 0 0.00015259
0.038117 0 0.000274662
0.0607767 0 0.000457771
0.0886854 0 0.000701915
0.11899 0 0.00105287
0.153597 0 0.00155642
0.192874 0 0.00231937
0.23772 0 0.00344854
0.291066 0 0.00517281
0.349889 0 0.00761425
0.414527 0 0.0110018
0.457282 0 0.0136568
0.526864 0 0.0188144
0.586511 0 0.0240482
0.644251 0 0.029984
0.70135 0 0.0367742
0.759487 0 0.0601358
0.817426 0 0.0963607
0.867933 0 0.136461
0.915892 0 0.183856
0.961334 0 0.233219
0.989532 0 0.292592
1 0 0.361959
1 0 0.437766
1 0 0.526131
1 0 0.634989
1 0 0.746075
0 0 0
0 0 0
0 0 0
0 0 0
0 0 0
0 0 0
0.012726 0 9.15541e-05
0.0284581 0 0.000213626
0.0503243 0 0.000366217
0.0812543 0 0.00062562
0.112352 0 0.000961318
0.146059 0 0.00143435
0.186374 0 0.0021973
0.230793 0 0.00326543
0.284413 0 0.00495918
0.345129 0 0.00741588
0.411032 0 0.0108034
0.456474 0 0.0135958
0.522393 0 0.0184329
0.581903 0 0.0235752
0.639139 0 0.0294652
0.696651 0 0.0362097
0.754345 0 0.056672
0.81297 0 0.09308
0.863203 0 0.132113
0.91339 0 0.178714
0.958343 0 0.230457
0.98854 0 0.289082
1 0 0.357122
1 0 0.432609
1 0 0.520623
1 0 0.630198
1 0 0.741711
0 0 0
0 0 0
0 0 0
0 0 0
0 0 0
0 0 0
0.00672923 0 4.57771e-05
0.0204623 0 0.00015259
0.0418555 0 0.00030518
0.0725109 0 0.000549325
0.106569 0 0.000900282
0.141238 0 0.00137331
0.180179 0 0.00207523
0.225284 0 0.0031281
0.279438 0 0.00479133
0.340764 0 0.00721752
0.406546 0 0.0105592
0.454887 0 0.013489
0.518685 0 0.0181125
0.57908 0 0.0233158
0.636316 0 0.0291752
0.692912 0 0.0357519
0.750347 0 0.054078
0.808911 0 0.0901045
0.859419 0 0.128969
0.909178 0 0.174792
0.95555 0 0.227543
0.98761 0 0.28571
1 0 0.353216
1 0 0.42797
1 0 0.51577
1 0 0.625727
1 0 0.737697
0 0.00929274 0
0 0.00329595 0
0 0.00241093 0
0 0.00169375 0
0 0.00123598 0
0 0.000610361 0
0.00157168 0.00030518 1.5259e-05
0.0154879 0.00047303 0.000106813
0.0342107 0.000213626 0.000244144
0.064683 0 0.000488289
0.0995193 0 0.000823987
0.136431 0 0.00129702
0.177676 0 0.00202945
0.22182 0 0.0030518
0.275944 0 0.00466926
0.337881 0 0.00709544
0.395239 0 0.00991836
0.453056 0 0.0133669
0.515999 0 0.0178836
0.575494 0 0.0230106
0.634241 0 0.0289616
0.689982 0 0.0354009
0.746853 0 0.0517739
0.805203 0 0.0878462
0.856641 0 0.12697
0.906111 0 0.171405
0.953079 0 0.225071
0.986801 0 0.282307
1 0 0.349508
1 0 0.424552
1 0 0.51223
1 0 0.621485
1 0 0.733806
0 0.0185092 0
0 0.0120241 0
0 0.0111086 0
0 0.0104219 0
0 0.00996414 0
0 0.00946059 0
0 0.00907912 0
0.0077821 0.00851453 0
0.0259861 0.00854505 9.15541e-05
0.0539712 0.00784314 0.000198367
0.0914778 0.00549325 0.000411994
0.131212 0.00357061 0.000869764
0.177829 0 0.00202945
0.220813 0 0.00302129
0.273457 0 0.00459297
0.328649 0 0.00669871
0.389654 0 0.00961318
0.451499 0 0.0132448
0.512978 0 0.0176242
0.573449 0 0.0228275
0.632212 0 0.028748
0.687785 0 0.0351415
0.744198 0 0.0504311
0.801923 0 0.0862593
0.853483 0 0.124681
0.903426 0 0.168505
0.950698 0 0.222339
0.986084 0 0.279362
1 0 0.34696
1 0 0.421241
1 0 0.508537
1 0 0.617594
1 0 0.73022
0 0.0316167 0
0 0.023743 0
0 0.0222782 0
0 0.0215457 0
0 0.0211337 0
0 0.020676 0
0 0.0200961 0
0.00302129 0.0196384 0
0.0159304 0.0187076 0
0.042237 0.0186007 0
0.0800183 0.0166934 3.0518e-05
0.121035 0.0137484 0.000122072
0.166033 0.00805676 0.000762951
0.209415 0.00604257 0.00163272
0.260731 0.00262455 0.00315862
0.320729 0.000457771 0.00543221
0.384588 0 0.00857557
0.448814 0 0.0124666
0.510842 0 0.0171817
0.571115 0 0.0226291
0.629953 0 0.0285191
0.687007 0 0.0350347
0.740673 0 0.0481727
0.798276 0 0.0836042
0.849714 0 0.122042
0.899916 0 0.164645
0.946746 0 0.218463
0.985321 0 0.276555
1 0 0.342641
1 0 0.416419
1 0 0.503731
1 0 0.612924
1 0 0.726726
0 0.0504616 0
0 0.0414893 0
0 0.0385138 0
0 0.037995 0
0 0.0375677 0
0 0.0370642 0
0 0.036759 0
0 0.0363775 0
0.00578317 0.0356909 0
0.0286564 0.0348211 0
0.0663157 0.0344396 0
0.108751 0.0314031 0
0.155276 0.0258946 0
0.202976 0.0206912 0.000274662
0.254429 0.0158694 0.00138857
0.314763 0.00746166 0.00361639
0.38027 0.00154116 0.00679026
0.445823 0.000259403 0.0106813
0.508003 0 0.0156252
0.57026 0 0.0213626
0.628351 0 0.0282444
0.685191 0 0.0348211
0.738354 0 0.0458991
0.79382 0 0.0808423
0.845548 0 0.118685
0.895857 0 0.160967
0.94287 0 0.214252
0.984146 0 0.272374
1 0 0.337163
1 0 0.410452
1 0 0.497292
1 0 0.607736
1 0 0.721187
0 0.0755627 0
0 0.0695811 0
0 0.0637522 0
0 0.0631571 0
0 0.0626078 0
0 0.0624399 0
0 0.0620127 0
0 0.062089 0
0 0.0617075 0
0.00898756 0.0609445 0
0.0479591 0.0597086 0
0.0936599 0.0599527 0
0.141939 0.0547646 0
0.194446 0.0479744 0
0.249699 0.0432593 0
0.310292 0.0352636 0.0011902
0.377447 0.0234226 0.0041352
0.444389 0.00825513 0.00825513
0.510109 0.00106813 0.0132906
0.571618 0 0.0192111
0.629465 0 0.0263066
0.685481 0 0.0344701
0.73695 0 0.044007
0.788495 0 0.0772717
0.840467 0 0.11516
0.890333 0 0.15552
0.938186 0 0.208331
0.982666 0 0.266438
1 0 0.330663
1 0 0.403342
1 0 0.490471
1 0 0.599512
1 0 0.713802
0 0.103166 0
0 0.100008 0
0 0.0927291 0
0 0.0918746 0
0 0.0915236 0
0 0.0915999 0
0 0.0919509 0
0 0.0920882 0
0 0.0920729 0
0 0.0919661 0
0.0203861 0.0916304 0
0.0740063 0.0908675 0
0.127321 0.0918135 0
0.18201 0.0852674 0
0.243671 0.0797131 0
0.3075 0.0733654 0
0.374334 0.063447 0.0010071
0.444389 0.0497902 0.0043183
0.510094 0.0299687 0.00950637
0.5738 0.00584421 0.0157168
0.633051 0 0.0231022
0.687404 0 0.0319677
0.737972 0 0.0428168
0.785748 0 0.0749218
0.834897 0 0.110872
0.88452 0 0.150027
0.932189 0 0.199435
0.98027 0 0.257053
0.998169 0 0.322515
1 0 0.394247
1 0 0.479881
1 0 0.58941
1 0 0.704631
0 0.133242 0
0 0.132158 0
0 0.12578 0
0 0.123262 0
0 0.123598 0
0 0.123903 0
0 0.124071 0
0 0.124559 0
0 0.125017 0
0 0.125887 0
0 0.127062 0
0.0382239 0.126955 0
0.106218 0.126009 0
0.165728 0.127016 0
0.229786 0.118715 0
0.302632 0.11429 0
0.372107 0.108263 0
0.441627 0.0987259 0.000610361
0.509102 0.0831922 0.00373846
0.573724 0.0596933 0.0102998
0.635004 0.023682 0.0183261
0.691524 0 0.0270085
0.742397 0 0.0390936
0.786557 0 0.0729076
0.831891 0 0.106416
0.877867 0 0.143526
0.926207 0 0.187304
0.973129 0 0.245777
0.995712 0 0.311238
1 0 0.381445
1 0 0.466178
1 0 0.575555
1 0 0.692134
0 0.166903 0
0 0.167224 0
0 0.163134 0
0 0.159442 0
0 0.15845 0
0 0.159106 0
0 0.159777 0
0 0.16054 0
0 0.161639 0
0 0.16318 0
0 0.164614 0
0 0.165972 0
0.0647746 0.165805 0
0.142824 0.164569 0
0.211902 0.165347 0
0.288533 0.157 0
0.367285 0.152224 0
0.438025 0.146166 0
0.50605 0.136004 0.000106813
0.572152 0.119875 0.00326543
0.634958 0.0915084 0.0110323
0.693065 0.0526741 0.0203403
0.74725 0.00494392 0.0310674
0.792767 0 0.0699626
0.835569 0 0.105486
0.87744 0 0.140337
0.919997 0 0.179126
0.963989 0 0.23241
0.992081 0 0.294972
1 0 0.365805
1 0 0.449073
1 0 0.558846
1 0 0.677119
0 0.205234 0
0 0.207279 0
0 0.206714 0
0 0.203082 0
0 0.200259 0
0 0.199557 0
0 0.200137 0
0 0.201663 0
0 0.202991 0
0 0.204883 0
0 0.207309 0
0 0.209491 0
0.00109865 0.210636 0
0.0972763 0.210605 0
0.186282 0.209155 0
0.267613 0.209659 0
0.35259 0.2009 0
0.432898 0.19559 0
0.501076 0.188983 0
0.568978 0.178576 0
0.632471 0.155016 0.00250248
0.692409 0.122286 0.0111086
0.74786 0.084947 0.0215915
0.798444 0.0173037 0.0386358
0.843839 0 0.102678
0.884886 0 0.140703
0.921981 0 0.175875
0.956741 0 0.22121
0.987655 0 0.275196
1 0 0.345586
1 0 0.427451
1 0 0.536828
1 0 0.657603
0 0.249836 0
0 0.254383 0
0 0.256016 0
0 0.254597 0
0 0.251774 0
0 0.249149 0
0 0.248844 0
0 0.248814 0
0 0.250355 0
0 0.252934 0
0 0.255543 0
0 0.259495 0
0 0.262898 0
0.00250248 0.263874 0
0.132143 0.262608 0
0.237263 0.260792 0
0.32842 0.26157 0
0.416724 0.252995 0
0.495369 0.246067 0
0.562707 0.240833 0
0.628031 0.22443 0
0.689509 0.195239 0
0.746532 0.15552 0.00932326
0.799115 0.123995 0.0208896
0.848066 0.0708324 0.0527504
0.891829 0 0.136721
0.930495 0 0.176196
0.961746 0 0.214008
0.984314 0 0.2589
1 0 0.319005
1 0 0.399542
1 0 0.508156
1 0 0.63212
0 0.300618 0.000518807
0 0.305562 0
0 0.307973 0
0 0.309773 0
0 0.309331 0
0 0.308675 0
0 0.307057 0
0 0.305943 0
0 0.304982 0
0 0.306157 0
0 0.309529 0
0 0.314305 0
0 0.31899 0
0 0.322515 0
0.00434882 0.322225 0
0.176059 0.320989 0
0.295552 0.319432 0
0.390951 0.320272 0
0.47924 0.312276 0
0.554543 0.304631 0
0.620325 0.294652 0
0.683726 0.275029 0
0.742931 0.244282 0
0.796872 0.193057 0.00585946
0.846906 0.17525 0.0328985
0.89366 0.145815 0.0676127
0.935134 9.15541e-05 0.169787
0.971588 0 0.212879
0.98703 0 0.261784
0.996063 0 0.289769
1 0 0.36376
1 0 0.470558
1 0 0.598093
0 0.353552 0.0205234
0 0.359167 0.0129091
0 0.362325 0.00503548
0 0.364553 0.00163272
0 0.366903 0
0 0.367697 0
0 0.368124 0
0 0.36791 0
0 0.366781 0
0 0.365942 0
0 0.366552 0
0 0.36994 0
0 0.376028 0
0 0.382147 0
0 0.384619 0
0.0298466 0.384115 0
0.232349 0.382147 0
0.356039 0.380118 0
0.451087 0.381247 0
0.537133 0.373388 0
0.610544 0.362753 0
0.674678 0.351278 0
0.735607 0.331258 0
0.791653 0.299107 0
0.843168 0.25359 0.000457771
0.89099 0.239246 0.0397192
0.934386 0.22092 0.0847028
0.974029 0.0500801 0.201938
0.989624 0 0.249699
0.998993 0 0.294621
1 0 0.318425
1 0 0.421775
1 0 0.553597
0 0.406729 0.0606699
0 0.412284 0.0564431
0 0.415961 0.0472725
0 0.419501 0.0313878
0 0.420874 0.0173953
0 0.422599 0.00918593
0 0.423941 0.0021973
0 0.425437 0
0 0.427054 0
0 0.428336 0
0 0.42797 0
0 0.428092 0
0 0.431525 0
0 0.438849 0
0 0.446616 0
0 0.446921 0
0.095079 0.445274 0
0.29485 0.443626 0
0.41651 0.441855 0
0.509224 0.443626 0
0.59379 0.434607 0
0.663722 0.421271 0
0.724865 0.409476 0
0.782727 0.390677 0
0.836286 0.365515 0
0.886198 0.337362 0
0.930373 0.308919 0.0420844
0.969894 0.293751 0.102876
0.989532 0.140536 0.227649
1 0 0.290547
1 0 0.324041
1 0 0.364172
1 0 0.496727
0 0.458228 0.111681
0 0.464149 0.111849
0 0.467475 0.106233
0 0.469886 0.0987869
0 0.471687 0.0896468
0 0.473869 0.0776989
0 0.475563 0.0643626
0 0.477699 0.0480659
0 0.479438 0.0299382
0 0.482185 0.0055848
0 0.484932 0
0 0.487526 0
0 0.488563 0
0 0.49279 0
0 0.501457 0
0 0.508156 0
0 0.507561 0
0.175509 0.505531 0
0.359014 0.504356 0
0.475242 0.502892 0
0.564584 0.504433 0
0.646922 0.493294 0
0.712749 0.479454 0
0.771221 0.468681 0
0.826551 0.454749 0
0.877287 0.441489 0
0.922728 0.418997 0
0.964279 0.381872 0.0298466
0.986511 0.36672 0.0982528
1 0.235584 0.246921
1 0.0352331 0.317418
1 0 0.378424
1 0 0.51516
0 0.505821 0.169085
0 0.510597 0.171145
0 0.513726 0.169924
0 0.516121 0.166735
0 0.5187 0.163195
0 0.520226 0.158953
0 0.522576 0.15433
0 0.523919 0.14667
0 0.525887 0.135775
0 0.529015 0.117281
0 0.532555 0.0832227
0 0.53727 0.0148928
0 0.542687 0
0 0.547127 0
0 0.551354 0
0 0.561654 0
0 0.568048 0
0 0.56672 0
0.254124 0.564599 0
0.420203 0.563317 0
0.530404 0.56141 0
0.61651 0.563226 0
0.69633 0.551965 0
0.758389 0.538903 0
0.814145 0.531518 0
0.8663 0.523323 0
0.912566 0.513085 0
0.954299 0.495018 0
0.984436 0.459464 0
1 0.440101 0.0408789
1 0.330587 0.25832
1 0.213733 0.358206
1 0.0818036 0.502007
0 0.549599 0.224735
0 0.553384 0.227466
0 0.5561 0.227802
0 0.558145 0.227146
0 0.560204 0.226688
0 0.562295 0.225711
0 0.563622 0.223987
0 0.565621 0.222278
0 0.567407 0.218463
0 0.569818 0.212177
0 0.57351 0.201541
0 0.578332 0.179095
0 0.58439 0.124865
0 0.592462 0.00682078
0 0.60145 0
0 0.608637 0
0 0.621103 0
0 0.625788 0
0.0124361 0.623621 0
0.32723 0.621561 0
0.479973 0.620493 0
0.584848 0.619196 0
0.666224 0.621546 0
0.741817 0.609735 0
0.799954 0.599466 0
0.853101 0.593957 0
0.901106 0.588602 0
0.944106 0.58088 0
0.977188 0.566964 0
0.999359 0.538582 0
1 0.512886 0
1 0.431617 0.305272
1 0.39173 0.476112
0 0.593973 0.283757
0 0.594583 0.284825
0 0.595453 0.285145
0 0.596933 0.285863
0 0.597635 0.285267
0 0.598566 0.284932
0 0.599695 0.284672
0 0.60061 0.284108
0 0.602472 0.284138
0 0.604883 0.283818
0 0.607752 0.282048
0 0.611582 0.277028
0 0.617258 0.267018
0 0.624552 0.241428
0 0.635172 0.175784
0 0.648997 0
0 0.66215 0
0 0.67657 0
0 0.681483 0
0.0779431 0.679103 0
0.394522 0.677684 0
0.538903 0.675944 0
0.637247 0.67512 0
0.71284 0.67602 0
0.782803 0.663813 0
0.839368 0.658213 0
0.888609 0.654856 0
0.932479 0.650614 0
0.965621 0.64419 0
0.989639 0.633478 0
0.998215 0.614664 0
1 0.589441 0
1 0.533761 0.436545
0 0.64622 0.35433
0 0.644602 0.355932
0 0.643381 0.35613
0 0.642313 0.355947
0 0.64181 0.355993
0 0.640955 0.355505
0 0.640818 0.355566
0 0.640574 0.355535
0 0.64062 0.355642
0 0.640208 0.354894
0 0.640009 0.353857
0 0.640543 0.352941
0 0.641901 0.351507
0 0.645243 0.350576
0 0.652171 0.347463
0 0.663386 0.336675
0 0.678813 0.291615
0 0.701976 0.0445258
0 0.726162 0
0 0.736828 0
0.049485 0.733486 0
0.454902 0.731228 0
0.597681 0.729107 0
0.688579 0.728557 0
0.757107 0.727367 0
0.820584 0.712764 0
0.874159 0.711315 0
0.920348 0.71104 0
0.954818 0.708415 0
0.980789 0.703426 0
0.995972 0.697368 0
1 0.685832 0
1 0.662333 0.0941176
0 0.712673 0.427482
0 0.710384 0.43154
0 0.708705 0.433616
0 0.707424 0.434882
0 0.706233 0.435813
0 0.705211 0.436606
0 0.704875 0.43769
0 0.704051 0.438178
0 0.703044 0.438758
0 0.700801 0.438163
0 0.698802 0.438025
0 0.696437 0.437552
0 0.693935 0.436576
0 0.690867 0.435065
0 0.687144 0.431815
0 0.684337 0.428138
0 0.685298 0.424826
0 0.696315 0.425361
0 0.719051 0.411612
0 0.753429 0.277607
0 0.791547 0
0.0769818 0.784009 0
0.511345 0.779599 0
0.652369 0.780346 0
0.737224 0.779522 0
0.797406 0.773907 0
0.854185 0.755734 0.154116
0.903975 0.759594 0
0.943389 0.764477 0
0.973678 0.764706 0
0.994202 0.76202 0
0.999771 0.758022 0
1 0.745281 0
0 0.779889 0.494148
0 0.77731 0.498695
0 0.77554 0.501534
0 0.774166 0.503441
0 0.773281 0.505333
0 0.772335 0.506798
0 0.771389 0.507927
0 0.770504 0.508843
0 0.769421 0.509987
0 0.768078 0.511406
0 0.766934 0.513542
0 0.764904 0.515145
0 0.762127 0.516503
0 0.758694 0.518273
0 0.754513 0.519417
0 0.749584 0.518868
0 0.743877 0.516884
0 0.73373 0.506539
0 0.727138 0.495674
0 0.738903 0.494957
0 0.776364 0.475441
0 0.831495 0.103822
0.101823 0.827787 0
0.567803 0.820966 0
0.70341 0.827787 0
0.78265 0.827558 0
0.834287 0.81709 0
0.882261 0.79321 0.322606
0.92575 0.804685 0
0.96231 0.816739 0
0.987945 0.820066 0
0.998688 0.820172 0
0.999802 0.81265 0
0 0.849836 0.567498
0 0.847501 0.571542
0 0.845853 0.574044
0 0.844923 0.576211
0 0.843931 0.577768
0 0.842878 0.578943
0 0.841978 0.580026
0 0.841138 0.580941
0 0.840101 0.582177
0 0.839292 0.584131
0 0.837751 0.585992
0 0.835859 0.58761
0 0.833188 0.5897
0 0.829831 0.592523
0 0.825696 0.5953
0 0.820813 0.59852
0 0.814221 0.599771
0 0.805966 0.599374
0 0.796201 0.59469
0 0.783337 0.582925
0 0.768765 0.560937
0 0.795117 0.568704
0 0.852552 0.494865
0.100664 0.864713 0
0.618158 0.85536 0.066865
0.751644 0.87129 0
0.826505 0.872877 0
0.866484 0.856458 0
0.902281 0.826001 0.447105
0.943175 0.844999 0
0.976989 0.866926 0
0.993301 0.874769 0
1 0.872831 0
0 0.919631 0.637842
0 0.917601 0.641749
0 0.916777 0.644373
0 0.915679 0.64596
0 0.914702 0.647013
0 0.913863 0.647913
0 0.913085 0.649012
0 0.912673 0.650324
0 0.912001 0.651743
