apps/lut-action/luts/TheOneLUT_iPhone15Pro_AppleLog_Arri709_V4_33pt.cube
TITLE "TheOneLut_iPhone15Pro_AppleLog>Arri709_V4.cube"
LUT_3D_SIZE 9
0 0 0
0.0252689 0 0.000183108
0.107958 0 0.000915541
0.235248 0 0.0033875
0.413489 0 0.0109407
0.670085 0 0.0330053
0.886397 0 0.151751
1 0 0.382025
1 0 0.768414
0 0 0
0 0 0
0.0503243 0 0.000366217
0.186374 0 0.0021973
0.411032 0 0.0108034
0.639139 0 0.0294652
0.863203 0 0.132113
1 0 0.357122
1 0 0.741711
0 0.0316167 0
0 0.0211337 0
0.0159304 0.0187076 0
0.166033 0.00805676 0.000762951
0.384588 0 0.00857557
0.629953 0 0.0285191
0.849714 0 0.122042
1 0 0.342641
1 0 0.726726
0 0.133242 0
0 0.123598 0
0 0.125017 0
0.106218 0.126009 0
0.372107 0.108263 0
0.635004 0.023682 0.0183261
0.831891 0 0.106416
0.995712 0 0.311238
1 0 0.692134
0 0.300618 0.000518807
0 0.309331 0
0 0.304982 0
0 0.31899 0
0.295552 0.319432 0
0.620325 0.294652 0
0.846906 0.17525 0.0328985
0.98703 0 0.261784
1 0 0.598093
0 0.505821 0.169085
0 0.5187 0.163195
0 0.525887 0.135775
0 0.542687 0
0 0.568048 0
0.530404 0.56141 0
0.814145 0.531518 0
0.984436 0.459464 0
1 0.0818036 0.502007
0 0.712673 0.427482
0 0.706233 0.435813
0 0.703044 0.438758
0 0.693935 0.436576
0 0.685298 0.424826
0 0.791547 0
0.737224 0.779522 0
0.943389 0.764477 0
1 0.745281 0
0 0.974014 0.721187
0 0.970825 0.727199
0 0.969085 0.730541
0 0.965286 0.735821
0 0.95491 0.748806
0 0.923934 0.764324
0 0.869825 0.711604
0.895506 0.945556 0
0.993194 0.953536 0
0 1 0.995651
0 1 0.995651
0 1 0.995651
0 1 0.995651
0 1 0.995651
0 1 0.995651
0 1 0.993423
0 0.990616 0.950927
0.977584 1 0
0 0 0.00363165
0.0306249 0 0.00656138
0.1122 0 0.00828565
0.233051 0 0.0140993
0.44033 0 0.0366369
0.661051 0 0.10547
0.863722 0 0.210285
1 0 0.408392
1 0 0.773388
0 0 0
0 0 0
0.0572671 0 0.000427253
0.187976 0 0.00222782
0.400443 0 0.0218357
0.634134 0 0.0895552
0.841947 0 0.188861
1 0 0.380774
1 0 0.748089
0 0.0351415 0
0 0.0343633 0.00155642
0.0195315 0.0301671 0
0.165255 0.0215763 3.0518e-05
0.388785 0 0.0103609
0.633341 0 0.0853895
0.833738 0 0.181125
0.998901 0 0.365362
1 0 0.733196
0 0.132036 0
0 0.138048 0.0139925
0 0.136904 0
0.112856 0.138491 0
0.37705 0.121401 0
0.639261 0.0387427 0.0517281
0.841215 0 0.18117
0.991287 0 0.330663
1 0 0.700389
0 0.300069 0
0 0.314763 0.0797589
0 0.322164 0.0576944
0 0.328435 0
0.299855 0.327108 0
0.622492 0.297658 0
0.847669 0.194034 0.128374
0.988632 0 0.323384
1 0 0.60415
0 0.506462 0.193683
0 0.518853 0.226703
0 0.526268 0.229648
0 0.542641 0.189761
0 0.571405 0
0.532509 0.564736 0
0.813611 0.534768 0
0.984421 0.465339 0.152361
1 0.124727 0.535317
0 0.712932 0.418418
0 0.706264 0.432532
0 0.702754 0.438346
0 0.692866 0.441764
0 0.683909 0.442741
0 0.78941 0
0.735958 0.778485 0
0.941588 0.762539 0
1 0.739635 0.0265049
0 0.973663 0.718486
0 0.970657 0.724346
0 0.968978 0.727352
0 0.965103 0.732311
0 0.95491 0.744762
0 0.923735 0.761074
0 0.871778 0.719265
0.892073 0.942016 0
0.993179 0.949737 0
0 1 0.995651
0 1 0.995651
0 1 0.995651
0 1 0.995651
0 1 0.995651
0 1 0.995651
0 1 0.993393
0 0.990555 0.950607
0.975204 1 0
0 0 0.055787
0.0298314 0 0.0599222
0.111177 0 0.0614481
0.23061 0 0.0678416
0.436164 0 0.0921645
0.656336 0 0.147753
0.854063 0 0.234974
1 0 0.426459
1 0 0.773724
0 0 0.0357214
0 0 0.0391394
0.0583963 0 0.0417945
0.187518 0 0.0487678
0.399725 0 0.0740063
0.633158 0 0.133684
0.835599 0 0.215839
0.999176 0 0.397665
1 0 0.748669
0 0.035111 0.0230259
0 0.0316167 0.0272679
0.0196078 0.0294194 0.0301366
0.167361 0.0200351 0.0390631
0.392065 0.000213626 0.0682994
0.635523 0 0.133227
0.834119 0 0.212818
0.99617 0 0.381582
1 0 0.734356
0 0.13492 0
0 0.137621 0.00634775
0 0.141619 0.0596475
0.114565 0.141833 0.0167697
0.380575 0.119738 0.0370642
0.641398 0.0349889 0.119936
0.845441 0 0.216953
0.988296 0 0.343114
1 0 0.702449
0 0.299413 0
0 0.314961 0.0879225
0 0.322698 0.122759
0 0.333608 0
0.3019 0.329915 0
0.623377 0.295888 0.00813306
0.847608 0.210788 0.163897
0.989136 0 0.341131
1 0 0.608545
0 0.506783 0.186511
0 0.51931 0.244068
0 0.526513 0.256672
0 0.541436 0.250797
0 0.573343 0
0.532906 0.565438 0
0.81297 0.535363 0
0.98407 0.468498 0.220127
1 0.150011 0.551293
0 0.713649 0.410269
0 0.706645 0.427588
0 0.702922 0.435157
0 0.692164 0.441611
0 0.683619 0.450446
0 0.786313 0.0558175
0.734768 0.777371 0
0.940124 0.760372 0
1 0.736675 0.165438
0 0.973465 0.717617
0 0.970565 0.722805
0 0.968902 0.725734
0 0.964813 0.730312
0 0.954894 0.74255
0 0.923629 0.759197
0 0.872816 0.722988
0.889937 0.939803 0
0.993164 0.947585 0
0 1 0.995651
0 1 0.995651
0 1 0.995651
0 1 0.995651
0 1 0.995651
0 1 0.995651
0 1 0.993378
0 0.990524 0.950439
0.97377 1 0
0 0 0.171801
0.0217899 0 0.17026
0.107713 0 0.168811
0.22652 0 0.169329
0.42884 0 0.180896
0.649744 0 0.219532
0.850858 0 0.284184
0.997024 0 0.453819
1 0 0.770352
0 0 0.148775
0 0 0.148287
0.0547036 0 0.149264
0.186572 0 0.151797
0.399542 0 0.165286
0.633997 0 0.208545
0.838956 0 0.285176
0.990875 0 0.424323
1 0 0.74609
0 0.0183261 0.133486
0 0.0142214 0.138949
0.012726 0.0124056 0.141527
0.169116 0.00584421 0.148028
0.396933 0 0.164706
0.639155 0 0.211582
0.844282 0 0.288502
0.987655 0 0.408133
1 0 0.732143
0 0.131151 0.114046
0 0.135729 0.124819
0 0.139132 0.131395
0.114641 0.138369 0.141176
0.386618 0.118395 0.152361
0.64416 0.0362402 0.205844
0.850782 0 0.290959
0.983337 0 0.383963
1 0 0.701411
0 0.30222 0.0516976
0 0.315496 0.0644541
0 0.322896 0.0928969
0 0.335653 0.201175
0.304448 0.330907 0.111849
0.62446 0.29604 0.153079
0.847074 0.227146 0.272374
0.989334 0 0.395956
1 0 0.608942
0 0.508507 0.11873
0 0.520714 0.232624
0 0.527596 0.273045
0 0.540825 0.314214
0 0.574609 0
0.533028 0.564782 0
0.811948 0.535317 0.091783
0.983047 0.475975 0.319982
1 0.204623 0.577417
0 0.713756 0.39443
0 0.706035 0.417273
0 0.70106 0.425956
0 0.69044 0.439094
0 0.684443 0.464485
0 0.780362 0.307179
0.73106 0.772656 0
0.937377 0.755505 0
1 0.729061 0.337072
0 0.972961 0.715434
0 0.970153 0.72018
0 0.968292 0.721996
0 0.964492 0.72694
0 0.954681 0.738415
0 0.923201 0.755413
0 0.874784 0.731304
0.885115 0.934676 0
0.993027 0.942718 0
0 1 0.995651
0 1 0.995651
0 1 0.995651
0 1 0.995651
0 1 0.995651
0 1 0.995651
0 1 0.993362
0 0.990463 0.950042
0.970687 1 0
0 0 0.344701
0.00579843 0 0.339315
0.0923629 0 0.336538
0.217212 0 0.334295
0.4177 0 0.337575
0.637018 0 0.360372
0.838682 0 0.408103
0.987594 0 0.519722
1 0 0.743847
0 0 0.287633
0 0 0.320439
0.028275 0 0.324117
0.186816 0 0.328099
0.40911 0 0.338674
0.641581 0 0.3664
0.837232 0 0.402396
0.989349 0 0.524498
1 0 0.720989
0 0 0.298512
0 0 0.307942
0 0 0.327596
0.169131 0 0.332906
0.407218 0 0.343618
0.646937 0 0.372534
0.844526 0 0.409491
0.989654 0 0.524559
1 0 0.707897
0 0.0902266 0.302907
0 0.093431 0.321141
0 0.100786 0.323888
0.0991226 0.0916457 0.333486
0.391012 0.0586404 0.345052
0.645838 0.00515755 0.37319
0.850889 0 0.412253
0.989868 0 0.523247
1 0 0.676905
0 0.301701 0.283757
0 0.313924 0.299336
0 0.320836 0.307301
0 0.330755 0.322042
0.305058 0.322972 0.332921
0.623529 0.338323 0.338491
0.841794 0.298863 0.418341
0.988022 0.144076 0.513771
1 0 0.652369
0 0.510094 0.197009
0 0.52398 0.214984
0 0.531334 0.228214
0 0.545312 0.274693
0 0.559686 0.415946
0.530999 0.556619 0.3084
0.80827 0.532387 0.348821
0.976654 0.486748 0.476875
1 0.321416 0.645441
0 0.709178 0.362142
0 0.69987 0.385657
0 0.694774 0.397955
0 0.685588 0.421698
0 0.69456 0.493797
0 0.765072 0.525765
0.725292 0.761028 0.25098
0.93225 0.743648 0.307729
1 0.716304 0.503578
0 0.970962 0.713497
0 0.968429 0.716289
0 0.966613 0.716899
0 0.963211 0.720165
0 0.953445 0.728023
0 0.921859 0.743694
0 0.880751 0.752087
0.874662 0.919127 0.0404974
0.985428 0.925551 0
0 1 0.995651
0 1 0.995651
0 1 0.995651
0 1 0.995651
0 1 0.995651
0 1 0.995651
0 1 0.993347
0 0.990265 0.948913
0.958755 0.998276 0
0 0 0.536553
0.000793469 0 0.543313
0.0708324 0 0.544625
0.233173 0 0.546914
0.437079 0 0.551934
0.652888 0 0.565515
0.84387 0 0.588922
0.984054 0.370245 0.657343
1 0 0.752285
0 0 0.538186
0 0 0.549554
0 0 0.551156
0.199542 0 0.552789
0.429191 0 0.558328
0.654459 0 0.571725
0.850813 0 0.598627
0.979614 0.420691 0.657221
1 0 0.751339
0 0 0.523735
0 0 0.551293
0 0 0.552865
0.17052 0 0.554147
0.421393 0 0.55967
0.653239 0 0.573388
0.851316 0 0.600107
0.977295 0.440208 0.656809
1 0 0.750454
0 0.0822309 0.499107
0 0.073579 0.525414
0 0.0406958 0.549279
0.064622 0.0142672 0.55552
0.399466 0.00479133 0.560037
0.646296 0 0.573739
0.848783 0 0.599893
0.974777 0.460304 0.655497
1 0.0310521 0.749004
0 0.292973 0.529229
0 0.305928 0.54432
0 0.311696 0.551644
0 0.317815 0.551049
0.309773 0.306249 0.557076
0.620005 0.286976 0.56997
0.836973 0.241611 0.593713
0.970825 0.484932 0.648554
1 0.27071 0.742565
0 0.505318 0.490349
0 0.518227 0.504402
0 0.524834 0.51162
0 0.537926 0.526085
0 0.549126 0.542718
0.528572 0.53846 0.552468
0.79498 0.562066 0.563317
0.958236 0.55494 0.62977
1 0.498665 0.722911
0 0.719768 0.483207
0 0.727565 0.503273
0 0.731182 0.51339
0 0.738567 0.536461
0 0.754192 0.597055
0 0.742046 0.635538
0.717281 0.738933 0.541329
0.92314 0.72369 0.567605
0.998093 0.701869 0.684291
0 0.962112 0.727504
0 0.960113 0.725994
0 0.958648 0.724224
0 0.95581 0.722255
0 0.946227 0.718425
0 0.916869 0.716258
0 0.893324 0.789456
0.863767 0.894179 0.524147
0.974136 0.892149 0.504753
0 1 0.995651
0 1 0.995651
0 1 0.995651
0 1 0.995651
0 1 0.995651
0 1 0.995651
0 1 0.993286
0 0.989349 0.94612
0.942641 0.980133 0.477607
0 0 0.737911
0.0557412 0 0.738705
0.185595 0 0.738949
0.311696 0 0.739849
0.477501 0 0.742
0.668879 0 0.748348
0.852369 0 0.764752
0.991409 0 0.789654
0.997909 0.66479 0.818387
0 0.0390631 0.738994
0 0.0354925 0.739162
0.0920729 0.0329595 0.739727
0.272923 0.0279698 0.740124
0.461799 0.0148775 0.742351
0.661982 0 0.748531
0.848447 0 0.764218
0.990082 0 0.789441
0.997909 0.666102 0.818204
0 0.0704814 0.738918
0 0.0652934 0.739406
0.0628214 0.0621805 0.739498
0.246067 0.0539254 0.739834
0.451789 0.0345006 0.74258
0.657923 0 0.748348
0.846693 0 0.764263
0.990021 0 0.789059
0.997879 0.66685 0.817975
0 0.194186 0.738018
0 0.175723 0.739055
0 0.171374 0.739345
0.178744 0.163897 0.739834
0.43003 0.142382 0.741863
0.648997 0.0915847 0.747799
0.841611 0.0509346 0.763104
0.986099 0.0545357 0.787549
0.997543 0.668467 0.817197
0 0.359304 0.687938
0 0.376776 0.706859
0 0.384863 0.718914
0 0.377295 0.734936
0.35491 0.352087 0.739162
0.620722 0.338491 0.744381
0.827619 0.31693 0.75938
0.976211 0.307195 0.783169
0.996124 0.676219 0.815381
0 0.531167 0.716533
0 0.542153 0.72665
0 0.547112 0.730465
0 0.553491 0.736904
0 0.551095 0.732006
0.538293 0.539315 0.736446
0.790936 0.530541 0.748486
0.951553 0.524392 0.768612
0.993088 0.692195 0.810193
0 0.665156 0.652949
0 0.671107 0.659205
0 0.676936 0.665125
0 0.69221 0.68043
0 0.728176 0.717189
0.0288701 0.732387 0.728542
0.713588 0.720272 0.733577
0.907256 0.743389 0.744213
0.99057 0.727657 0.795544
0 0.887861 0.705242
0 0.884443 0.701152
0 0.882795 0.699138
0 0.879011 0.694469
0 0.86714 0.682795
0 0.874723 0.721019
0.357458 0.869566 0.801419
0.85449 0.868421 0.731273
0.962264 0.861433 0.752422
0 1 0.995651
0 1 0.995651
0 1 0.995651
0 1 0.995651
0 1 0.995651
0 1 0.995651
0 1 0.993027
0 0.985824 0.938842
0.930724 0.950851 0.730373
0.302235 0.390311 0.871992
0.368002 0.388952 0.872038
0.39646 0.388708 0.872312
0.44538 0.386877 0.872618
0.540642 0.383795 0.873457
0.681208 0.378027 0.876127
0.838224 0.366491 0.882033
0.968963 0.337957 0.894835
1 0.402075 0.909117
0.273747 0.417792 0.871565
0.342504 0.417304 0.872068
0.374823 0.416892 0.872221
0.429206 0.414679 0.872236
0.530053 0.411734 0.872999
0.675059 0.406302 0.875441
0.83444 0.39678 0.881132
0.96611 0.372503 0.893629
1 0.426047 0.90782
0.249271 0.431495 0.871351
0.32781 0.430335 0.871519
0.360678 0.429633 0.871626
0.420356 0.428504 0.871992
0.524605 0.425467 0.872663
0.671382 0.419989 0.875029
0.832547 0.410361 0.880827
0.964355 0.388617 0.892897
1 0.438743 0.907164
0.180682 0.456062 0.870558
0.298772 0.455589 0.871031
0.333104 0.454643 0.871077
0.398108 0.453071 0.871107
0.510475 0.450446 0.871824
0.663142 0.444602 0.873793
0.827573 0.436286 0.879499
0.960632 0.416831 0.891218
0.999969 0.46331 0.905608
0.0141451 0.513802 0.869429
0.153704 0.511406 0.86981
0.225528 0.509911 0.869718
0.327138 0.508339 0.869718
0.471305 0.505318 0.869993
0.64242 0.499733 0.871443
0.815747 0.493645 0.876554
0.952468 0.481514 0.887907
0.999878 0.51577 0.902449
0 0.570764 0.819272
0 0.592233 0.834409
0 0.603357 0.843244
0 0.627207 0.858488
0 0.618799 0.865721
0.586572 0.59881 0.86717
0.78883 0.594079 0.87155
0.934661 0.588281 0.881254
0.996078 0.607797 0.895094
0 0.737301 0.861097
0 0.747127 0.866819
0 0.751873 0.869566
0 0.760601 0.874357
0 0.75172 0.869886
0.308888 0.738659 0.862181
0.725994 0.728176 0.864363
0.902495 0.724681 0.871885
0.984451 0.726329 0.884855
0 0.883497 0.869429
0 0.87921 0.865599
0 0.877089 0.863554
0 0.872343 0.858869
0 0.858686 0.845869
0 0.86511 0.852567
0.487419 0.861158 0.858198
0.851118 0.852537 0.86186
0.951034 0.86125 0.872099
0 1 0.989731
0 1 0.989227
0 1 0.989029
0 1 0.98854
0 1 0.986999
0 1 0.981689
0 0.995956 0.95436
0.465888 0.934752 0.894194
0.922881 0.928862 0.863188
0.587045 0.660548 0.934905
0.601816 0.6607 0.935042
0.609308 0.660182 0.934981
0.623209 0.659403 0.934936
0.658488 0.658839 0.935164
0.728405 0.65716 0.935653
0.831891 0.654917 0.937179
0.932296 0.652903 0.940505
0.99411 0.645624 0.9467
0.581659 0.666743 0.934737
0.596139 0.666423 0.934737
0.603891 0.665949 0.934707
0.619165 0.665797 0.934798
0.654902 0.665141 0.935012
0.726009 0.663401 0.935485
0.830289 0.661006 0.93695
0.931197 0.659113 0.940185
0.99321 0.652323 0.94638
0.578088 0.669429 0.934493
0.593347 0.669413 0.9346
0.600916 0.668971 0.934569
0.616693 0.668788 0.934676
0.65275 0.668116 0.934874
0.724102 0.665965 0.935256
0.829023 0.66363 0.936675
0.93051 0.661997 0.939971
0.992767 0.655558 0.946166
0.570825 0.675532 0.934188
0.586954 0.675425 0.93431
0.594217 0.67509 0.934295
0.611276 0.674754 0.934356
0.647883 0.67393 0.934569
0.720867 0.671839 0.934997
0.827146 0.669444 0.936446
0.929 0.667582 0.939467
0.991852 0.66125 0.945663
0.552789 0.691325 0.933608
0.568826 0.691142 0.933684
0.577264 0.690684 0.933623
0.594141 0.690013 0.933577
0.634791 0.689326 0.933761
0.710887 0.686992 0.934066
0.821393 0.685054 0.935515
0.925338 0.683406 0.938567
0.989578 0.677882 0.944564
0.482689 0.728298 0.932158
0.507668 0.726833 0.93196
0.520378 0.726589 0.932021
0.545769 0.725887 0.932036
0.595102 0.724819 0.932189
0.685252 0.722377 0.932448
0.806836 0.719738 0.933562
0.916655 0.718334 0.936339
0.984192 0.715358 0.941756
0 0.786954 0.918578
0 0.775158 0.913985
0 0.768597 0.911955
0 0.760647 0.909377
0 0.825177 0.932403
0.463691 0.79794 0.928267
0.768933 0.784527 0.929641
0.897551 0.782483 0.931991
0.968917 0.781476 0.93666
0 0.879362 0.929885
0 0.886717 0.934218
0 0.890501 0.936629
0 0.898009 0.94049
0 0.911009 0.946166
0 0.879271 0.92958
0.621698 0.867933 0.925093
0.859586 0.861067 0.926467
0.946639 0.860212 0.930358
0 0.999466 0.98526
0 0.999176 0.984726
0 0.999023 0.984436
0 0.998611 0.983642
0 0.997559 0.981598
0 0.991455 0.974685
0 0.956878 0.941787
0.73991 0.925368 0.923613
0.921218 0.920455 0.925643
